;FLAVOR:Marlin
;TIME:1542
;Filament used: 0.587338m
;Layer height: 0.12
;MINX:98.527
;MINY:98.527
;MINZ:0.12
;MAXX:136.473
;MAXY:136.473
;MAXZ:7.08
;Generated with Cura_SteamEngine 5.2.2
M140 S50
M105
M190 S50
M104 S200
M105
M109 S200
M82 ;absolute extrusion mode
; Ender 3 Custom Start G-code
G92 E0 ; Reset Extruder
G28 ; Home all axes
G1 Z2.0 F3000 ; Move Z Axis up little to prevent scratching of Heat Bed
G1 X0.1 Y20 Z0.3 F5000.0 ; Move to start position
G1 X0.1 Y200.0 Z0.3 F1500.0 E15 ; Draw the first line
G1 X0.4 Y200.0 Z0.3 F5000.0 ; Move to side a little
G1 X0.4 Y20 Z0.3 F1500.0 E30 ; Draw the second line
G92 E0 ; Reset Extruder
G1 Z2.0 F3000 ; Move Z Axis up little to prevent scratching of Heat Bed
G1 X5 Y20 Z0.3 F5000.0 ; Move over to prevent blob squish
M141 S28
G92 E0
G92 E0
G1 F2700 E-5
;LAYER_COUNT:59
;LAYER:0
M107
G0 F6000 X112.082 Y109.504 Z0.12
;TYPE:SKIRT
G1 F2700 E0
G1 F1200 X112.645 Y109.11 E0.01371
G1 X112.885 Y109.013 E0.01888
G1 X113.927 Y108.401 E0.04299
G1 X114.655 Y108.177 E0.05819
G1 X116.208 Y107.96 E0.08949
G1 X116.531 Y107.874 E0.09616
G1 X116.575 Y107.849 E0.09717
G1 X118.26 Y107.852 E0.13079
G1 X118.301 Y107.874 E0.13172
G1 X118.713 Y107.972 E0.14017
G1 X119.883 Y108.069 E0.1636
G1 X120.996 Y108.415 E0.18686
G1 X122.324 Y109.086 E0.21655
G1 X123.759 Y110.114 E0.25178
G1 X124.484 Y110.734 E0.27082
G1 X124.658 Y111.002 E0.2772
G1 X125.598 Y112.085 E0.30581
G1 X126.172 Y113.256 E0.33184
G1 X126.356 Y113.539 E0.33857
G1 X127.017 Y115.588 E0.38154
G1 X126.321 Y113.601 E0.42355
G1 X125.383 Y111.883 E0.46262
G1 X125.105 Y111.526 E0.47165
G1 X124.315 Y110.795 E0.49313
G1 X124.237 Y110.628 E0.4968
G1 X123.988 Y110.315 E0.50479
G1 X122.654 Y109.375 E0.53735
G1 X120.299 Y108.228 E0.58963
G1 X119.933 Y108.102 E0.59735
G1 X118.596 Y108.001 E0.62411
G1 X118.206 Y107.889 E0.63221
G1 X116.699 Y107.896 E0.66228
G1 X115.597 Y108.056 E0.6845
G1 X115.274 Y108.143 E0.69118
G1 X115.046 Y108.257 E0.69626
G1 X113.937 Y108.492 E0.71889
G1 X113.483 Y108.676 E0.72866
G1 X112.164 Y109.503 E0.75973
G1 X112.082 Y109.504 E0.76137
G0 F6000 X111.741 Y109.75
G1 F1200 X111.659 Y109.499 E0.76664
G1 X111.738 Y109.257 E0.77172
G1 X112.435 Y108.769 E0.7887
G1 X112.682 Y108.668 E0.79402
G1 X113.763 Y108.033 E0.81904
G1 X114.575 Y107.783 E0.836
G1 X116.152 Y107.563 E0.86777
G1 X116.423 Y107.485 E0.8734
G1 X116.485 Y107.449 E0.87483
G1 X118.364 Y107.452 E0.91233
G1 X118.493 Y107.519 E0.91523
G1 X118.746 Y107.574 E0.9204
G1 X119.963 Y107.675 E0.94477
G1 X121.147 Y108.044 E0.96951
G1 X122.53 Y108.741 E1.00042
G1 X124.007 Y109.799 E1.03668
G1 X124.821 Y110.496 E1.05806
G1 X124.96 Y110.74 E1.06367
G1 X125.934 Y111.862 E1.09332
G1 X126.531 Y113.08 E1.12039
G1 X126.714 Y113.349 E1.12688
G1 X127.43 Y115.564 E1.17333
G1 X127.39 Y115.792 E1.17795
G1 X127.65 Y117.4 E1.21046
G1 X127.455 Y118.803 E1.23873
G1 X127.457 Y119.085 E1.24436
G1 X127.478 Y119.174 E1.24618
G1 X126.899 Y121.137 E1.28702
G1 X126.017 Y123.075 E1.32951
G1 X125.507 Y123.793 E1.34709
G1 X124.278 Y124.996 E1.38141
G1 X122.633 Y126.199 E1.42208
G1 X121.33 Y126.903 E1.45163
G1 X119.823 Y127.379 E1.48317
G1 X118.373 Y127.511 E1.51223
G1 X118.182 Y127.556 E1.51614
G1 X116.301 Y127.534 E1.55368
G1 X115.048 Y127.302 E1.57911
G1 X114.102 Y126.912 E1.59953
G1 X113.269 Y126.582 E1.61741
G1 X112.455 Y126.246 E1.63499
G1 X111.073 Y125.258 E1.66889
G1 X110.042 Y124.348 E1.69633
G1 X109.191 Y123.339 E1.72267
G1 X108.487 Y121.973 E1.75334
G1 X108.311 Y121.732 E1.7593
G1 X107.646 Y119.771 E1.80062
G1 X107.635 Y119.47 E1.80663
G1 X107.346 Y118.112 E1.83434
G1 X107.558 Y117.052 E1.85591
G1 X107.72 Y116.934 E1.85991
G1 X107.984 Y116.934 E1.86518
G1 X108.191 Y117.085 E1.87029
G1 X108.319 Y117.507 E1.87909
G1 X108.28 Y117.802 E1.88503
G1 X108.338 Y118.895 E1.90687
G1 X108.802 Y120.582 E1.94179
G1 X108.914 Y120.841 E1.94742
G1 X108.98 Y120.913 E1.94937
G1 X109.433 Y121.999 E1.97285
G1 X110.485 Y123.553 E2.0103
G1 X111.413 Y124.472 E2.03636
G1 X112.669 Y125.4 E2.06753
G1 X114.545 Y126.29 E2.10897
G1 X116.242 Y126.692 E2.14377
G1 X118.547 Y126.726 E2.18977
G1 X118.818 Y126.693 E2.19522
G1 X120.668 Y126.204 E2.23341
G1 X122.211 Y125.472 E2.26749
G1 X123.589 Y124.475 E2.30143
G1 X124.851 Y123.139 E2.33811
G1 X124.997 Y122.94 E2.34303
G1 X125.93 Y121.267 E2.38126
G1 X126.562 Y119.402 E2.42056
G1 X126.719 Y118.165 E2.44544
G1 X126.715 Y117.882 E2.45109
G1 X126.66 Y117.673 E2.4554
G1 X126.711 Y116.128 E2.48625
G1 X126.656 Y115.764 E2.4936
G1 X125.956 Y113.767 E2.53583
G1 X125.032 Y112.075 E2.5743
G1 X124.833 Y111.82 E2.58075
G1 X123.991 Y111.041 E2.60364
G1 X123.873 Y110.802 E2.60896
G1 X123.623 Y110.548 E2.61608
G1 X122.449 Y109.72 E2.64475
G1 X120.124 Y108.588 E2.69635
G1 X119.761 Y108.49 E2.70385
G1 X118.476 Y108.394 E2.72957
G1 X118.392 Y108.349 E2.73147
G1 X118.048 Y108.29 E2.73844
G1 X116.73 Y108.296 E2.76474
G1 X115.654 Y108.452 E2.78644
G1 X115.307 Y108.57 E2.79375
G1 X115.188 Y108.637 E2.79647
G1 X114.02 Y108.884 E2.8203
G1 X113.696 Y109.015 E2.82727
G1 X112.282 Y109.902 E2.86058
G1 X111.953 Y109.905 E2.86715
G1 X111.741 Y109.75 E2.87239
G0 F6000 X111.401 Y109.998
G1 F1200 X111.239 Y109.499 E2.88286
G1 X111.399 Y109.007 E2.89318
G1 X112.31 Y108.369 E2.91538
G1 X112.48 Y108.323 E2.91889
G1 X113.604 Y107.664 E2.9449
G1 X114.483 Y107.392 E2.96326
G1 X116.097 Y107.167 E2.99578
G1 X116.38 Y107.049 E3.0019
G1 X118.462 Y107.052 E3.04345
G1 X118.779 Y107.175 E3.05023
G1 X120.039 Y107.28 E3.07546
G1 X121.296 Y107.671 E3.10173
G1 X122.738 Y108.399 E3.13397
G1 X124.255 Y109.485 E3.1712
G1 X125.134 Y110.236 E3.19427
G1 X125.262 Y110.477 E3.19972
G1 X126.269 Y111.637 E3.23037
G1 X126.89 Y112.904 E3.25853
G1 X127.055 Y113.1 E3.26364
G1 X127.843 Y115.539 E3.31479
G1 X127.829 Y115.582 E3.3157
G1 X127.807 Y115.865 E3.32136
G1 X128.055 Y117.397 E3.35233
G1 X127.852 Y118.858 E3.38177
G1 X127.875 Y119.125 E3.38712
G1 X127.893 Y119.181 E3.38829
G1 X127.275 Y121.276 E3.43188
G1 X126.366 Y123.276 E3.47572
G1 X125.815 Y124.051 E3.4947
G1 X124.534 Y125.304 E3.53046
G1 X122.847 Y126.538 E3.57217
G1 X121.485 Y127.274 E3.60306
G1 X119.905 Y127.773 E3.63613
G1 X118.41 Y127.909 E3.66609
G1 X118.282 Y127.958 E3.66882
G1 X116.263 Y127.934 E3.70911
G1 X114.933 Y127.687 E3.73611
G1 X113.955 Y127.284 E3.75722
G1 X113.13 Y126.957 E3.77493
G1 X112.258 Y126.597 E3.79376
G1 X110.826 Y125.573 E3.82889
G1 X109.756 Y124.629 E3.85736
G1 X108.855 Y123.56 E3.88526
G1 X108.131 Y122.156 E3.91679
G1 X107.967 Y121.965 E3.92181
G1 X107.231 Y119.795 E3.96754
G1 X107.244 Y119.553 E3.97237
G1 X106.938 Y118.112 E4.00177
G1 X107.196 Y116.82 E4.02806
G1 X107.59 Y116.534 E4.03778
G1 X108.114 Y116.534 E4.04824
G1 X108.534 Y116.84 E4.05861
G1 X108.732 Y117.492 E4.07221
G1 X108.68 Y117.781 E4.07807
G1 X108.735 Y118.832 E4.09907
G1 X109.188 Y120.476 E4.1331
G1 X109.335 Y120.725 E4.13887
G1 X109.786 Y121.806 E4.16224
G1 X110.792 Y123.293 E4.19807
G1 X111.678 Y124.169 E4.22294
G1 X112.875 Y125.055 E4.25265
G1 X114.681 Y125.911 E4.29254
G1 X116.29 Y126.293 E4.32554
G1 X118.635 Y126.327 E4.37234
G1 X120.528 Y125.827 E4.41141
G1 X122.012 Y125.123 E4.44419
G1 X123.325 Y124.174 E4.47652
G1 X124.612 Y122.81 E4.51395
G1 X125.563 Y121.105 E4.55291
G1 X126.17 Y119.313 E4.59066
G1 X126.322 Y118.114 E4.61478
G1 X126.297 Y117.853 E4.62002
G1 X126.258 Y117.735 E4.6225
G1 X126.312 Y116.115 E4.65484
G1 X126.278 Y115.897 E4.65925
G1 X125.587 Y113.924 E4.70096
G1 X124.681 Y112.266 E4.73867
G1 X124.561 Y112.114 E4.74253
G1 X123.646 Y111.267 E4.76742
G1 X123.493 Y110.946 E4.77451
G1 X122.248 Y110.067 E4.80493
G1 X119.949 Y108.948 E4.85595
G1 X119.731 Y108.889 E4.86046
G1 X118.368 Y108.787 E4.88773
G1 X118.164 Y108.689 E4.89225
G1 X116.76 Y108.696 E4.92027
G1 X115.711 Y108.848 E4.94142
G1 X115.332 Y109.015 E4.94969
G1 X114.103 Y109.275 E4.97476
G1 X113.908 Y109.354 E4.97895
G1 X112.398 Y110.301 E5.01452
G1 X111.824 Y110.306 E5.02598
G1 X111.401 Y109.998 E5.03642
G0 F6000 X111.06 Y110.244
G1 F1200 X110.817 Y109.499 E5.05206
G1 X111.059 Y108.756 E5.06765
G1 X112.132 Y108.006 E5.09378
G1 X112.277 Y107.978 E5.09673
G1 X113.439 Y107.296 E5.12361
G1 X114.396 Y107.001 E5.1436
G1 X116.042 Y106.771 E5.17676
G1 X116.25 Y106.649 E5.18158
G1 X118.591 Y106.652 E5.22829
G1 X118.812 Y106.776 E5.23335
G1 X120.115 Y106.884 E5.25944
G1 X121.445 Y107.298 E5.28724
G1 X122.947 Y108.056 E5.32082
G1 X124.503 Y109.171 E5.35902
G1 X125.479 Y110.005 E5.38464
G1 X125.564 Y110.215 E5.38916
G1 X126.605 Y111.414 E5.42084
G1 X127.249 Y112.728 E5.45005
G1 X127.4 Y112.866 E5.45413
G1 X128.264 Y115.54 E5.51021
G1 X128.202 Y115.801 E5.51556
G1 X128.459 Y117.39 E5.54768
G1 X128.248 Y118.913 E5.57837
G1 X128.312 Y119.173 E5.58371
G1 X127.649 Y121.418 E5.63042
G1 X126.714 Y123.476 E5.67553
G1 X126.117 Y124.315 E5.69608
G1 X124.795 Y125.609 E5.733
G1 X123.061 Y126.877 E5.77587
G1 X121.643 Y127.643 E5.80803
G1 X119.981 Y128.168 E5.84281
G1 X118.446 Y128.308 E5.87357
G1 X118.329 Y128.358 E5.87611
G1 X116.226 Y128.333 E5.91808
G1 X114.816 Y128.072 E5.9467
G1 X113.808 Y127.656 E5.96846
G1 X112.975 Y127.326 E5.98634
G1 X112.065 Y126.95 E6.00599
G1 X110.574 Y125.884 E6.04257
G1 X109.469 Y124.909 E6.07198
G1 X108.522 Y123.786 E6.10129
G1 X107.776 Y122.339 E6.13378
G1 X107.626 Y122.204 E6.13781
G1 X106.819 Y119.825 E6.18794
G1 X106.853 Y119.636 E6.19177
G1 X106.529 Y118.114 E6.22283
G1 X106.834 Y116.59 E6.25384
G1 X107.461 Y116.134 E6.26931
G1 X108.243 Y116.134 E6.28492
G1 X108.879 Y116.596 E6.30061
G1 X109.152 Y117.495 E6.31936
G1 X109.079 Y117.76 E6.32484
G1 X109.131 Y118.748 E6.34458
G1 X109.573 Y120.37 E6.37813
G1 X109.673 Y120.496 E6.38134
G1 X110.132 Y121.598 E6.40517
G1 X111.091 Y123.021 E6.43941
G1 X111.949 Y123.873 E6.46354
G1 X113.099 Y124.719 E6.49203
G1 X114.793 Y125.522 E6.52944
G1 X116.32 Y125.889 E6.56078
G1 X118.585 Y125.926 E6.60599
G1 X120.407 Y125.442 E6.64361
G1 X121.79 Y124.786 E6.67416
G1 X123.045 Y123.882 E6.70502
G1 X124.288 Y122.57 E6.74109
G1 X125.187 Y120.958 E6.77792
G1 X125.781 Y119.202 E6.81492
G1 X125.925 Y118.064 E6.83781
G1 X125.856 Y117.79 E6.84345
G1 X125.913 Y116.064 E6.87791
G1 X125.215 Y114.078 E6.91992
G1 X124.315 Y112.43 E6.95739
G1 X123.298 Y111.489 E6.98504
G1 X123.162 Y111.202 E6.99138
G1 X122.029 Y110.405 E7.01902
G1 X119.741 Y109.291 E7.06981
G1 X118.24 Y109.178 E7.09985
G1 X118.052 Y109.09 E7.10399
G1 X116.777 Y109.098 E7.12943
G1 X115.733 Y109.249 E7.15049
G1 X115.476 Y109.393 E7.15636
G1 X114.153 Y109.673 E7.18335
G1 X112.515 Y110.7 E7.22193
G1 X111.696 Y110.707 E7.23828
G1 X111.06 Y110.244 E7.25398
G1 F2700 E2.25398
G0 F6000 X107.867 Y117.548
G1 F2700 E7.25398
G1 F1200 X107.933 Y118.811 E7.27922
G1 X107.981 Y119.109 E7.28524
G1 X108.416 Y120.689 E7.31794
G1 X108.543 Y120.998 E7.32461
G1 X108.637 Y121.127 E7.32779
G1 X109.025 Y122.059 E7.34794
G1 X109.158 Y122.306 E7.35354
G1 X110.098 Y123.694 E7.38699
G1 X110.272 Y123.904 E7.39244
G1 X111.154 Y124.778 E7.41721
G1 X112.353 Y125.664 E7.44697
G1 X112.585 Y125.803 E7.45236
G1 X113.579 Y126.274 E7.47431
G1 X112.649 Y125.893 E7.49437
G1 X111.324 Y124.945 E7.52688
G1 X110.329 Y124.068 E7.55335
G1 X109.525 Y123.114 E7.57825
G1 X108.842 Y121.789 E7.608
G1 X108.663 Y121.526 E7.61435
G1 X108.048 Y119.711 E7.65259
G1 X108.026 Y119.387 E7.65907
G1 X107.754 Y118.11 E7.68512
G1 X107.867 Y117.548 E7.69656
G1 F2700 E2.69656
G0 F6000 X114.763 Y126.752
G1 F2700 E7.69656
G1 F1200 X116.043 Y127.056 E7.72282
G1 X116.346 Y127.094 E7.72891
G1 X118.293 Y127.122 E7.76777
G1 X118.137 Y127.156 E7.77096
G1 X116.344 Y127.134 E7.80674
G1 X115.156 Y126.914 E7.83085
G1 X114.763 Y126.752 E7.83934
G1 F2700 E2.83934
G0 F6000 X119.036 Y127.049
G1 F2700 E7.83934
G1 F1200 X120.679 Y126.615 E7.87325
G1 X120.921 Y126.526 E7.87839
G1 X122.304 Y125.87 E7.90894
G1 X122.524 Y125.74 E7.91404
G1 X123.748 Y124.855 E7.94418
G1 X123.946 Y124.681 E7.94944
G1 X125.142 Y123.414 E7.98421
G1 X125.347 Y123.135 E7.99112
G1 X126.235 Y121.543 E8.0275
G1 X126.338 Y121.311 E8.03257
G1 X126.909 Y119.627 E8.06805
G1 X126.972 Y119.353 E8.07366
G1 X127.116 Y118.215 E8.09655
G1 X127.118 Y117.881 E8.10322
G1 X127.062 Y117.623 E8.10849
G1 X127.099 Y116.5 E8.13091
G1 X127.245 Y117.405 E8.1492
G1 X127.059 Y118.748 E8.17626
G1 X127.053 Y119.082 E8.18293
G1 X127.067 Y119.15 E8.18431
G1 X126.523 Y120.995 E8.2227
G1 X125.668 Y122.877 E8.26395
G1 X125.202 Y123.532 E8.27999
G1 X124.017 Y124.691 E8.31307
G1 X122.419 Y125.86 E8.35258
G1 X121.171 Y126.534 E8.38089
G1 X119.744 Y126.985 E8.41075
G1 X119.036 Y127.049 E8.42494
G1 F2700 E3.42494
;MESH:gear1-Gear.stl
G0 F6000 X119.033 Y129.119
G0 X119.169 Y130.176
G0 X117.492 Y130.888
;TYPE:WALL-INNER
G1 F2700 E8.42494
G1 F1200 X115.752 Y130.774 E8.45974
G1 X114.033 Y130.43 E8.49472
G1 X112.38 Y129.871 E8.52954
G1 X110.805 Y129.093 E8.5646
G1 X109.34 Y128.117 E8.59973
G1 X108.034 Y126.965 E8.63448
G1 X107.459 Y126.312 E8.65185
G1 X106.887 Y125.66 E8.66915
G1 X105.906 Y124.198 E8.70429
G1 X105.131 Y122.623 E8.73932
G1 X104.569 Y120.965 E8.77426
G1 X104.226 Y119.24 E8.80935
G1 X104.112 Y117.501 E8.84413
G1 X104.226 Y115.752 E8.87911
G1 X104.569 Y114.035 E8.91405
G1 X105.129 Y112.38 E8.94892
G1 X105.907 Y110.805 E8.98397
G1 X106.883 Y109.34 E9.0191
G1 X108.034 Y108.035 E9.05383
G1 X109.34 Y106.887 E9.08853
G1 X110.802 Y105.906 E9.12366
G1 X112.377 Y105.131 E9.15869
G1 X114.033 Y104.57 E9.19359
G1 X115.754 Y104.226 E9.22861
G1 X117.5 Y104.112 E9.26353
G1 X119.246 Y104.226 E9.29845
G1 X120.967 Y104.57 E9.33347
G1 X122.632 Y105.135 E9.36856
G1 X124.2 Y105.907 E9.40343
G1 X125.655 Y106.878 E9.43834
G1 X126.964 Y108.029 E9.47313
G1 X128.117 Y109.345 E9.50804
G1 X129.093 Y110.805 E9.54309
G1 X129.873 Y112.386 E9.57827
G1 X130.43 Y114.033 E9.61297
G1 X130.774 Y115.762 E9.64815
G1 X130.886 Y117.498 E9.68286
G1 X130.774 Y119.249 E9.71788
G1 X130.431 Y120.965 E9.7528
G1 X129.865 Y122.632 E9.78793
G1 X129.093 Y124.2 E9.82281
G1 X128.122 Y125.655 E9.85772
G1 X126.971 Y126.964 E9.8925
G1 X125.655 Y128.117 E9.92742
G1 X124.195 Y129.093 E9.96247
G1 X122.617 Y129.872 E9.99759
G1 X120.967 Y130.43 E10.03234
G1 X119.248 Y130.774 E10.06733
G1 X117.492 Y130.888 E10.10245
G0 F6000 X117.5 Y130.487
G1 F1200 X115.767 Y130.368 E10.13711
G1 X114.098 Y130.032 E10.17109
G1 X112.568 Y129.512 E10.20333
G1 X111.005 Y128.747 E10.23806
G1 X109.553 Y127.772 E10.27296
G1 X108.316 Y126.682 E10.30587
G1 X107.76 Y126.049 E10.32268
G1 X107.227 Y125.441 E10.33881
G1 X106.253 Y123.995 E10.37361
G1 X105.488 Y122.432 E10.40833
G1 X104.967 Y120.899 E10.44065
G1 X104.632 Y119.233 E10.47456
G1 X104.513 Y117.501 E10.5092
G1 X104.632 Y115.767 E10.54389
G1 X104.956 Y114.139 E10.57701
G1 X105.488 Y112.568 E10.61011
G1 X106.253 Y111.005 E10.64484
G1 X107.228 Y109.553 E10.67974
G1 X108.316 Y108.318 E10.71259
G1 X109.559 Y107.227 E10.74559
G1 X111.005 Y106.253 E10.78039
G1 X112.568 Y105.488 E10.81511
G1 X114.098 Y104.968 E10.84736
G1 X115.768 Y104.632 E10.88136
G1 X117.5 Y104.514 E10.916
G1 X119.232 Y104.632 E10.95064
G1 X120.902 Y104.968 E10.98464
G1 X122.504 Y105.518 E11.01844
G1 X123.995 Y106.253 E11.05161
G1 X125.384 Y107.179 E11.08493
G1 X126.682 Y108.316 E11.11936
G1 X127.817 Y109.617 E11.15382
G1 X128.747 Y111.005 E11.18716
G1 X129.481 Y112.493 E11.22027
G1 X130.032 Y114.098 E11.25413
G1 X130.368 Y115.768 E11.28813
G1 X130.486 Y117.498 E11.32273
G1 X130.379 Y119.155 E11.35587
G1 X130.044 Y120.861 E11.39056
G1 X129.482 Y122.504 E11.42522
G1 X128.747 Y123.995 E11.45839
G1 X127.821 Y125.384 E11.4917
G1 X126.684 Y126.682 E11.52614
G1 X125.383 Y127.817 E11.56059
G1 X124.03 Y128.725 E11.59311
G1 X122.432 Y129.512 E11.62866
G1 X120.902 Y130.032 E11.66091
