;FLAVOR:Marlin
;TIME:2179
;Filament used: 0.482518m
;Layer height: 0.12
;MINX:93.104
;MINY:101.868
;MINZ:0.24
;MAXX:141.349
;MAXY:134.255
;MAXZ:28.25
;Generated with Cura_SteamEngine 5.2.2
M140 S50
M105
M190 S50
M104 S200
M105
M109 S200
M82 ;absolute extrusion mode
; Ender 3 Custom Start G-code
G92 E0 ; Reset Extruder
G28 ; Home all axes
G1 Z2.0 F3000 ; Move Z Axis up little to prevent scratching of Heat Bed
G1 X0.1 Y20 Z0.3 F5000.0 ; Move to start position
G1 X0.1 Y200.0 Z0.3 F1500.0 E15 ; Draw the first line
G1 X0.4 Y200.0 Z0.3 F5000.0 ; Move to side a little
G1 X0.4 Y20 Z0.3 F1500.0 E30 ; Draw the second line
G92 E0 ; Reset Extruder
G1 Z2.0 F3000 ; Move Z Axis up little to prevent scratching of Heat Bed
G1 X5 Y20 Z0.3 F5000.0 ; Move over to prevent blob squish
M141 S28
G92 E0
G92 E0
G1 F2700 E-5
;LAYER_COUNT:229
;LAYER:-7
M107
G0 F9000 X98.316 Y106.875 Z0.24
;TYPE:SUPPORT-INTERFACE
G1 F2700 E0
G1 F1125 X97.616 Y107.679 E0.08509
G1 X96.974 Y108.534 E0.17044
G1 X96.402 Y109.427 E0.2551
G1 X95.89 Y110.373 E0.34096
G1 X95.419 Y111.43 E0.43333
G1 X95.078 Y112.368 E0.513
G1 X94.894 Y112.938 E0.56081
G1 X94.681 Y113.653 E0.62037
G1 X94.462 Y114.572 E0.69578
G1 X94.288 Y115.613 E0.78003
G1 X94.19 Y116.675 E0.86516
G1 X94.17 Y117.749 E0.95091
G1 X94.231 Y118.891 E1.0422
G1 X94.374 Y119.95 E1.1275
G1 X94.613 Y121.062 E1.21829
G1 X94.881 Y122.003 E1.29639
G1 X95.074 Y122.604 E1.34678
G1 X95.27 Y123.166 E1.39429
G1 X95.676 Y124.149 E1.47919
G1 X96.148 Y125.101 E1.56401
G1 X96.727 Y126.078 E1.65466
G1 X97.306 Y126.899 E1.73486
G1 X98.024 Y127.785 E1.82589
G1 X98.818 Y128.613 E1.91746
G1 X99.553 Y129.282 E1.9968
G1 X100.431 Y129.968 E2.08574
G1 X100.888 Y130.301 E2.13088
G1 X101.583 Y130.776 E2.19807
G1 X102.441 Y131.292 E2.27799
G1 X103.387 Y131.773 E2.36271
G1 X104.447 Y132.212 E2.45429
G1 X105.305 Y132.5 E2.52654
G1 X106.403 Y132.785 E2.61709
G1 X107.389 Y132.962 E2.69705
G1 X108.527 Y133.088 E2.78845
G1 X109.669 Y133.117 E2.87964
G1 X110.571 Y133.079 E2.9517
G1 X112.118 Y132.914 E3.07589
G1 X112.976 Y132.863 E3.1445
G1 X113.806 Y132.793 E3.21099
G1 X114.796 Y132.682 E3.29051
G1 X115.757 Y132.503 E3.36854
G1 X116.04 Y132.439 E3.3917
G1 X116.786 Y132.313 E3.4521
G1 X117.477 Y132.293 E3.50728
G1 X118.12 Y132.353 E3.55883
G1 X118.944 Y132.542 E3.62631
G1 X119.985 Y132.761 E3.71123
G1 X120.909 Y132.89 E3.7857
G1 X121.57 Y132.946 E3.83865
G1 X122.19 Y133.019 E3.88849
G1 X123.766 Y133.148 E4.01471
G1 X124.472 Y133.186 E4.07115
G1 X125.544 Y133.182 E4.15672
G1 X126.674 Y133.095 E4.24719
G1 X127.646 Y132.943 E4.32572
G1 X128.771 Y132.689 E4.41778
G1 X129.721 Y132.394 E4.49719
G1 X130.783 Y131.982 E4.58812
G1 X131.815 Y131.481 E4.67969
G1 X132.588 Y131.038 E4.75081
G1 X133.574 Y130.38 E4.84543
G1 X134.08 Y130.011 E4.89542
G1 X134.616 Y129.601 E4.94929
G1 X135.382 Y128.944 E5.02985
G1 X136.138 Y128.195 E5.1148
G1 X136.838 Y127.39 E5.19995
G1 X137.483 Y126.53 E5.28576
G1 X138.088 Y125.574 E5.37607
G1 X138.565 Y124.697 E5.45576
G1 X139.011 Y123.709 E5.54229
G1 X139.386 Y122.674 E5.63017
G1 X139.587 Y122.05 E5.6825
G1 X139.776 Y121.408 E5.73592
G1 X139.991 Y120.503 E5.81017
G1 X140.177 Y119.383 E5.9008
G1 X140.264 Y118.385 E5.98076
G1 X140.273 Y117.853 E6.02324
G1 X140.283 Y117.319 E6.06587
G1 X140.221 Y116.193 E6.15589
G1 X140.08 Y115.132 E6.24133
G1 X139.837 Y114.001 E6.33367
G1 X139.578 Y113.092 E6.40912
G1 X139.389 Y112.506 E6.45827
G1 X139.195 Y111.944 E6.50573
G1 X138.758 Y110.883 E6.59732
G1 X138.273 Y109.92 E6.68339
G1 X137.733 Y109.019 E6.76724
G1 X137.114 Y108.137 E6.85325
G1 X136.498 Y107.385 E6.93085
G1 X135.72 Y106.553 E7.02178
G1 X134.978 Y105.876 E7.10196
G1 X134.059 Y105.148 E7.19554
G1 X133.502 Y104.742 E7.25056
G1 X132.765 Y104.245 E7.32152
G1 X131.845 Y103.709 E7.40651
G1 X130.959 Y103.269 E7.48548
G1 X129.955 Y102.86 E7.57202
G1 X129.047 Y102.567 E7.64818
G1 X127.923 Y102.282 E7.74074
G1 X126.961 Y102.119 E7.81863
G1 X125.813 Y102.003 E7.91073
G1 X124.752 Y101.98 E7.99544
G1 X123.675 Y102.033 E8.08152
G1 X122.803 Y102.143 E8.15168
G1 X122.463 Y102.174 E8.17893
G1 X121.535 Y102.228 E8.25313
G1 X120.663 Y102.306 E8.32302
G1 X119.682 Y102.416 E8.40182
G1 X118.715 Y102.597 E8.48035
G1 X118.427 Y102.66 E8.50388
G1 X118.411 Y102.648 E8.50548
G1 X117.631 Y102.785 E8.56869
G1 X116.968 Y102.796 E8.62162
G1 X116.373 Y102.737 E8.66935
G1 X115.779 Y102.609 E8.71785
G1 X115.537 Y102.547 E8.7378
G1 X114.63 Y102.352 E8.81185
G1 X113.515 Y102.192 E8.90177
G1 X112.404 Y102.116 E8.99066
G1 X112.392 Y102.101 E8.99219
G1 X111.979 Y102.07 E9.02525
G1 X110.921 Y101.933 E9.11041
G1 X109.931 Y101.868 E9.18961
G1 X108.949 Y101.875 E9.268
G1 X107.817 Y101.96 E9.35861
G1 X106.836 Y102.113 E9.43787
G1 X105.71 Y102.366 E9.52999
G1 X104.602 Y102.715 E9.62272
G1 X103.702 Y103.068 E9.69989
G1 X102.736 Y103.53 E9.78537
G1 X101.821 Y104.053 E9.86949
G1 X100.953 Y104.635 E9.95292
G1 X100.406 Y105.031 E10.00682
G1 X99.838 Y105.467 E10.06398
G1 X99.068 Y106.128 E10.14498
G1 X98.316 Y106.875 E10.22959
G0 F9000 X98.369 Y107.42
G1 F1125 X123.687 Y132.738 E13.08771
G0 F9000 X125.959 Y132.747
G1 F1125 X99.497 Y106.285 E16.07497
G0 F9000 X100.749 Y105.275
G1 F1125 X127.939 Y132.465 E19.14441
G0 F9000 X129.706 Y131.969
G1 F1125 X102.094 Y104.356 E22.26155
G0 F9000 X103.573 Y103.573
G1 F1125 X131.289 Y131.289 E25.39037
G0 F9000 X132.726 Y130.464
G1 F1125 X105.206 Y102.944 E28.49707
G0 F9000 X107.015 Y102.49
G1 F1125 X134.052 Y129.527 E31.54924
G0 F9000 X135.274 Y128.486
G1 F1125 X109.062 Y102.273 E34.50833
G0 F9000 X111.456 Y102.406
G1 F1125 X136.369 Y127.318 E37.32067
G0 F9000 X137.332 Y126.019
G1 F1125 X113.975 Y102.662 E39.95741
G0 F9000 X116.753 Y103.176
G1 F1125 X138.167 Y124.59 E42.3748
G0 F9000 X138.841 Y123.001
G1 F1125 X118.822 Y102.983 E44.63467
G0 F9000 X120.797 Y102.695
G1 F1125 X139.392 Y121.29 E46.73383
G0 F9000 X139.768 Y119.403
G1 F1125 X122.898 Y102.534 E48.63821
G0 F9000 X125.013 Y102.386
G1 F1125 X139.879 Y117.251 E50.31635
G0 F9000 X139.574 Y114.684
G1 F1125 X127.508 Y102.618 E51.67847
G0 F9000 X130.782 Y103.629
G1 F1125 X138.527 Y111.374 E52.55279
G1 F2700 E47.55279
G0 F9000 X139.881 Y110.813
G0 X140.599 Y112.787
G0 X141.11 Y114.855
G0 X141.287 Y116.19
G0 X141.335 Y118.283
G0 X141.22 Y119.604
G0 X140.808 Y121.672
G0 X140.024 Y124.035
G0 X139.467 Y125.268
G0 X138.414 Y127.05
G0 X137.594 Y128.142
G0 X136.172 Y129.659
G0 X134.716 Y130.867
G0 X133.138 Y131.95
G0 X131.296 Y132.917
G0 X130.062 Y133.402
G0 X128.039 Y133.952
G0 X126.684 Y134.162
G0 X124.62 Y134.255
G0 X121.257 Y133.973
G0 X121.198 Y132.511
G1 F2700 E52.55279
G1 F1125 X97.364 Y108.678 E55.24332
G0 F9000 X96.502 Y110.078
G1 F1125 X118.436 Y132.013 E57.71948
G0 F9000 X116.171 Y132.011
G1 F1125 X95.776 Y111.615 E60.0219
G0 F9000 X95.201 Y113.303
G1 F1125 X114.238 Y132.34 E62.17096
G0 F9000 X112.146 Y132.511
G1 F1125 X94.772 Y115.137 E64.13228
G0 F9000 X94.579 Y117.207
G1 F1125 X110.071 Y132.698 E65.8811
G0 F9000 X107.703 Y132.593
G1 F1125 X94.733 Y119.623 E67.34526
G0 F9000 X95.522 Y122.675
G1 F1125 X104.731 Y131.884 E68.38486
G1 F2700 E63.38486
G0 F300 X104.731 Y131.884 Z0.42
G0 F9000 X104.082 Y133.212
G0 X102.828 Y132.683
G0 X101.012 Y131.675
G0 X98.945 Y130.159
G0 X97.952 Y129.257
G0 X96.556 Y127.674
G0 X95.778 Y126.565
G0 X94.781 Y124.754
G0 X94.064 Y122.94
G0 X93.532 Y121.135
G0 X93.185 Y119.097
G0 X93.104 Y117.76
G0 X93.21 Y115.661
G0 X93.419 Y114.352
G0 X94.07 Y112.023
G0 X94.896 Y109.987
G0 X95.548 Y108.784
G0 X96.727 Y107.089
G0 X97.611 Y106.075
G0 X98.865 Y104.919
G0 X100.267 Y103.816
G0 X101.058 Y104.804
;TIME_ELAPSED:55.304107
;LAYER:-6
;TYPE:SUPPORT
G1 F2700 E68.38486
G1 F1125 X100.489 Y105.218 E68.41645
G1 X99.97 Y105.617 E68.44585
G1 X99.195 Y106.282 E68.4917
G1 X98.463 Y107.009 E68.53802
G1 X97.77 Y107.804 E68.58538
G1 X97.134 Y108.653 E68.63301
G1 X96.916 Y108.993 E68.65114
G1 X101.197 Y104.711 E68.92302
G1 X102.013 Y104.17 E68.96698
G1 X102.888 Y103.677 E69.01207
G1 X103.798 Y103.242 E69.05736
G1 X95.645 Y111.395 E69.57508
G1 X95.262 Y112.444 E69.62522
G1 X95.043 Y113.128 E69.65747
G1 X105.57 Y102.601 E70.32593
G1 X106.792 Y102.32 E70.38223
G1 X107.018 Y102.285 E70.3925
G1 X94.649 Y114.654 E71.17793
G1 X94.485 Y115.644 E71.22299
G1 X94.454 Y115.98 E71.23814
G1 X108.312 Y102.122 E72.11812
G1 X108.953 Y102.075 E72.14698
G1 X109.496 Y102.07 E72.17136
G1 X94.379 Y117.186 E73.13126
G1 X94.369 Y117.743 E73.15627
G1 X94.399 Y118.298 E73.18123
G1 X110.585 Y102.111 E74.20907
G1 X111.047 Y102.145 E74.22987
G1 X111.606 Y102.222 E74.25521
G1 X94.494 Y119.334 E75.34181
G1 X94.585 Y119.986 E75.37137
G1 X94.654 Y120.306 E75.38607
G1 X112.627 Y102.332 E76.52739
G1 X113.687 Y102.403 E76.57509
G1 X94.865 Y121.226 E77.77032
G1 X95.116 Y122.106 E77.8114
G1 X114.661 Y102.561 E79.05251
G1 X115.588 Y102.765 E79.09513
G1 X95.399 Y122.955 E80.37716
G1 X95.729 Y123.756 E80.41606
G1 X116.533 Y102.952 E81.73711
G1 X116.949 Y102.995 E81.75589
G1 X117.631 Y102.985 E81.78651
G1 X96.088 Y124.529 E83.15452
G1 X96.323 Y125.005 E83.17836
G1 X96.479 Y125.268 E83.19209
G1 X119.003 Y102.745 E84.62233
G1 X119.714 Y102.613 E84.6548
G1 X120.337 Y102.542 E84.68295
G1 X96.901 Y125.978 E86.17113
G1 X97.369 Y126.642 E86.20761
G1 X121.587 Y102.423 E87.74548
G1 X122.48 Y102.372 E87.78564
G1 X122.801 Y102.341 E87.80012
G1 X97.867 Y127.274 E89.3834
G1 X98.169 Y127.649 E89.40502
G1 X98.392 Y127.881 E89.41947
G1 X124.056 Y102.217 E91.04913
G1 X124.756 Y102.179 E91.0806
G1 X125.216 Y102.188 E91.10126
G1 X98.946 Y128.459 E92.76944
G1 X99.537 Y128.999 E92.80538
G1 X126.285 Y102.251 E94.50388
G1 X126.847 Y102.302 E94.52921
G1 X127.289 Y102.379 E94.54936
G1 X100.162 Y129.505 E96.27189
G1 X100.541 Y129.801 E96.29348
G1 X100.805 Y129.994 E96.30816
G1 X128.233 Y102.565 E98.04987
G1 X129.136 Y102.794 E98.0917
G1 X101.472 Y130.458 E99.84836
G1 X101.681 Y130.601 E99.85973
G1 X102.167 Y130.894 E99.88521
G1 X129.974 Y103.087 E101.65095
G1 X130.781 Y103.412 E101.69002
G1 X102.893 Y131.299 E103.46087
G1 X103.644 Y131.68 E103.49868
G1 X131.54 Y103.784 E105.27007
G1 X131.898 Y103.963 E105.28804
G1 X132.272 Y104.184 E105.30755
G1 X104.456 Y131.999 E107.07383
G1 X105.3 Y132.286 E107.11386
G1 X132.965 Y104.622 E108.87055
G1 X133.634 Y105.084 E108.90706
G1 X106.197 Y132.521 E110.6493
G1 X106.544 Y132.607 E110.66535
G1 X107.135 Y132.714 E110.69232
G1 X134.276 Y105.573 E112.41577
G1 X134.907 Y106.074 E112.45195
G1 X108.137 Y132.844 E114.15184
G1 X108.526 Y132.887 E114.16941
G1 X109.207 Y132.905 E114.2
G1 X135.501 Y106.612 E115.86963
G1 X136.048 Y107.196 E115.90556
G1 X110.341 Y132.903 E117.53795
G1 X111.608 Y132.767 E117.59517
G1 X136.578 Y107.797 E119.18076
G1 X137.088 Y108.418 E119.21684
G1 X112.835 Y132.672 E120.75694
G1 X113.789 Y132.594 E120.79992
G1 X114.076 Y132.562 E120.81288
G1 X137.543 Y109.095 E122.30303
G1 X137.969 Y109.8 E122.34002
G1 X115.406 Y132.364 E123.7728
G1 X115.702 Y132.308 E123.78632
G1 X116.512 Y132.127 E123.82359
G1 X116.522 Y132.154 E123.82488
G1 X116.787 Y132.113 E123.83693
G1 X138.36 Y110.54 E125.20681
G1 X138.576 Y110.966 E125.22825
G1 X138.718 Y111.314 E125.24513
G1 X117.9 Y132.132 E126.56707
G1 X118.289 Y132.166 E126.5846
G1 X118.852 Y132.311 E126.61071
G1 X139.043 Y112.12 E127.89283
G1 X139.327 Y112.968 E127.93299
G1 X119.77 Y132.525 E129.17486
G1 X120.759 Y132.667 E129.21972
G1 X139.584 Y113.842 E130.4151
G1 X139.66 Y114.102 E130.42727
G1 X139.797 Y114.761 E130.45749
G1 X121.787 Y132.77 E131.60109
G1 X122.243 Y132.824 E131.62171
G1 X122.818 Y132.871 E131.64761
G1 X139.954 Y115.735 E132.73574
G1 X140.027 Y116.297 E132.76119
G1 X140.052 Y116.768 E132.78237
G1 X123.868 Y132.953 E133.81008
G1 X124.492 Y132.986 E133.83814
G1 X124.968 Y132.984 E133.85951
G1 X140.072 Y117.88 E134.81862
G1 X140.063 Y118.364 E134.84035
G1 X140.001 Y119.082 E134.87271
G1 X126.148 Y132.935 E135.75237
G1 X126.653 Y132.897 E135.77511
G1 X127.441 Y132.773 E135.81093
G1 X139.803 Y120.411 E136.59592
G1 X139.544 Y121.497 E136.64605
G1 X139.414 Y121.932 E136.66643
G1 X128.916 Y132.43 E137.33305
G1 X129.655 Y132.204 E137.36775
G1 X130.663 Y131.814 E137.41628
G1 X138.809 Y123.668 E137.93355
G1 X138.387 Y124.602 E137.97957
G1 X137.909 Y125.485 E138.02466
G1 X137.317 Y126.416 E138.07419
G1 X136.678 Y127.27 E138.12209
G1 X135.938 Y128.11 E138.17235
G1 X135.192 Y128.844 E138.21934
G1 X134.402 Y129.515 E138.26588
G1 X133.465 Y130.213 E138.31835
G1 X133.253 Y130.355 E138.3298
G1 X137.533 Y126.075 E138.60158
G1 F2700 E133.60158
G0 F300 X137.533 Y126.075 Z0.54
G0 F9000 X138.6 Y126.759
G0 X139.56 Y125.082
G0 X140.396 Y123.014
G0 X141.034 Y120.724
G0 X141.244 Y119.41
G0 X141.349 Y117.308
G0 X141.268 Y115.989
G0 X140.922 Y113.949
G0 X140.13 Y111.411
G0 X139.259 Y109.508
G0 X138.563 Y108.347
G0 X137.546 Y107.006
G0 X136.549 Y105.879
G0 X135.63 Y106.749
;TIME_ELAPSED:141.034538
;LAYER:-5
;TYPE:SUPPORT-INTERFACE
G1 F2700 E138.60158
G1 F1500 X135.222 Y106.372 E138.6099
G1 X136.084 Y107.234 E138.62814
G1 X136.352 Y107.52 E138.63401
G1 X136.955 Y108.256 E138.64825
G1 X137.586 Y109.16 E138.66475
G1 X133.223 Y104.798 E138.75709
G1 X132.645 Y104.405 E138.76755
G1 X132.061 Y104.059 E138.77771
G1 X138.179 Y110.178 E138.90722
G1 X138.599 Y111.022 E138.92133
G1 X131.181 Y103.603 E139.07835
G1 X130.876 Y103.451 E139.08345
G1 X130.42 Y103.267 E139.09081
G1 X138.894 Y111.741 E139.27018
G1 X139.01 Y112.024 E139.27476
G1 X139.146 Y112.417 E139.28098
G1 X129.724 Y102.995 E139.48041
G1 X129.095 Y102.79 E139.49031
G1 X139.355 Y113.05 E139.70748
G1 X139.531 Y113.651 E139.71686
G1 X128.518 Y102.637 E139.94998
G1 X127.952 Y102.496 E139.95871
G1 X139.687 Y114.231 E140.2071
G1 X139.799 Y114.767 E140.21529
G1 X127.437 Y102.406 E140.47694
G1 X126.923 Y102.316 E140.48475
G1 X139.897 Y115.29 E140.75937
G1 X139.96 Y115.777 E140.76672
G1 X126.45 Y102.267 E141.05268
G1 X125.984 Y102.225 E141.05968
G1 X140.024 Y116.265 E141.35686
G1 X140.05 Y116.715 E141.36361
G1 X125.531 Y102.197 E141.67092
G1 X125.097 Y102.186 E141.67741
G1 X140.084 Y117.174 E141.99465
G1 X140.078 Y117.592 E142.0009
G1 X124.669 Y102.184 E142.32705
G1 X124.268 Y102.206 E142.33306
G1 X140.07 Y118.009 E142.66755
G1 X140.059 Y118.422 E142.67373
G1 X123.866 Y102.229 E143.01648
G1 X123.473 Y102.26 E143.02238
G1 X140.025 Y118.812 E143.37273
G1 X139.991 Y119.202 E143.37859
G1 X123.095 Y102.307 E143.73621
G1 X122.715 Y102.35 E143.74194
G1 X139.942 Y119.577 E144.10657
G1 X139.881 Y119.941 E144.1121
G1 X122.322 Y102.381 E144.48377
G1 X121.921 Y102.405 E144.48978
G1 X139.821 Y120.305 E144.86867
G1 X139.748 Y120.656 E144.87403
G1 X121.521 Y102.429 E145.25984
G1 X121.131 Y102.464 E145.2657
G1 X139.665 Y120.997 E145.65799
G1 X139.582 Y121.339 E145.66326
G1 X120.742 Y102.498 E146.06205
G1 X120.36 Y102.541 E146.0678
G1 X139.492 Y121.673 E146.47276
G1 X139.394 Y121.999 E146.47785
G1 X119.979 Y102.584 E146.8888
G1 X119.596 Y102.626 E146.89457
G1 X139.291 Y122.32 E147.31144
G1 X139.186 Y122.64 E147.31648
G1 X119.247 Y102.7 E147.73853
G1 X118.889 Y102.767 E147.74398
G1 X139.073 Y122.951 E148.17121
G1 X138.959 Y123.261 E148.17615
G1 X118.539 Y102.841 E148.60837
G1 X118.192 Y102.919 E148.6137
G1 X138.846 Y123.572 E149.05086
G1 X138.718 Y123.869 E149.0557
G1 X117.809 Y102.96 E149.49828
G1 X117.414 Y102.989 E149.5042
G1 X138.587 Y124.162 E149.95236
G1 X138.455 Y124.454 E149.95716
G1 X116.995 Y102.995 E150.41139
G1 X116.529 Y102.953 E150.41839
G1 X138.314 Y124.737 E150.87949
G1 X138.165 Y125.012 E150.88417
G1 X116.028 Y102.876 E151.35273
G1 X115.464 Y102.736 E151.36143
G1 X138.016 Y125.288 E151.83878
G1 X137.862 Y125.558 E151.84343
G1 X114.922 Y102.618 E152.32899
G1 X114.59 Y102.546 E152.33407
