;FLAVOR:Marlin
;TIME:1226
;Filament used: 0.285571m
;Layer height: 0.2
;MINX:104.77
;MINY:104.915
;MINZ:0.2
;MAXX:130.895
;MAXY:127.318
;MAXZ:29
;Generated with Cura_SteamEngine 5.2.2
M140 S50
M105
M190 S50
M104 S200
M105
M109 S200
M82 ;absolute extrusion mode
; Ender 3 Custom Start G-code
G92 E0 ; Reset Extruder
G28 ; Home all axes
G1 Z2.0 F3000 ; Move Z Axis up little to prevent scratching of Heat Bed
G1 X0.1 Y20 Z0.3 F5000.0 ; Move to start position
G1 X0.1 Y200.0 Z0.3 F1500.0 E15 ; Draw the first line
G1 X0.4 Y200.0 Z0.3 F5000.0 ; Move to side a little
G1 X0.4 Y20 Z0.3 F1500.0 E30 ; Draw the second line
G92 E0 ; Reset Extruder
G1 Z2.0 F3000 ; Move Z Axis up little to prevent scratching of Heat Bed
G1 X5 Y20 Z0.3 F5000.0 ; Move over to prevent blob squish
M141 S28
G92 E0
G92 E0
G1 F2700 E-5
;LAYER_COUNT:145
;LAYER:0
M107
G0 F6000 X108.136 Y108.157 Z0.2
;TYPE:SKIRT
G1 F2700 E0
G1 F1200 X108.84 Y107.533 E0.02347
G1 X109.594 Y106.972 E0.04691
G1 X110.392 Y106.476 E0.07035
G1 X111.23 Y106.051 E0.09379
G1 X112.102 Y105.698 E0.11725
G1 X113 Y105.42 E0.1407
G1 X114.126 Y105.185 E0.1694
G1 X114.521 Y105.124 E0.17937
G1 X115.255 Y105.036 E0.19781
G1 X115.868 Y104.983 E0.21316
G1 X116.773 Y104.933 E0.23577
G1 X117.759 Y104.915 E0.26037
G1 X118.338 Y104.92 E0.27481
G1 X118.939 Y104.942 E0.28981
G1 X120.144 Y105.018 E0.31993
G1 X120.919 Y105.087 E0.33934
G1 X121.85 Y105.218 E0.36279
G1 X122.766 Y105.427 E0.38623
G1 X123.661 Y105.713 E0.40967
G1 X124.529 Y106.075 E0.43313
G1 X125.363 Y106.509 E0.45658
G1 X126.157 Y107.012 E0.48003
G1 X126.905 Y107.581 E0.50347
G1 X127.602 Y108.212 E0.52692
G1 X128.243 Y108.899 E0.55036
G1 X128.824 Y109.638 E0.57381
G1 X129.339 Y110.425 E0.59727
G1 X129.786 Y111.252 E0.62072
G1 X130.161 Y112.114 E0.64417
G1 X130.461 Y113.004 E0.6676
G1 X130.684 Y113.917 E0.69104
G1 X130.829 Y114.846 E0.7145
G1 X130.895 Y115.784 E0.73796
G1 X130.881 Y116.724 E0.76141
G1 X130.786 Y117.659 E0.78485
G1 X130.613 Y118.583 E0.8083
G1 X130.362 Y119.489 E0.83175
G1 X130.034 Y120.37 E0.8552
G1 X129.633 Y121.22 E0.87865
G1 X129.162 Y122.033 E0.90208
G1 X128.622 Y122.803 E0.92554
G1 X128.02 Y123.524 E0.94898
G1 X127.358 Y124.192 E0.97244
G1 X126.642 Y124.801 E0.99588
G1 X125.876 Y125.346 E1.01933
G1 X125.067 Y125.825 E1.04279
G1 X124.221 Y126.233 E1.06622
G1 X123.342 Y126.568 E1.08968
G1 X122.439 Y126.827 E1.11311
G1 X121.426 Y127.022 E1.13885
G1 X121.01 Y127.082 E1.14933
G1 X120.186 Y127.181 E1.17004
G1 X119.33 Y127.259 E1.19148
G1 X118.574 Y127.304 E1.21037
G1 X117.881 Y127.318 E1.22766
G1 X117.314 Y127.312 E1.2418
G1 X116.77 Y127.293 E1.25538
G1 X115.735 Y127.231 E1.28125
G1 X114.622 Y127.108 E1.30918
G1 X114.038 Y127.013 E1.32394
G1 X113.117 Y126.822 E1.3474
G1 X112.216 Y126.555 E1.37084
G1 X111.341 Y126.211 E1.3943
G1 X110.499 Y125.795 E1.41772
G1 X109.694 Y125.308 E1.44119
G1 X108.934 Y124.755 E1.46464
G1 X108.224 Y124.139 E1.48809
G1 X107.569 Y123.465 E1.51153
G1 X106.973 Y122.738 E1.53498
G1 X106.442 Y121.963 E1.55842
G1 X105.978 Y121.145 E1.58188
G1 X105.585 Y120.291 E1.60533
G1 X105.266 Y119.407 E1.62877
G1 X105.024 Y118.498 E1.65224
G1 X104.86 Y117.573 E1.67567
G1 X104.775 Y116.637 E1.69911
G1 X104.77 Y115.697 E1.72256
G1 X104.844 Y114.76 E1.74601
G1 X104.998 Y113.832 E1.76947
G1 X105.231 Y112.922 E1.79291
G1 X105.54 Y112.034 E1.81636
G1 X105.923 Y111.175 E1.83982
G1 X106.378 Y110.353 E1.86326
G1 X106.901 Y109.572 E1.88671
G1 X107.489 Y108.838 E1.91017
G1 X108.136 Y108.157 E1.9336
G0 F6000 X108.585 Y108.147
G1 F1200 X109.298 Y107.554 E1.95673
G1 X110.059 Y107.025 E1.97985
G1 X110.863 Y106.563 E2.00298
G1 X111.704 Y106.172 E2.02612
G1 X112.575 Y105.855 E2.04924
G1 X113.47 Y105.614 E2.07236
G1 X114.171 Y105.482 E2.09015
G1 X114.566 Y105.421 E2.10012
G1 X115.281 Y105.335 E2.11809
G1 X115.894 Y105.282 E2.13344
G1 X116.447 Y105.246 E2.14726
G1 X117.406 Y105.218 E2.17119
G1 X118.336 Y105.22 E2.19439
G1 X118.92 Y105.241 E2.20897
G1 X120.125 Y105.317 E2.23909
G1 X120.89 Y105.385 E2.25825
G1 X121.808 Y105.515 E2.28137
G1 X122.711 Y105.723 E2.30449
G1 X123.593 Y106.008 E2.32761
G1 X124.448 Y106.368 E2.35075
G1 X125.268 Y106.801 E2.37388
G1 X126.048 Y107.302 E2.39701
G1 X126.781 Y107.869 E2.42013
G1 X127.464 Y108.497 E2.44327
G1 X128.089 Y109.181 E2.46638
G1 X128.653 Y109.917 E2.48951
G1 X129.152 Y110.698 E2.51263
G1 X129.582 Y111.52 E2.53577
G1 X129.939 Y112.376 E2.55891
G1 X130.221 Y113.259 E2.58203
G1 X130.426 Y114.163 E2.60516
G1 X130.552 Y115.082 E2.62829
G1 X130.599 Y116.008 E2.65142
G1 X130.565 Y116.934 E2.67454
G1 X130.452 Y117.854 E2.69766
G1 X130.261 Y118.761 E2.72078
G1 X129.991 Y119.649 E2.74393
G1 X129.646 Y120.509 E2.76705
G1 X129.229 Y121.337 E2.79017
G1 X128.741 Y122.126 E2.81332
G1 X128.188 Y122.869 E2.83642
G1 X127.572 Y123.563 E2.85957
G1 X126.899 Y124.2 E2.88268
G1 X126.174 Y124.778 E2.90581
G1 X125.401 Y125.29 E2.92894
G1 X124.587 Y125.734 E2.95207
G1 X123.738 Y126.107 E2.9752
G1 X122.86 Y126.405 E2.99833
G1 X121.96 Y126.626 E3.02145
G1 X121.384 Y126.725 E3.03603
G1 X120.968 Y126.785 E3.04651
G1 X120.152 Y126.883 E3.06702
G1 X119.305 Y126.96 E3.08823
G1 X118.559 Y127.004 E3.10687
G1 X117.884 Y127.018 E3.12371
G1 X117.317 Y127.012 E3.13786
G1 X116.788 Y126.994 E3.15106
G1 X115.753 Y126.932 E3.17693
G1 X114.67 Y126.812 E3.20411
G1 X114.086 Y126.717 E3.21887
G1 X113.178 Y126.528 E3.242
G1 X112.29 Y126.263 E3.26512
G1 X111.428 Y125.921 E3.28825
G1 X110.598 Y125.507 E3.31139
G1 X109.808 Y125.023 E3.3345
G1 X109.062 Y124.472 E3.35764
G1 X108.366 Y123.86 E3.38075
G1 X107.726 Y123.189 E3.40389
G1 X107.145 Y122.466 E3.42702
G1 X106.629 Y121.696 E3.45014
G1 X106.182 Y120.884 E3.47327
G1 X105.806 Y120.036 E3.49641
G1 X105.505 Y119.159 E3.51954
G1 X105.28 Y118.26 E3.54265
G1 X105.134 Y117.344 E3.56579
G1 X105.067 Y116.42 E3.5889
G1 X105.08 Y115.492 E3.61205
G1 X105.172 Y114.57 E3.63517
G1 X105.344 Y113.659 E3.65829
G1 X105.594 Y112.766 E3.68142
G1 X105.92 Y111.898 E3.70455
G1 X106.319 Y111.061 E3.72768
G1 X106.789 Y110.262 E3.75081
G1 X107.326 Y109.506 E3.77394
G1 X107.926 Y108.8 E3.79705
G1 X108.585 Y108.147 E3.82019
G0 F6000 X109.038 Y108.149
G1 F1200 X109.759 Y107.587 E3.843
G1 X110.527 Y107.091 E3.8658
G1 X111.335 Y106.664 E3.8886
G1 X112.177 Y106.309 E3.91139
G1 X113.047 Y106.028 E3.9342
G1 X114.217 Y105.778 E3.96405
G1 X114.612 Y105.717 E3.97402
G1 X115.307 Y105.634 E3.99148
G1 X116.246 Y105.558 E4.01498
G1 X116.788 Y105.533 E4.02851
G1 X117.754 Y105.515 E4.05261
G1 X118.333 Y105.52 E4.06706
G1 X118.901 Y105.541 E4.08123
G1 X120.106 Y105.617 E4.11135
G1 X120.861 Y105.684 E4.13026
G1 X121.766 Y105.812 E4.15306
G1 X122.656 Y106.019 E4.17585
G1 X123.525 Y106.303 E4.19866
G1 X124.366 Y106.662 E4.22147
G1 X125.172 Y107.092 E4.24426
G1 X125.938 Y107.592 E4.26708
G1 X126.656 Y108.157 E4.28987
G1 X127.323 Y108.782 E4.31267
G1 X127.933 Y109.463 E4.33547
G1 X128.481 Y110.195 E4.35828
G1 X128.962 Y110.972 E4.38108
G1 X129.374 Y111.788 E4.40388
G1 X129.714 Y112.636 E4.42667
G1 X129.977 Y113.512 E4.44949
G1 X130.163 Y114.407 E4.47229
G1 X130.271 Y115.314 E4.49508
G1 X130.298 Y116.228 E4.51789
G1 X130.246 Y117.141 E4.5407
G1 X130.113 Y118.045 E4.56349
G1 X129.903 Y118.935 E4.5863
G1 X129.615 Y119.803 E4.60911
G1 X129.253 Y120.642 E4.63191
G1 X128.819 Y121.446 E4.6547
G1 X128.316 Y122.21 E4.67752
G1 X127.748 Y122.926 E4.70032
G1 X127.12 Y123.59 E4.72311
G1 X126.437 Y124.197 E4.74591
G1 X125.703 Y124.742 E4.76871
G1 X124.924 Y125.22 E4.79151
G1 X124.106 Y125.629 E4.81433
G1 X123.256 Y125.964 E4.83712
G1 X122.379 Y126.224 E4.85993
G1 X121.341 Y126.428 E4.88632
G1 X120.925 Y126.488 E4.89681
G1 X120.117 Y126.585 E4.91711
G1 X119.279 Y126.661 E4.9381
G1 X118.543 Y126.705 E4.95649
G1 X117.887 Y126.718 E4.97286
G1 X117.32 Y126.712 E4.987
G1 X116.806 Y126.694 E4.99983
G1 X115.771 Y126.632 E5.0257
G1 X114.718 Y126.515 E5.05212
G1 X114.134 Y126.42 E5.06688
G1 X113.239 Y126.234 E5.08969
G1 X112.364 Y125.971 E5.11248
G1 X111.515 Y125.632 E5.13528
G1 X110.699 Y125.22 E5.15808
G1 X109.922 Y124.738 E5.18089
G1 X109.19 Y124.19 E5.2037
G1 X108.509 Y123.581 E5.22649
G1 X107.884 Y122.914 E5.24929
G1 X107.319 Y122.195 E5.27211
G1 X106.82 Y121.429 E5.29491
G1 X106.389 Y120.623 E5.31771
G1 X106.03 Y119.782 E5.34052
G1 X105.746 Y118.914 E5.3633
G1 X105.539 Y118.023 E5.38612
G1 X105.411 Y117.118 E5.40892
G1 X105.362 Y116.205 E5.43173
G1 X105.394 Y115.292 E5.45452
G1 X105.505 Y114.384 E5.47734
G1 X105.695 Y113.49 E5.50013
G1 X105.962 Y112.616 E5.52293
G1 X106.305 Y111.769 E5.54573
G1 X106.72 Y110.954 E5.56854
G1 X107.205 Y110.179 E5.59135
G1 X107.756 Y109.45 E5.61414
G1 X108.368 Y108.771 E5.63694
G1 X109.038 Y108.149 E5.65975
G0 F6000 X109.494 Y108.162
G1 F1200 X110.223 Y107.633 E5.68222
G1 X110.997 Y107.171 E5.7047
G1 X111.808 Y106.779 E5.72717
G1 X112.651 Y106.461 E5.74965
G1 X113.518 Y106.219 E5.7721
G1 X114.263 Y106.075 E5.79103
G1 X114.658 Y106.014 E5.801
G1 X115.333 Y105.933 E5.81796
G1 X116.262 Y105.857 E5.84121
G1 X116.795 Y105.833 E5.85452
G1 X117.752 Y105.815 E5.8784
G1 X118.331 Y105.82 E5.89284
G1 X118.882 Y105.84 E5.90659
G1 X120.087 Y105.916 E5.93671
G1 X120.832 Y105.983 E5.95537
G1 X121.723 Y106.11 E5.97782
G1 X122.601 Y106.315 E6.00031
G1 X123.456 Y106.598 E6.02278
G1 X124.283 Y106.955 E6.04525
G1 X125.075 Y107.384 E6.06772
G1 X125.826 Y107.882 E6.0902
G1 X126.53 Y108.444 E6.11267
G1 X127.181 Y109.066 E6.13513
G1 X127.775 Y109.744 E6.15761
G1 X128.306 Y110.472 E6.18009
G1 X128.77 Y111.244 E6.20256
G1 X129.164 Y112.054 E6.22503
G1 X129.485 Y112.896 E6.24751
G1 X129.73 Y113.763 E6.26998
G1 X129.897 Y114.648 E6.29245
G1 X129.985 Y115.545 E6.31493
G1 X129.993 Y116.446 E6.33741
G1 X129.921 Y117.344 E6.35988
G1 X129.769 Y118.232 E6.38235
G1 X129.54 Y119.103 E6.40482
G1 X129.234 Y119.95 E6.42728
G1 X128.855 Y120.767 E6.44975
G1 X128.404 Y121.547 E6.47222
G1 X127.886 Y122.284 E6.49469
G1 X127.304 Y122.973 E6.51719
G1 X126.664 Y123.606 E6.53965
G1 X125.971 Y124.181 E6.56211
G1 X125.229 Y124.692 E6.58458
G1 X124.444 Y125.135 E6.60707
G1 X123.624 Y125.507 E6.62953
G1 X122.773 Y125.805 E6.65202
G1 X121.9 Y126.026 E6.67449
G1 X121.298 Y126.131 E6.68973
G1 X120.595 Y126.228 E6.70743
G1 X119.775 Y126.318 E6.72801
G1 X119.254 Y126.362 E6.74105
G1 X118.528 Y126.405 E6.7592
G1 X117.891 Y126.418 E6.77509
G1 X117.324 Y126.412 E6.78923
G1 X116.824 Y126.395 E6.80171
G1 X115.789 Y126.333 E6.82758
G1 X114.766 Y126.219 E6.85325
G1 X114.182 Y126.124 E6.86801
G1 X113.3 Y125.94 E6.89049
G1 X112.438 Y125.679 E6.91296
G1 X111.603 Y125.342 E6.93542
G1 X110.8 Y124.932 E6.95791
G1 X110.037 Y124.453 E6.98038
G1 X109.32 Y123.908 E7.00285
G1 X108.654 Y123.302 E7.02531
G1 X108.044 Y122.639 E7.04778
G1 X107.495 Y121.924 E7.07027
G1 X107.012 Y121.164 E7.09273
G1 X106.598 Y120.364 E7.1152
G1 X106.257 Y119.53 E7.13768
G1 X105.991 Y118.669 E7.16016
G1 X105.802 Y117.788 E7.18263
G1 X105.693 Y116.894 E7.2051
G1 X105.663 Y115.994 E7.22756
G1 X105.713 Y115.094 E7.25005
G1 X105.842 Y114.203 E7.27251
G1 X106.05 Y113.326 E7.29499
G1 X106.335 Y112.472 E7.31745
G1 X106.695 Y111.646 E7.33992
G1 X107.126 Y110.855 E7.3624
G1 X107.626 Y110.105 E7.38488
G1 X108.19 Y109.403 E7.40734
G1 X108.815 Y108.754 E7.42982
G1 X109.494 Y108.162 E7.45229
G1 F2700 E2.45229
;MESH:king-pick1-Pick_1.stl
G0 F6000 X116.211 Y115.364
G0 X116.31 Y116.11
;TYPE:WALL-OUTER
G1 F2700 E7.45229
G1 F1690.1 X117.186 Y116.113 E7.46781
G1 F1272.1 X118.062 Y116.117 E7.48842
G1 F1313.9 X118.836 Y116.107 E7.50606
G1 F1565.2 X118.842 Y116.107 E7.50617
G1 X118.836 Y116.107 E7.50628
G1 F2700 E2.50628
;MESH:NONMESH
G0 F300 X118.836 Y116.107 Z0.4
G0 F6000 X118.869 Y115.327
G0 X117.106 Y115.301
G0 X115.075 Y115.524
G0 X115.053 Y116.118
G0 X115.357 Y116.122
;TIME_ELAPSED:20.883381
;LAYER:1
M106 S85
;TYPE:WALL-OUTER
;MESH:king-pick1-Pick_1.stl
G1 F2700 E7.50628
G1 F326.1 X116.327 Y116.135 E7.55081
G1 F287.1 X118.056 Y116.142 E7.64095
G1 F285.7 X118.83 Y116.132 E7.6815
G1 F316.3 X119.536 Y116.111 E7.71492
G1 F366.6 X120.242 Y116.09 E7.74376
G1 F2700 E2.74376
;MESH:NONMESH
G0 F300 X120.242 Y116.09 Z0.6
G0 F7500 X120.278 Y115.198
G0 X116.261 Y115.17
G0 X115.443 Y115.202
G0 X113.899 Y115.473
G0 X114.026 Y116.126
;TIME_ELAPSED:22.612830
;LAYER:2
M106 S170
;TYPE:WALL-OUTER
;MESH:king-pick1-Pick_1.stl
G1 F2700 E7.74376
G1 F323.7 X114.572 Y116.135 E7.769
G0 F9000 X114.862 Y116.248
G1 F532.5 X115.386 Y116.277 E7.78375
G1 F473.7 X116.351 Y116.314 E7.81427
G1 F432.7 X117.174 Y116.33 E7.84274
G1 F419.6 X118.056 Y116.334 E7.8742
G1 F426.5 X118.774 Y116.314 E7.89941
G1 F493.2 X120.449 Y116.222 E7.95032
G1 F393.9 X120.74 Y116.105 E7.96224
G1 X120.445 Y116.002 E7.97411
G1 F526.3 X119.687 Y115.996 E7.99567
G1 F463.9 X118.764 Y116.004 E8.02545
G1 F428.6 X117.156 Y116.003 E8.0816
G1 F448.9 X116.011 Y116.016 E8.11978
G1 F518.7 X114.866 Y116.03 E8.15282
G1 F393 X114.572 Y116.135 E8.16471
G1 X114.862 Y116.248 E8.17656
G1 F2700 E3.17656
G0 F9000 X115.395 Y116.147
G0 X119.921 Y116.123
G0 X120.74 Y116.105
G1 F2700 E8.17656
G1 F343.5 X121.611 Y116.088 E8.21452
G1 F2700 E3.21452
;MESH:NONMESH
G0 F300 X121.611 Y116.088 Z0.8
G0 F9000 X119.921 Y116.123
G0 X115.458 Y116.357
;TIME_ELAPSED:25.780557
;LAYER:3
M106 S255
;TYPE:WALL-OUTER
;MESH:king-pick1-Pick_1.stl
G1 F2700 E8.21452
G1 F371.1 X116.38 Y116.393 E8.25173
G1 F346.2 X117.186 Y116.409 E8.28659
G1 F337.7 X118.053 Y116.415 E8.32501
G1 F342.2 X118.787 Y116.392 E8.35713
G1 F368.9 X119.673 Y116.342 E8.39314
G1 F416.7 X120.56 Y116.292 E8.42505
G1 F480 X121.446 Y116.241 E8.45273
G1 F518.7 X122.581 Y116.089 E8.48577
G1 X121.431 Y115.994 E8.51906
G1 F468.8 X120.476 Y115.975 E8.54956
G1 F406.3 X119.734 Y115.971 E8.57689
G1 F360 X118.045 Y115.98 E8.64711
G1 F338.3 X117.167 Y115.977 E8.68595
G1 F364.4 X115.378 Y115.997 E8.75944
G1 F434.8 X114.251 Y116.021 E8.79825
G1 F485.2 X113.007 Y116.096 E8.83669
G1 X112.923 Y116.125 E8.83944
G1 X114.247 Y116.292 E8.8806
G1 F432.7 X115.458 Y116.357 E8.92255
;MESH:NONMESH
G0 F300 X115.458 Y116.357 Z1
G0 F9000 X116.403 Y116.628
;TIME_ELAPSED:28.972228
;LAYER:4
;TYPE:WALL-OUTER
;MESH:king-pick1-Pick_1.stl
G1 F600 X117.285 Y116.657 E8.94457
G1 X118.058 Y116.663 E8.96385
G1 X118.782 Y116.631 E8.98193
G1 X120.474 Y116.486 E9.02429
G1 X121.39 Y116.398 E9.04724
G1 X122.339 Y116.274 E9.07112
G1 X123.41 Y116.109 E9.09815
G1 X123.454 Y116.093 E9.09932
G1 X123.359 Y116.06 E9.10183
G1 X122.134 Y115.948 E9.13251
G1 X121.457 Y115.897 E9.14945
G1 X120.427 Y115.836 E9.17519
G1 X119.573 Y115.805 E9.1965
G1 X118.038 Y115.78 E9.2348
G1 X117.176 Y115.784 E9.2563
G1 X116.371 Y115.803 E9.27639
G1 X115.413 Y115.84 E9.3003
G1 X112.177 Y116.042 E9.38118
G1 X112.007 Y116.11 E9.38575
G1 X112.137 Y116.172 E9.38934
G1 X113.26 Y116.33 E9.41763
G1 X114.303 Y116.458 E9.44384
G1 X115.521 Y116.57 E9.47436
G1 X116.403 Y116.628 E9.4964
G0 F9000 X116.411 Y116.379
G0 X114.329 Y116.184
;TYPE:WALL-INNER
G1 F453.4 X115.025 Y116.194 E9.51938
G1 F368.1 X115.721 Y116.204 E9.54769
G1 F310.3 X116.417 Y116.215 E9.58126
G1 F274.8 X118.04 Y116.221 E9.66965
G1 F271.5 X118.747 Y116.212 E9.70863
G1 F300.5 X119.567 Y116.183 E9.7495
G1 F349.5 X120.164 Y116.171 E9.77507
G1 F415.7 X120.761 Y116.158 E9.79657
G1 F512.8 X121.358 Y116.146 E9.81399
;MESH:NONMESH
G0 F300 X121.358 Y116.146 Z1.2
G0 F9000 X115.614 Y116.328
G0 X115.608 Y116.417
;TIME_ELAPSED:32.981194
;LAYER:5
;TYPE:WALL-INNER
;MESH:king-pick1-Pick_1.stl
G1 F455.7 X116.401 Y116.449 E9.84006
G1 F420.6 X117.214 Y116.466 E9.869
G1 F407.2 X118.042 Y116.473 E9.89943
G1 F412.8 X118.743 Y116.45 E9.92486
G1 F481.3 X120.539 Y116.346 E9.98081
G1 F393 X120.823 Y116.181 E9.99331
G1 X120.533 Y116.026 E10.00584
