;FLAVOR:Marlin
;TIME:11209
;Filament used: 8.14356m
;Layer height: 0.2
;MINX:76.955
;MINY:76.955
;MINZ:0.2
;MAXX:158.045
;MAXY:158.045
;MAXZ:13
;Generated with Cura_SteamEngine 5.2.2
M140 S50
M105
M190 S50
M104 S200
M105
M109 S200
M82 ;absolute extrusion mode
; Ender 3 Custom Start G-code
G92 E0 ; Reset Extruder
G28 ; Home all axes
G1 Z2.0 F3000 ; Move Z Axis up little to prevent scratching of Heat Bed
G1 X0.1 Y20 Z0.3 F5000.0 ; Move to start position
G1 X0.1 Y200.0 Z0.3 F1500.0 E15 ; Draw the first line
G1 X0.4 Y200.0 Z0.3 F5000.0 ; Move to side a little
G1 X0.4 Y20 Z0.3 F1500.0 E30 ; Draw the second line
G92 E0 ; Reset Extruder
G1 Z2.0 F3000 ; Move Z Axis up little to prevent scratching of Heat Bed
G1 X5 Y20 Z0.3 F5000.0 ; Move over to prevent blob squish
M141 S28
G92 E0
G92 E0
G1 F2700 E-5
;LAYER_COUNT:65
;LAYER:0
M107
M204 S500
M205 X8 Y8
G0 F6000 X79.383 Y79.272 Z0.2
;TYPE:SKIRT
G1 F2700 E0
G1 F1200 X79.985 Y78.738 E0.04015
G1 X80.637 Y78.266 E0.0803
G1 X81.333 Y77.861 E0.12048
G1 X82.065 Y77.527 E0.16062
G1 X82.827 Y77.268 E0.20077
G1 X83.61 Y77.085 E0.24089
G1 X84.408 Y76.981 E0.28104
G1 X85.055 Y76.955 E0.31334
G1 X149.945 Y76.955 E3.55072
G1 X150.749 Y76.995 E3.59088
G1 X151.545 Y77.115 E3.63104
G1 X152.325 Y77.312 E3.67118
G1 X153.081 Y77.587 E3.71131
G1 X153.807 Y77.935 E3.75148
G1 X154.494 Y78.353 E3.7916
G1 X155.137 Y78.838 E3.83178
G1 X155.728 Y79.383 E3.87189
G1 X156.262 Y79.985 E3.91204
G1 X156.734 Y80.637 E3.95219
G1 X157.139 Y81.333 E3.99237
G1 X157.473 Y82.065 E4.03251
G1 X157.732 Y82.827 E4.07266
G1 X157.915 Y83.61 E4.11278
G1 X158.019 Y84.408 E4.15293
G1 X158.045 Y85.055 E4.18523
G1 X158.045 Y149.945 E7.42261
G1 X158.005 Y150.749 E7.46277
G1 X157.885 Y151.545 E7.50293
G1 X157.688 Y152.325 E7.54307
G1 X157.413 Y153.081 E7.5832
G1 X157.065 Y153.807 E7.62337
G1 X156.647 Y154.494 E7.66349
G1 X156.162 Y155.137 E7.70367
G1 X155.617 Y155.728 E7.74378
G1 X155.015 Y156.262 E7.78393
G1 X154.363 Y156.734 E7.82408
G1 X153.667 Y157.139 E7.86426
G1 X152.935 Y157.473 E7.9044
G1 X152.173 Y157.732 E7.94455
G1 X151.39 Y157.915 E7.98467
G1 X150.592 Y158.019 E8.02482
G1 X149.945 Y158.045 E8.05712
G1 X85.055 Y158.045 E11.2945
G1 X84.251 Y158.005 E11.33466
G1 X83.455 Y157.885 E11.37482
G1 X82.675 Y157.688 E11.41496
G1 X81.919 Y157.413 E11.45509
G1 X81.193 Y157.065 E11.49526
G1 X80.506 Y156.647 E11.53538
G1 X79.863 Y156.162 E11.57556
G1 X79.272 Y155.617 E11.61567
G1 X78.738 Y155.015 E11.65582
G1 X78.266 Y154.363 E11.69597
G1 X77.861 Y153.667 E11.73615
G1 X77.527 Y152.935 E11.77629
G1 X77.268 Y152.173 E11.81644
G1 X77.085 Y151.39 E11.85656
G1 X76.981 Y150.592 E11.89671
G1 X76.955 Y149.945 E11.92901
G1 X76.955 Y85.055 E15.16639
G1 X76.995 Y84.251 E15.20655
G1 X77.115 Y83.455 E15.24671
G1 X77.312 Y82.675 E15.28685
G1 X77.587 Y81.919 E15.32698
G1 X77.935 Y81.193 E15.36715
G1 X78.353 Y80.506 E15.40727
G1 X78.838 Y79.863 E15.44745
G1 X79.383 Y79.272 E15.48756
G0 F6000 X79.973 Y79.539
G1 F1200 X80.569 Y79.045 E15.52618
G1 X81.213 Y78.614 E15.56484
G1 X81.897 Y78.252 E15.60345
G1 X82.615 Y77.963 E15.64206
G1 X83.36 Y77.749 E15.68073
G1 X84.122 Y77.613 E15.71935
G1 X85.055 Y77.555 E15.76599
G1 X149.945 Y77.555 E19.00336
G1 X150.718 Y77.595 E19.04198
G1 X151.483 Y77.714 E19.08061
G1 X152.232 Y77.912 E19.11926
G1 X152.956 Y78.186 E19.15788
G1 X153.649 Y78.533 E19.19654
G1 X154.301 Y78.95 E19.23516
G1 X154.907 Y79.432 E19.27379
G1 X155.461 Y79.973 E19.31242
G1 X155.955 Y80.569 E19.35104
G1 X156.386 Y81.213 E19.3897
G1 X156.748 Y81.897 E19.42831
G1 X157.037 Y82.615 E19.46692
G1 X157.251 Y83.36 E19.50559
G1 X157.387 Y84.122 E19.54421
G1 X157.445 Y85.055 E19.59085
G1 X157.445 Y149.945 E22.82822
G1 X157.405 Y150.718 E22.86684
G1 X157.286 Y151.483 E22.90547
G1 X157.088 Y152.232 E22.94412
G1 X156.814 Y152.956 E22.98274
G1 X156.467 Y153.649 E23.0214
G1 X156.05 Y154.301 E23.06002
G1 X155.568 Y154.907 E23.09865
G1 X155.027 Y155.461 E23.13728
G1 X154.431 Y155.955 E23.1759
G1 X153.787 Y156.386 E23.21456
G1 X153.103 Y156.748 E23.25317
G1 X152.385 Y157.037 E23.29178
G1 X151.64 Y157.251 E23.33046
G1 X150.878 Y157.387 E23.36907
G1 X149.945 Y157.445 E23.41571
G1 X85.055 Y157.445 E26.65309
G1 X84.282 Y157.405 E26.6917
G1 X83.517 Y157.286 E26.73033
G1 X82.768 Y157.088 E26.76898
G1 X82.044 Y156.814 E26.8076
G1 X81.351 Y156.467 E26.84626
G1 X80.699 Y156.05 E26.88488
G1 X80.093 Y155.568 E26.92351
G1 X79.539 Y155.027 E26.96214
G1 X79.045 Y154.431 E27.00076
G1 X78.614 Y153.787 E27.03942
G1 X78.252 Y153.103 E27.07803
G1 X77.963 Y152.385 E27.11664
G1 X77.749 Y151.64 E27.15532
G1 X77.613 Y150.878 E27.19393
G1 X77.555 Y149.945 E27.24057
G1 X77.555 Y85.055 E30.47795
G1 X77.595 Y84.282 E30.51656
G1 X77.714 Y83.517 E30.55519
G1 X77.912 Y82.768 E30.59384
G1 X78.186 Y82.044 E30.63246
G1 X78.533 Y81.351 E30.67113
G1 X78.95 Y80.699 E30.70974
G1 X79.432 Y80.093 E30.74837
G1 X79.973 Y79.539 E30.787
G0 F6000 X80.561 Y79.819
G1 F1200 X81.15 Y79.366 E30.82407
G1 X81.784 Y78.98 E30.8611
G1 X82.456 Y78.663 E30.89817
G1 X83.158 Y78.421 E30.93522
G1 X83.882 Y78.255 E30.97228
G1 X84.62 Y78.169 E31.00934
G1 X85.055 Y78.155 E31.03106
G1 X149.945 Y78.155 E34.26843
G1 X150.687 Y78.195 E34.3055
G1 X151.42 Y78.314 E34.34255
G1 X152.136 Y78.512 E34.37961
G1 X152.826 Y78.785 E34.41664
G1 X153.483 Y79.131 E34.45368
G1 X154.1 Y79.546 E34.49078
G1 X154.668 Y80.024 E34.52782
G1 X155.181 Y80.561 E34.56487
G1 X155.634 Y81.15 E34.60194
G1 X156.02 Y81.784 E34.63897
G1 X156.337 Y82.456 E34.67604
G1 X156.579 Y83.158 E34.71308
G1 X156.745 Y83.882 E34.75014
G1 X156.831 Y84.62 E34.78721
G1 X156.845 Y85.055 E34.80892
G1 X156.845 Y149.945 E38.0463
G1 X156.805 Y150.687 E38.08337
G1 X156.686 Y151.42 E38.12042
G1 X156.488 Y152.136 E38.15748
G1 X156.215 Y152.826 E38.1945
G1 X155.869 Y153.483 E38.23155
G1 X155.454 Y154.1 E38.26864
G1 X154.976 Y154.668 E38.30568
G1 X154.439 Y155.181 E38.34273
G1 X153.85 Y155.634 E38.3798
G1 X153.216 Y156.02 E38.41684
G1 X152.544 Y156.337 E38.4539
G1 X151.842 Y156.579 E38.49095
G1 X151.118 Y156.745 E38.52801
G1 X150.38 Y156.831 E38.56508
G1 X149.945 Y156.845 E38.58679
G1 X85.055 Y156.845 E41.82416
G1 X84.313 Y156.805 E41.86124
G1 X83.58 Y156.686 E41.89829
G1 X82.864 Y156.488 E41.93535
G1 X82.174 Y156.215 E41.97237
G1 X81.517 Y155.869 E42.00941
G1 X80.9 Y155.454 E42.04651
G1 X80.332 Y154.976 E42.08355
G1 X79.819 Y154.439 E42.1206
G1 X79.366 Y153.85 E42.15767
G1 X78.98 Y153.216 E42.1947
G1 X78.663 Y152.544 E42.23177
G1 X78.421 Y151.842 E42.26882
G1 X78.255 Y151.118 E42.30587
G1 X78.169 Y150.38 E42.34294
G1 X78.155 Y149.945 E42.36466
G1 X78.155 Y85.055 E45.60203
G1 X78.195 Y84.313 E45.6391
G1 X78.314 Y83.58 E45.67615
G1 X78.512 Y82.864 E45.71321
G1 X78.785 Y82.174 E45.75023
G1 X79.131 Y81.517 E45.78728
G1 X79.546 Y80.9 E45.82438
G1 X80.024 Y80.332 E45.86141
G1 X80.561 Y79.819 E45.89847
G0 F6000 X81.147 Y80.114
G1 F1200 X81.727 Y79.706 E45.93384
G1 X82.35 Y79.365 E45.96928
G1 X83.007 Y79.097 E46.00468
G1 X83.69 Y78.905 E46.04007
G1 X84.391 Y78.79 E46.07551
G1 X85.055 Y78.755 E46.10869
G1 X149.945 Y78.755 E49.34606
G1 X150.654 Y78.795 E49.38149
G1 X151.353 Y78.914 E49.41687
G1 X152.035 Y79.112 E49.4523
G1 X152.69 Y79.384 E49.48768
G1 X153.31 Y79.729 E49.52308
G1 X153.888 Y80.141 E49.55849
G1 X154.415 Y80.616 E49.59389
G1 X154.886 Y81.147 E49.6293
G1 X155.294 Y81.727 E49.66468
G1 X155.635 Y82.35 E49.70011
G1 X155.903 Y83.007 E49.73551
G1 X156.095 Y83.69 E49.7709
G1 X156.21 Y84.391 E49.80635
G1 X156.245 Y85.055 E49.83952
G1 X156.245 Y149.945 E53.07689
G1 X156.205 Y150.654 E53.11232
G1 X156.086 Y151.353 E53.1477
G1 X155.888 Y152.035 E53.18313
G1 X155.616 Y152.69 E53.21851
G1 X155.271 Y153.31 E53.25391
G1 X154.859 Y153.888 E53.28932
G1 X154.384 Y154.415 E53.32472
G1 X153.853 Y154.886 E53.36013
G1 X153.273 Y155.294 E53.39551
G1 X152.65 Y155.635 E53.43094
G1 X151.993 Y155.903 E53.46634
G1 X151.31 Y156.095 E53.50174
G1 X150.609 Y156.21 E53.53718
G1 X149.945 Y156.245 E53.57035
G1 X85.055 Y156.245 E56.80772
G1 X84.346 Y156.205 E56.84315
G1 X83.647 Y156.086 E56.87853
G1 X82.965 Y155.888 E56.91396
G1 X82.31 Y155.616 E56.94934
G1 X81.69 Y155.271 E56.98474
G1 X81.112 Y154.859 E57.02015
G1 X80.585 Y154.384 E57.05555
G1 X80.114 Y153.853 E57.09096
G1 X79.706 Y153.273 E57.12634
G1 X79.365 Y152.65 E57.16177
G1 X79.097 Y151.993 E57.19717
G1 X78.905 Y151.31 E57.23257
G1 X78.79 Y150.609 E57.26801
G1 X78.755 Y149.945 E57.30118
G1 X78.755 Y85.055 E60.53856
G1 X78.795 Y84.346 E60.57398
G1 X78.914 Y83.647 E60.60936
G1 X79.112 Y82.965 E60.64479
G1 X79.384 Y82.31 E60.68017
G1 X79.729 Y81.69 E60.71557
G1 X80.141 Y81.112 E60.75098
G1 X80.616 Y80.585 E60.78638
G1 X81.147 Y80.114 E60.82179
G0 F6000 X81.73 Y80.426
G1 F1200 X82.3 Y80.065 E60.85545
G1 X82.909 Y79.774 E60.88913
G1 X83.549 Y79.558 E60.92283
G1 X84.209 Y79.418 E60.95649
G1 X85.055 Y79.355 E60.99881
G1 X149.945 Y79.355 E64.23618
G1 X150.619 Y79.395 E64.26987
G1 X151.283 Y79.514 E64.30352
G1 X151.929 Y79.711 E64.33722
G1 X152.546 Y79.983 E64.37086
G1 X153.128 Y80.326 E64.40456
G1 X153.664 Y80.736 E64.43823
G1 X154.149 Y81.206 E64.47193
G1 X154.574 Y81.73 E64.50559
G1 X154.935 Y82.3 E64.53925
G1 X155.226 Y82.909 E64.57292
G1 X155.442 Y83.549 E64.60662
G1 X155.582 Y84.209 E64.64028
G1 X155.645 Y85.055 E64.6826
G1 X155.645 Y149.945 E67.91998
G1 X155.605 Y150.619 E67.95366
G1 X155.486 Y151.283 E67.98732
G1 X155.289 Y151.929 E68.02101
G1 X155.017 Y152.546 E68.05465
G1 X154.674 Y153.128 E68.08836
G1 X154.264 Y153.664 E68.12202
G1 X153.794 Y154.149 E68.15572
G1 X153.27 Y154.574 E68.18938
G1 X152.7 Y154.935 E68.22304
G1 X152.091 Y155.226 E68.25671
G1 X151.451 Y155.442 E68.29041
G1 X150.791 Y155.582 E68.32407
G1 X149.945 Y155.645 E68.3664
G1 X85.055 Y155.645 E71.60377
G1 X84.381 Y155.605 E71.63746
G1 X83.717 Y155.486 E71.67111
G1 X83.071 Y155.289 E71.70481
G1 X82.454 Y155.017 E71.73845
G1 X81.872 Y154.674 E71.77215
G1 X81.336 Y154.264 E71.80582
G1 X80.851 Y153.794 E71.83951
G1 X80.426 Y153.27 E71.87317
G1 X80.065 Y152.7 E71.90683
G1 X79.774 Y152.091 E71.94051
G1 X79.558 Y151.451 E71.97421
G1 X79.418 Y150.791 E72.00787
G1 X79.355 Y149.945 E72.05019
G1 X79.355 Y85.055 E75.28757
G1 X79.395 Y84.381 E75.32125
G1 X79.514 Y83.717 E75.35491
G1 X79.711 Y83.071 E75.3886
G1 X79.983 Y82.454 E75.42224
G1 X80.326 Y81.872 E75.45594
G1 X80.736 Y81.336 E75.48961
G1 X81.206 Y80.851 E75.52331
G1 X81.73 Y80.426 E75.55697
G0 F6000 X82.309 Y80.758
G1 F1200 X82.867 Y80.448 E75.58881
G1 X83.46 Y80.211 E75.62067
G1 X84.077 Y80.05 E75.65249
G1 X84.71 Y79.967 E75.68434
G1 X85.055 Y79.955 E75.70156
G1 X149.945 Y79.955 E78.93893
G1 X150.582 Y79.995 E78.97078
G1 X151.209 Y80.114 E79.00262
G1 X151.817 Y80.311 E79.0345
G1 X152.395 Y80.582 E79.06635
G1 X152.934 Y80.923 E79.09817
G1 X153.427 Y81.329 E79.13003
G1 X153.866 Y81.793 E79.1619
G1 X154.242 Y82.309 E79.19376
G1 X154.552 Y82.867 E79.2256
G1 X154.789 Y83.46 E79.25746
G1 X154.95 Y84.077 E79.28928
G1 X155.033 Y84.71 E79.32113
G1 X155.045 Y85.055 E79.33835
G1 X155.045 Y149.945 E82.57572
G1 X155.005 Y150.582 E82.60757
G1 X154.886 Y151.209 E82.63941
G1 X154.689 Y151.817 E82.67129
G1 X154.418 Y152.395 E82.70314
G1 X154.077 Y152.934 E82.73496
G1 X153.671 Y153.427 E82.76682
G1 X153.207 Y153.866 E82.79869
G1 X152.691 Y154.242 E82.83054
G1 X152.133 Y154.552 E82.86239
G1 X151.54 Y154.789 E82.89425
G1 X150.923 Y154.95 E82.92606
G1 X150.29 Y155.033 E82.95792
G1 X149.945 Y155.045 E82.97514
G1 X85.055 Y155.045 E86.21251
G1 X84.418 Y155.005 E86.24436
G1 X83.791 Y154.886 E86.2762
G1 X83.183 Y154.689 E86.30808
G1 X82.605 Y154.418 E86.33993
G1 X82.066 Y154.077 E86.37175
G1 X81.573 Y153.671 E86.40361
G1 X81.134 Y153.207 E86.43548
G1 X80.758 Y152.691 E86.46733
G1 X80.448 Y152.133 E86.49918
G1 X80.211 Y151.54 E86.53104
G1 X80.05 Y150.923 E86.56285
G1 X79.967 Y150.29 E86.5947
G1 X79.955 Y149.945 E86.61193
G1 X79.955 Y85.055 E89.8493
G1 X79.995 Y84.418 E89.88114
G1 X80.114 Y83.791 E89.91298
G1 X80.311 Y83.183 E89.94487
G1 X80.582 Y82.605 E89.97672
G1 X80.923 Y82.066 E90.00854
G1 X81.329 Y81.573 E90.0404
G1 X81.793 Y81.134 E90.07227
G1 X82.309 Y80.758 E90.10412
G0 F6000 X82.882 Y81.114
G1 F1200 X83.425 Y80.86 E90.13403
G1 X83.998 Y80.681 E90.16398
G1 X84.588 Y80.579 E90.19385
G1 X85.055 Y80.555 E90.21718
G1 X149.945 Y80.555 E93.45456
G1 X150.543 Y80.595 E93.48446
G1 X151.131 Y80.714 E93.51439
G1 X151.698 Y80.91 E93.54432
G1 X152.233 Y81.18 E93.57422
G1 X152.728 Y81.519 E93.60415
G1 X153.174 Y81.92 E93.63407
G1 X153.562 Y82.377 E93.66398
G1 X153.886 Y82.882 E93.69391
G1 X154.14 Y83.425 E93.72382
G1 X154.319 Y83.998 E93.75377
G1 X154.421 Y84.588 E93.78364
G1 X154.445 Y85.055 E93.80697
G1 X154.445 Y149.945 E97.04435
G1 X154.405 Y150.543 E97.07425
G1 X154.286 Y151.131 E97.10418
G1 X154.09 Y151.698 E97.13411
G1 X153.82 Y152.233 E97.16401
G1 X153.481 Y152.728 E97.19394
G1 X153.08 Y153.174 E97.22386
G1 X152.623 Y153.562 E97.25377
G1 X152.118 Y153.886 E97.2837
G1 X151.575 Y154.14 E97.31361
G1 X151.002 Y154.319 E97.34356
G1 X150.412 Y154.421 E97.37343
G1 X149.945 Y154.445 E97.39676
G1 X85.055 Y154.445 E100.63414
G1 X84.457 Y154.405 E100.66404
G1 X83.869 Y154.286 E100.69397
G1 X83.302 Y154.09 E100.7239
G1 X82.767 Y153.82 E100.7538
G1 X82.272 Y153.481 E100.78373
G1 X81.826 Y153.08 E100.81365
G1 X81.438 Y152.623 E100.84356
G1 X81.114 Y152.118 E100.87349
G1 X80.86 Y151.575 E100.9034
G1 X80.681 Y151.002 E100.93335
G1 X80.579 Y150.412 E100.96322
G1 X80.555 Y149.945 E100.98655
G1 X80.555 Y85.055 E104.22393
G1 X80.595 Y84.457 E104.25383
G1 X80.714 Y83.869 E104.28376
G1 X80.91 Y83.302 E104.31369
G1 X81.18 Y82.767 E104.34359
G1 X81.519 Y82.272 E104.37352
G1 X81.92 Y81.826 E104.40344
G1 X82.377 Y81.438 E104.43335
G1 X82.882 Y81.114 E104.46328
G0 F6000 X82.957 Y81.767
G1 F1200 X83.448 Y81.502 E104.49112
G1 X83.972 Y81.309 E104.51898
G1 X84.518 Y81.192 E104.54684
G1 X85.055 Y81.155 E104.57369
G1 X149.945 Y81.155 E107.81107
G1 X150.502 Y81.195 E107.83893
G1 X151.047 Y81.314 E107.86676
G1 X151.57 Y81.51 E107.89462
G1 X152.059 Y81.778 E107.92244
G1 X152.506 Y82.113 E107.95031
G1 X152.899 Y82.509 E107.97815
G1 X153.233 Y82.957 E108.00602
G1 X153.498 Y83.448 E108.03386
G1 X153.691 Y83.972 E108.06172
G1 X153.808 Y84.518 E108.08958
G1 X153.845 Y85.055 E108.11643
G1 X153.845 Y149.945 E111.35381
G1 X153.805 Y150.502 E111.38167
G1 X153.686 Y151.047 E111.4095
G1 X153.49 Y151.57 E111.43736
G1 X153.222 Y152.059 E111.46518
G1 X152.887 Y152.506 E111.49305
G1 X152.491 Y152.899 E111.52089
G1 X152.043 Y153.233 E111.54877
G1 X151.552 Y153.498 E111.5766
G1 X151.028 Y153.691 E111.60446
G1 X150.482 Y153.808 E111.63232
G1 X149.945 Y153.845 E111.65917
G1 X85.055 Y153.845 E114.89655
G1 X84.498 Y153.805 E114.92441
G1 X83.953 Y153.686 E114.95224
G1 X83.43 Y153.49 E114.98011
G1 X82.941 Y153.222 E115.00793
G1 X82.494 Y152.887 E115.03579
G1 X82.101 Y152.491 E115.06363
G1 X81.767 Y152.043 E115.09151
G1 X81.502 Y151.552 E115.11934
G1 X81.309 Y151.028 E115.1472
G1 X81.192 Y150.482 E115.17506
G1 X81.155 Y149.945 E115.20192
G1 X81.155 Y85.055 E118.43929
G1 X81.195 Y84.498 E118.46715
G1 X81.314 Y83.953 E118.49498
G1 X81.51 Y83.43 E118.52285
G1 X81.778 Y82.941 E118.55067
G1 X82.113 Y82.494 E118.57854
G1 X82.509 Y82.101 E118.60637
G1 X82.957 Y81.767 E118.63425
G0 F6000 X83.094 Y82.401
G1 F1200 X83.529 Y82.129 E118.65984
G1 X84.002 Y81.928 E118.68548
G1 X84.499 Y81.802 E118.71106
G1 X85.055 Y81.755 E118.7389
G1 X149.945 Y81.755 E121.97628
G1 X150.457 Y81.795 E122.0019
G1 X150.956 Y81.914 E122.02749
G1 X151.431 Y82.109 E122.05311
G1 X151.87 Y82.375 E122.07872
G1 X152.263 Y82.706 E122.10435
G1 X152.599 Y83.094 E122.12996
G1 X152.871 Y83.529 E122.15556
