;FLAVOR:Marlin
;TIME:2010
;Filament used: 0.965761m
;Layer height: 0.16
;MINX:95.735
;MINY:89.636
;MINZ:0.24
;MAXX:139.265
;MAXY:145.365
;MAXZ:13.15
;Generated with Cura_SteamEngine 5.2.2
M140 S50
M105
M190 S50
M104 S200
M105
M109 S200
M82 ;absolute extrusion mode
; Ender 3 Custom Start G-code
G92 E0 ; Reset Extruder
G28 ; Home all axes
;G29 ; Auto Bed Level
G1 Z2.0 F3000 ; Move Z Axis up little to prevent scratching of Heat Bed
G1 X0.1 Y20 Z0.3 F5000.0 ; Move to start position
G1 X0.1 Y200.0 Z0.3 F1500.0 E15 ; Draw the first line
G1 X0.4 Y200.0 Z0.3 F5000.0 ; Move to side a little
G1 X0.4 Y20 Z0.3 F1500.0 E30 ; Draw the second line
G92 E0 ; Reset Extruder
G1 Z2.0 F3000 ; Move Z Axis up little to prevent scratching of Heat Bed
G1 X5 Y20 Z0.3 F5000.0 ; Move over to prevent blob squish
M141 S28
G92 E0
G92 E0
G1 F2700 E-5
;LAYER_COUNT:66
;LAYER:-6
M107
G0 F9000 X99.847 Y96.374 Z0.24
;TYPE:SUPPORT-INTERFACE
G1 F2700 E0
G1 F1125 X99.209 Y97.266 E0.08754
G1 X98.63 Y98.23 E0.17731
G1 X98.178 Y99.11 E0.25628
G1 X97.76 Y100.095 E0.34169
G1 X97.42 Y101.099 E0.4263
G1 X97.136 Y102.203 E0.5173
G1 X96.973 Y103.085 E0.5889
G1 X96.848 Y104.159 E0.67521
G1 X96.801 Y105.309 E0.76708
G1 X96.801 Y129.749 E2.71799
G1 X96.808 Y130.146 E2.74968
G1 X96.889 Y131.305 E2.84242
G1 X97.033 Y132.277 E2.92086
G1 X97.278 Y133.397 E3.01238
G1 X97.616 Y134.501 E3.10454
G1 X97.993 Y135.472 E3.18769
G1 X98.386 Y136.309 E3.2615
G1 X98.939 Y137.307 E3.35258
G1 X99.53 Y138.199 E3.43799
G1 X100.189 Y139.054 E3.52416
G1 X100.954 Y139.896 E3.61497
G1 X101.605 Y140.523 E3.68712
G1 X102.477 Y141.256 E3.77805
G1 X103.359 Y141.885 E3.86453
G1 X104.331 Y142.47 E3.95508
G1 X105.198 Y142.917 E4.03295
G1 X106.106 Y143.303 E4.11171
G1 X107.191 Y143.678 E4.20334
G1 X108.303 Y143.964 E4.295
G1 X109.268 Y144.143 E4.37334
G1 X110.26 Y144.252 E4.453
G1 X111.39 Y144.299 E4.54328
G1 X123.65 Y144.299 E5.52193
G1 X124.046 Y144.292 E5.55354
G1 X125.206 Y144.211 E5.64637
G1 X126.175 Y144.067 E5.72456
G1 X127.22 Y143.839 E5.80994
G1 X128.315 Y143.518 E5.90103
G1 X129.388 Y143.1 E5.99295
G1 X130.209 Y142.714 E6.06537
G1 X131.207 Y142.161 E6.15645
G1 X132.099 Y141.571 E6.24182
G1 X132.941 Y140.921 E6.32672
G1 X133.796 Y140.144 E6.41895
G1 X134.423 Y139.493 E6.4911
G1 X135.154 Y138.623 E6.5818
G1 X135.783 Y137.745 E6.66802
G1 X136.292 Y136.909 E6.74615
G1 X136.815 Y135.905 E6.83651
G1 X137.24 Y134.909 E6.92295
G1 X137.578 Y133.912 E7.00699
G1 X137.864 Y132.797 E7.09887
G1 X138.042 Y131.831 E7.17728
G1 X138.163 Y130.693 E7.26863
G1 X138.2 Y129.692 E7.34859
G1 X138.2 Y105.469 E9.28218
G1 X138.192 Y104.852 E9.33143
G1 X138.111 Y103.692 E9.42425
G1 X137.967 Y102.723 E9.50245
G1 X137.721 Y101.597 E9.59445
G1 X137.416 Y100.579 E9.67928
G1 X137 Y99.512 E9.7707
G1 X136.614 Y98.691 E9.84312
G1 X136.099 Y97.761 E9.92798
G1 X135.478 Y96.815 E10.01831
G1 X134.808 Y95.944 E10.10603
G1 X134.044 Y95.104 E10.19666
G1 X133.395 Y94.477 E10.2687
G1 X132.526 Y93.747 E10.35929
G1 X131.648 Y93.118 E10.44551
G1 X130.67 Y92.53 E10.5366
G1 X129.79 Y92.078 E10.61557
G1 X128.805 Y91.66 E10.70098
G1 X127.801 Y91.32 E10.7856
G1 X126.697 Y91.036 E10.87659
G1 X125.815 Y90.873 E10.94819
G1 X124.741 Y90.748 E11.0345
G1 X123.609 Y90.701 E11.12494
G1 X111.347 Y90.701 E12.10375
G1 X110.954 Y90.708 E12.13512
G1 X109.797 Y90.789 E12.2277
G1 X108.822 Y90.933 E12.30638
G1 X107.697 Y91.179 E12.3983
G1 X106.689 Y91.482 E12.48232
G1 X105.612 Y91.9 E12.57454
G1 X104.791 Y92.286 E12.64696
G1 X103.861 Y92.801 E12.73182
G1 X102.913 Y93.424 E12.82237
G1 X102.044 Y94.092 E12.90986
G1 X101.204 Y94.856 E13.0005
G1 X100.577 Y95.505 E13.07253
G1 X99.847 Y96.374 E13.16313
G0 F9000 X100.61 Y96.085
G1 F1125 X137.424 Y132.898 E17.31895
G0 F9000 X136.906 Y134.643
G1 F1125 X99.628 Y97.365 E21.52722
G0 F9000 X98.79 Y98.79
G1 F1125 X136.206 Y136.206 E25.75106
G0 F9000 X135.37 Y137.633
G1 F1125 X98.092 Y100.355 E29.95932
G0 F9000 X97.575 Y102.1
G1 F1125 X134.387 Y138.913 E34.11503
G0 F9000 X133.281 Y140.069
G1 F1125 X97.262 Y104.05 E38.18117
G0 F9000 X97.2 Y106.251
G1 F1125 X132.05 Y141.101 E42.11534
G0 F9000 X130.68 Y141.994
G1 F1125 X97.2 Y108.514 E45.89485
G0 F9000 X97.2 Y110.776
G1 F1125 X129.175 Y142.752 E49.50452
G0 F9000 X127.499 Y143.339
G1 F1125 X97.2 Y113.039 E52.92499
G0 F9000 X97.2 Y115.302
G1 F1125 X125.638 Y143.74 E56.13532
G0 F9000 X123.533 Y143.898
G1 F1125 X97.199 Y117.564 E59.10813
G0 F9000 X97.199 Y119.827
G1 F1125 X121.27 Y143.898 E61.82547
G0 F9000 X119.008 Y143.898
G1 F1125 X97.199 Y122.089 E64.28746
G0 F9000 X97.199 Y124.352
G1 F1125 X116.745 Y143.898 E66.49398
G0 F9000 X114.482 Y143.898
G1 F1125 X97.199 Y126.615 E68.44503
G0 F9000 X97.199 Y128.877
G1 F1125 X112.219 Y143.898 E70.14068
G0 F9000 X109.863 Y143.805
G1 F1125 X97.284 Y131.225 E71.56076
G0 F9000 X97.918 Y134.122
G1 F1125 X106.976 Y143.179 E72.58325
G1 F2700 E67.58325
G0 F9000 X106.78 Y144.664
G0 X108.084 Y145.006
G0 X110.169 Y145.313
G0 X111.413 Y145.364
G0 X124.29 Y145.346
G0 X126.358 Y145.117
G0 X127.673 Y144.821
G0 X129.639 Y144.15
G0 X130.857 Y143.578
G0 X132.623 Y142.499
G0 X133.703 Y141.668
G0 X135.208 Y140.214
G0 X136.066 Y139.181
G0 X137.213 Y137.443
G0 X137.831 Y136.238
G0 X138.564 Y134.32
G0 X138.871 Y133.147
G0 X139.194 Y131.106
G0 X137.733 Y130.945
G1 F2700 E72.58325
G1 F1125 X101.717 Y94.929 E76.64905
G0 F9000 X102.95 Y93.899
G1 F1125 X137.799 Y128.748 E80.5831
G0 F9000 X137.799 Y126.485
G1 F1125 X104.318 Y93.005 E84.36267
G0 F9000 X105.824 Y92.247
G1 F1125 X137.799 Y124.223 E87.97234
G0 F9000 X137.799 Y121.96
G1 F1125 X107.496 Y91.657 E91.39321
G0 F9000 X109.36 Y91.258
G1 F1125 X137.799 Y119.697 E94.60365
G0 F9000 X137.799 Y117.434
G1 F1125 X111.466 Y91.101 E97.57634
G0 F9000 X113.728 Y91.101
G1 F1125 X137.799 Y115.172 E100.29369
G0 F9000 X137.799 Y112.909
G1 F1125 X115.991 Y91.101 E102.75556
G0 F9000 X118.254 Y91.101
G1 F1125 X137.799 Y110.646 E104.96197
G0 F9000 X137.799 Y108.383
G1 F1125 X120.517 Y91.101 E106.91291
G0 F9000 X122.779 Y91.101
G1 F1125 X137.799 Y106.121 E108.6085
G0 F9000 X137.715 Y103.774
G1 F1125 X125.138 Y91.197 E110.0283
G0 F9000 X128.021 Y91.817
G1 F1125 X137.088 Y100.885 E111.05192
G1 F2700 E106.05192
G0 F300 X137.088 Y100.885 Z0.48
G0 F9000 X138.387 Y100.141
G0 X137.566 Y98.214
G0 X136.919 Y97.06
G0 X135.699 Y95.356
G0 X134.803 Y94.355
G0 X133.248 Y92.962
G0 X132.143 Y92.174
G0 X130.349 Y91.168
G0 X129.085 Y90.631
G0 X127.088 Y90.032
G0 X125.772 Y89.791
G0 X123.587 Y89.636
G0 X110.71 Y89.654
G0 X108.642 Y89.883
G0 X107.327 Y90.179
G0 X105.361 Y90.85
G0 X104.143 Y91.422
G0 X102.377 Y92.501
G0 X103.013 Y93.594
;TIME_ELAPSED:84.954548
;LAYER:-5
;TYPE:SUPPORT
G1 F2700 E111.05192
G1 F1125 X102.178 Y94.238 E111.11505
G1 X101.338 Y95.001 E111.18299
G1 X100.718 Y95.646 E111.23655
G1 X100.054 Y96.433 E111.29819
G1 X99.381 Y97.365 E111.36702
G1 X99.213 Y97.645 E111.38657
G1 X103.775 Y93.083 E111.77282
G1 X104.742 Y92.534 E111.83939
G1 X105.695 Y92.082 E111.90253
G1 X106.043 Y91.946 E111.9249
G1 X98.01 Y99.979 E112.60503
G1 X97.609 Y101.16 E112.6797
G1 X97.488 Y101.633 E112.70893
G1 X107.75 Y91.37 E113.57782
G1 X108.713 Y91.155 E113.63689
G1 X109.165 Y91.087 E113.66425
G1 X97.178 Y103.074 E114.67915
G1 X97.025 Y104.358 E114.75657
G1 X110.439 Y90.944 E115.89228
G1 X110.956 Y90.908 E115.92331
G1 X111.615 Y90.899 E115.96277
G1 X97 Y105.515 E117.20021
G1 X97 Y106.646 E117.26792
G1 X112.746 Y90.899 E118.60112
G1 X113.878 Y90.899 E118.66889
G1 X97 Y107.777 E120.09789
G1 X97 Y108.909 E120.16566
G1 X115.009 Y90.899 E121.69046
G1 X116.14 Y90.899 E121.75818
G1 X97 Y110.04 E123.37873
G1 X97 Y111.172 E123.44651
G1 X117.272 Y90.899 E125.16291
G1 X118.403 Y90.899 E125.23062
G1 X97 Y112.303 E127.04278
G1 X97 Y113.434 E127.11049
G1 X119.534 Y90.899 E129.0184
G1 X120.666 Y90.899 E129.08618
G1 X97 Y114.566 E131.08993
G1 X97 Y115.697 E131.15765
G1 X121.797 Y90.899 E133.25716
G1 X122.929 Y90.899 E133.32493
G1 X97 Y116.828 E135.52025
G1 X97 Y117.96 E135.58802
G1 X124.044 Y90.916 E137.87774
G1 X124.595 Y90.936 E137.91075
G1 X125.101 Y90.99 E137.94122
G1 X97 Y119.091 E140.32043
G1 X97 Y120.223 E140.3882
G1 X126.094 Y91.129 E142.85149
G1 X127.045 Y91.309 E142.90943
G1 X97 Y121.354 E145.45324
G1 X97 Y122.485 E145.52095
G1 X127.914 Y91.571 E148.13833
G1 X128.759 Y91.857 E148.19173
G1 X97 Y123.617 E150.8807
G1 X97 Y124.748 E150.94841
G1 X129.563 Y92.184 E153.70545
G1 X130.308 Y92.571 E153.75571
G1 X97 Y125.879 E156.57578
G1 X97 Y127.011 E156.64355
G1 X131.033 Y92.977 E159.52505
G1 X131.737 Y93.405 E159.57437
G1 X97 Y128.142 E162.51543
G1 X97 Y129.273 E162.58314
G1 X132.386 Y93.887 E165.57915
G1 X133 Y94.405 E165.62724
G1 X97.025 Y130.379 E168.67308
G1 X97.098 Y131.438 E168.73663
G1 X133.592 Y94.944 E171.82645
G1 X133.898 Y95.239 E171.85189
G1 X134.15 Y95.517 E171.87436
G1 X97.261 Y132.407 E174.99766
G1 X97.471 Y133.328 E175.05422
G1 X134.683 Y96.116 E178.20483
G1 X135.178 Y96.752 E178.25307
G1 X97.717 Y134.213 E181.42477
G1 X98.035 Y135.026 E181.47703
G1 X135.639 Y97.423 E184.66079
G1 X135.842 Y97.725 E184.68257
G1 X136.069 Y98.124 E184.71005
G1 X98.378 Y135.815 E187.90122
G1 X98.742 Y136.582 E187.95205
G1 X136.465 Y98.859 E191.14592
G1 X136.828 Y99.627 E191.19678
G1 X99.167 Y137.289 E194.38544
G1 X99.618 Y137.969 E194.43429
G1 X137.161 Y100.426 E197.61293
G1 X137.419 Y101.3 E197.66748
G1 X100.104 Y138.614 E200.82677
G1 X100.337 Y138.918 E200.8497
G1 X100.62 Y139.23 E200.87492
G1 X137.651 Y102.199 E204.0102
G1 X137.742 Y102.606 E204.03517
G1 X137.825 Y103.156 E204.06847
G1 X101.162 Y139.819 E207.1726
G1 X101.738 Y140.374 E207.22049
G1 X137.943 Y104.169 E210.28584
G1 X137.991 Y104.844 E210.32635
G1 X137.996 Y105.247 E210.35048
G1 X102.341 Y140.903 E213.3693
G1 X102.997 Y141.378 E213.41779
G1 X137.998 Y106.377 E216.3812
G1 X137.998 Y107.508 E216.44891
G1 X103.667 Y141.839 E219.3556
G1 X104.371 Y142.267 E219.40492
G1 X137.998 Y108.639 E222.25205
G1 X137.998 Y109.771 E222.31982
G1 X105.109 Y142.661 E225.10446
G1 X105.902 Y142.998 E225.15604
G1 X137.998 Y110.902 E227.8735
G1 X137.998 Y112.033 E227.94121
G1 X106.726 Y143.306 E230.58894
G1 X107.34 Y143.511 E230.62769
G1 X107.587 Y143.576 E230.64298
G1 X137.998 Y113.165 E233.21778
G1 X137.998 Y114.296 E233.28549
G1 X108.502 Y143.793 E235.78285
G1 X109.452 Y143.974 E235.84075
G1 X137.998 Y115.428 E238.25764
G1 X137.998 Y116.559 E238.32535
G1 X110.492 Y144.065 E240.65419
G1 X111.59 Y144.099 E240.71995
G1 X137.998 Y117.69 E242.95587
G1 X137.998 Y118.822 E243.02364
G1 X112.722 Y144.099 E245.16371
G1 X113.853 Y144.099 E245.23142
G1 X137.998 Y119.953 E247.27574
G1 X137.998 Y121.084 E247.34345
G1 X114.984 Y144.099 E249.292
G1 X116.116 Y144.099 E249.35978
G1 X137.998 Y122.216 E251.21249
G1 X137.998 Y123.347 E251.2802
G1 X117.247 Y144.099 E253.03716
G1 X118.378 Y144.099 E253.10487
G1 X137.998 Y124.479 E254.76602
G1 X137.998 Y125.61 E254.83374
G1 X119.51 Y144.099 E256.39909
G1 X120.641 Y144.099 E256.4668
G1 X137.998 Y126.741 E257.9364
G1 X137.998 Y127.873 E258.00417
G1 X121.772 Y144.099 E259.37797
G1 X122.904 Y144.099 E259.44574
G1 X137.998 Y129.004 E260.72374
G1 X137.999 Y129.677 E260.76403
G1 X137.979 Y130.155 E260.79267
G1 X124.043 Y144.091 E261.97259
G1 X125.261 Y144.005 E262.04569
G1 X137.887 Y131.379 E263.11469
G1 X137.829 Y131.876 E263.14464
G1 X137.673 Y132.723 E263.1962
G1 X126.631 Y143.766 E264.13113
G1 X127.172 Y143.645 E264.16432
G1 X128.181 Y143.347 E264.22731
G1 X137.235 Y134.293 E264.99388
G1 X137.05 Y134.839 E265.02839
G1 X136.638 Y135.811 E265.0916
G1 X136.19 Y136.68 E265.15013
G1 X135.617 Y137.634 E265.21675
G1 X134.947 Y138.561 E265.28523
G1 X134.28 Y139.353 E265.34722
G1 X133.66 Y139.997 E265.40074
G1 X132.82 Y140.76 E265.46868
G1 X131.985 Y141.404 E265.53181
G1 X131.17 Y141.945 E265.59037
G1 X130.256 Y142.464 E265.6533
G1 X130.14 Y142.519 E265.66098
G1 X136.414 Y136.246 E266.19214
G1 F2700 E261.19214
G0 F300 X136.414 Y136.246 Z0.64
G0 F9000 X137.54 Y136.824
G0 X136.596 Y138.439
G0 X135.325 Y140.083
G0 X134.402 Y141.04
G0 X132.801 Y142.373
G0 X131.682 Y143.115
G0 X129.817 Y144.075
G0 X128.558 Y144.556
G0 X126.534 Y145.085
G0 X125.221 Y145.276
G0 X123.547 Y145.365
G0 X110.343 Y145.326
G0 X109.017 Y145.179
G0 X106.99 Y144.727
G0 X105.7 Y144.287
G0 X103.82 Y143.405
G0 X102.661 Y142.696
G0 X101.101 Y141.495
G0 X101.913 Y140.521
;TIME_ELAPSED:225.992739
;LAYER:-4
;TYPE:SUPPORT-INTERFACE
G1 F2700 E266.19214
G1 F1500 X100.597 Y139.205 E266.22928
G0 F9000 X101.092 Y139.751
G1 F1500 X101.742 Y140.377 E266.24729
G1 X102.524 Y141.035 E266.26768
G1 X103.463 Y141.715 E266.29082
G1 X103.637 Y141.82 E266.29487
G1 X99.288 Y137.472 E266.4176
G1 X99.146 Y137.258 E266.42272
G1 X98.684 Y136.444 E266.4414
G1 X104.642 Y142.402 E266.60955
G1 X105.282 Y142.735 E266.62395
G1 X105.486 Y142.821 E266.62836
G1 X98.285 Y135.62 E266.83159
G1 X98.173 Y135.384 E266.83681
G1 X97.982 Y134.893 E266.84732
G1 X106.223 Y143.134 E267.0799
G1 X106.865 Y143.352 E267.09343
G1 X97.732 Y134.219 E267.35118
G1 X97.555 Y133.617 E267.3637
G1 X107.487 Y143.549 E267.64401
G1 X108.061 Y143.699 E267.65585
G1 X97.401 Y133.039 E267.95669
G1 X97.279 Y132.493 E267.96786
G1 X108.596 Y143.81 E268.28725
G1 X109.12 Y143.91 E268.29789
G1 X97.195 Y131.985 E268.63444
G1 X97.119 Y131.485 E268.64454
G1 X109.612 Y143.977 E268.9971
G1 X110.087 Y144.028 E269.00664
G1 X97.068 Y131.009 E269.37406
G1 X97.036 Y130.553 E269.38318
G1 X110.55 Y144.067 E269.76458
G1 X110.99 Y144.082 E269.77336
G1 X97.007 Y130.099 E270.16799
G1 X97 Y129.668 E270.17659
G1 X111.43 Y144.098 E270.58384
G1 X111.854 Y144.098 E270.5923
G1 X96.999 Y129.243 E271.01154
G1 X96.999 Y128.819 E271.02
G1 X112.278 Y144.098 E271.45121
G1 X112.702 Y144.098 E271.45967
G1 X96.999 Y128.395 E271.90284
G1 X96.999 Y127.97 E271.91133
G1 X113.127 Y144.098 E272.36649
G1 X113.551 Y144.098 E272.37495
G1 X96.999 Y127.546 E272.84209
G1 X96.999 Y127.122 E272.85055
G1 X113.975 Y144.098 E273.32965
G1 X114.399 Y144.098 E273.33811
G1 X96.999 Y126.697 E273.82919
G1 X96.999 Y126.273 E273.83765
G1 X114.824 Y144.098 E274.34071
G1 X115.248 Y144.098 E274.34917
G1 X96.999 Y125.849 E274.8642
G1 X96.999 Y125.425 E274.87266
G1 X115.672 Y144.098 E275.39965
G1 X116.097 Y144.098 E275.40813
G1 X96.999 Y125 E275.94712
G1 X96.999 Y124.576 E275.95558
G1 X116.521 Y144.098 E276.50653
G1 X116.945 Y144.098 E276.515
G1 X96.999 Y124.152 E277.07791
G1 X96.999 Y123.728 E277.08638
G1 X117.369 Y144.098 E277.66126
G1 X117.794 Y144.098 E277.66974
G1 X96.999 Y123.303 E278.25662
G1 X96.999 Y122.879 E278.26508
G1 X118.218 Y144.098 E278.86393
G1 X118.642 Y144.098 E278.87239
G1 X96.999 Y122.455 E279.4832
G1 X96.999 Y122.031 E279.49166
G1 X119.066 Y144.098 E280.11444
G1 X119.491 Y144.098 E280.12292
G1 X96.999 Y121.606 E280.7577
G1 X96.999 Y121.182 E280.76616
G1 X119.915 Y144.098 E281.4129
G1 X120.339 Y144.098 E281.42136
G1 X96.999 Y120.758 E282.08006
G1 X96.999 Y120.334 E282.08853
G1 X120.763 Y144.098 E282.7592
G1 X121.188 Y144.098 E282.76768
G1 X96.999 Y119.909 E283.45034
G1 X96.999 Y119.485 E283.45881
G1 X121.612 Y144.098 E284.15344
G1 X122.036 Y144.098 E284.1619
G1 X96.999 Y119.061 E284.8685
G1 X96.999 Y118.636 E284.87698
G1 X122.46 Y144.098 E285.59556
G1 X122.885 Y144.098 E285.60404
G1 X96.999 Y118.212 E286.3346
G1 X96.999 Y117.788 E286.34306
G1 X123.309 Y144.098 E287.08558
G1 X123.73 Y144.095 E287.09399
G1 X96.999 Y117.364 E287.84839
G1 X96.999 Y116.939 E287.85687
G1 X124.143 Y144.083 E288.62294
G1 X124.539 Y144.056 E288.63086
G1 X96.999 Y116.515 E289.40811
G1 X96.999 Y116.091 E289.41657
G1 X124.935 Y144.027 E290.20498
G1 X125.321 Y143.988 E290.21273
G1 X96.999 Y115.667 E291.01202
G1 X96.999 Y115.242 E291.0205
