;FLAVOR:Marlin
;TIME:2887
;Filament used: 1.13055m
;Layer height: 0.2
;MINX:98.423
;MINY:93.22
;MINZ:0.24
;MAXX:137.649
;MAXY:157.935
;MAXZ:50.29
;Generated with Cura_SteamEngine 5.2.2
M140 S50
M105
M190 S50
M104 S200
M105
M109 S200
M82 ;absolute extrusion mode
; Ender 3 Custom Start G-code
G92 E0 ; Reset Extruder
G28 ; Home all axes
G1 Z2.0 F3000 ; Move Z Axis up little to prevent scratching of Heat Bed
G1 X0.1 Y20 Z0.3 F5000.0 ; Move to start position
G1 X0.1 Y200.0 Z0.3 F1500.0 E15 ; Draw the first line
G1 X0.4 Y200.0 Z0.3 F5000.0 ; Move to side a little
G1 X0.4 Y20 Z0.3 F1500.0 E30 ; Draw the second line
G92 E0 ; Reset Extruder
G1 Z2.0 F3000 ; Move Z Axis up little to prevent scratching of Heat Bed
G1 X5 Y20 Z0.3 F5000.0 ; Move over to prevent blob squish
M141 S28
G92 E0
G92 E0
G1 F2700 E-5
;LAYER_COUNT:247
;LAYER:-6
M107
G0 F9000 X103.22 Y109.308 Z0.24
;TYPE:SUPPORT-INTERFACE
G1 F2700 E0
G1 F1125 X102.517 Y110.116 E0.08549
G1 X101.88 Y110.965 E0.17022
G1 X101.306 Y111.861 E0.25516
G1 X100.796 Y112.799 E0.34039
G1 X100.331 Y113.842 E0.43154
G1 X99.962 Y114.857 E0.51775
G1 X99.137 Y117.398 E0.73101
G1 X98.974 Y117.941 E0.77626
G1 X98.715 Y119.005 E0.86368
G1 X98.541 Y120.042 E0.94761
G1 X98.443 Y121.103 E1.03267
G1 X98.423 Y122.179 E1.11857
G1 X98.484 Y123.318 E1.20962
G1 X98.627 Y124.38 E1.29516
G1 X98.864 Y125.49 E1.38576
G1 X99.159 Y126.516 E1.47098
G1 X99.984 Y129.051 E1.68378
G1 X100.165 Y129.575 E1.72803
G1 X100.504 Y130.408 E1.79982
G1 X100.753 Y131.17 E1.86382
G1 X100.899 Y132.034 E1.93376
G1 X101.084 Y133.007 E2.01282
G1 X101.345 Y133.995 E2.09439
G1 X102.475 Y137.702 E2.40375
G1 X102.666 Y138.433 E2.46406
G1 X102.806 Y139.074 E2.51643
G1 X102.868 Y139.716 E2.56791
G1 X102.847 Y140.475 E2.62852
G1 X102.835 Y141.407 E2.70293
G1 X102.895 Y142.54 E2.79349
G1 X103.036 Y143.596 E2.87854
G1 X103.236 Y144.557 E2.95689
G1 X103.54 Y145.653 E3.04768
G1 X103.765 Y146.35 E3.10615
G1 X103.95 Y146.876 E3.15066
G1 X104.393 Y147.951 E3.24347
G1 X104.875 Y148.906 E3.32886
G1 X105.477 Y149.89 E3.42094
G1 X106.037 Y150.685 E3.49856
G1 X106.709 Y151.504 E3.58313
G1 X107.454 Y152.288 E3.66946
G1 X108.181 Y152.95 E3.74795
G1 X109.061 Y153.647 E3.83756
G1 X109.652 Y154.076 E3.89585
G1 X110.248 Y154.484 E3.95351
G1 X111.172 Y155.04 E4.03959
G1 X112.039 Y155.487 E4.11745
G1 X113.023 Y155.905 E4.20279
G1 X114.039 Y156.25 E4.28844
G1 X115.144 Y156.534 E4.37952
G1 X116.026 Y156.697 E4.45111
G1 X117.101 Y156.822 E4.5375
G1 X118.232 Y156.869 E4.62786
G1 X118.913 Y156.87 E4.68222
G1 X119.518 Y156.858 E4.73053
G1 X120.653 Y156.772 E4.82139
G1 X121.626 Y156.621 E4.89999
G1 X122.76 Y156.368 E4.99273
G1 X123.77 Y156.056 E5.07711
G1 X124.763 Y155.669 E5.16219
G1 X125.663 Y155.239 E5.24181
G1 X126.57 Y154.728 E5.32491
G1 X127.513 Y154.103 E5.41521
G1 X128.127 Y153.658 E5.47574
G1 X128.688 Y153.23 E5.53207
G1 X129.521 Y152.507 E5.62012
G1 X130.211 Y151.822 E5.69773
G1 X130.952 Y150.961 E5.78841
G1 X131.559 Y150.149 E5.86933
G1 X132.158 Y149.202 E5.95878
G1 X132.636 Y148.321 E6.03879
G1 X133.105 Y147.268 E6.1308
G1 X133.438 Y146.352 E6.2086
G1 X133.659 Y145.673 E6.2656
G1 X133.837 Y145.075 E6.31541
G1 X134.076 Y144.096 E6.39585
G1 X134.254 Y143.051 E6.48047
G1 X134.353 Y141.981 E6.56625
G1 X134.37 Y140.839 E6.65742
G1 X134.319 Y139.862 E6.73551
G1 X134.185 Y138.803 E6.82072
G1 X133.982 Y137.792 E6.90303
G1 X133.682 Y136.534 E7.00627
G1 X133.55 Y136.038 E7.04724
G1 X133.469 Y135.684 E7.07622
G1 X133.386 Y135.037 E7.12829
G1 X133.363 Y134.177 E7.19697
G1 X133.392 Y133.366 E7.26175
G1 X133.514 Y132.685 E7.31697
G1 X133.724 Y132.029 E7.37196
G1 X134.009 Y131.413 E7.42613
G1 X134.247 Y130.963 E7.46677
G1 X134.681 Y129.987 E7.55203
G1 X135.002 Y129.102 E7.62718
G1 X135.869 Y126.444 E7.85036
G1 X136.04 Y125.876 E7.89771
G1 X136.291 Y124.839 E7.98288
G1 X136.464 Y123.8 E8.06695
G1 X136.564 Y122.722 E8.15337
G1 X136.574 Y122.181 E8.19657
G1 X136.583 Y121.658 E8.23832
G1 X136.522 Y120.521 E8.32921
G1 X136.381 Y119.472 E8.4137
G1 X136.145 Y118.365 E8.50405
G1 X135.88 Y117.432 E8.58147
G1 X135.016 Y114.774 E8.80458
G1 X134.838 Y114.263 E8.84777
G1 X134.395 Y113.188 E8.94058
G1 X133.957 Y112.318 E9.01833
G1 X133.375 Y111.337 E9.10938
G1 X132.76 Y110.461 E9.19482
G1 X132.088 Y109.64 E9.27951
G1 X131.291 Y108.807 E9.37154
G1 X130.559 Y108.139 E9.45064
G1 X129.672 Y107.445 E9.54054
G1 X127.534 Y105.89 E9.75158
G1 X127.009 Y105.524 E9.80266
G1 X126.026 Y104.919 E9.8948
G1 X125.079 Y104.432 E9.9798
G1 X124.093 Y104.014 E10.06529
G1 X123.091 Y103.675 E10.14973
G1 X121.986 Y103.391 E10.2408
G1 X121.104 Y103.228 E10.3124
G1 X120.03 Y103.103 E10.39871
G1 X118.898 Y103.057 E10.48914
G1 X116.169 Y103.056 E10.70698
G1 X115.547 Y103.068 E10.75664
G1 X114.406 Y103.155 E10.84799
G1 X113.441 Y103.307 E10.92597
G1 X112.314 Y103.56 E11.01817
G1 X111.286 Y103.878 E11.10407
G1 X110.286 Y104.27 E11.1898
G1 X109.261 Y104.77 E11.28084
G1 X108.475 Y105.22 E11.35314
G1 X107.57 Y105.822 E11.4399
G1 X105.25 Y107.509 E11.66888
G1 X104.745 Y107.897 E11.71971
G1 X103.973 Y108.562 E11.80105
G1 X103.22 Y109.308 E11.88566
G0 F9000 X103.177 Y109.965
G1 F1125 X133.965 Y140.753 E15.36127
G0 F9000 X133.864 Y142.915
G1 F1125 X102.182 Y111.233 E18.93781
G0 F9000 X101.333 Y112.647
G1 F1125 X133.491 Y144.804 E22.56803
G0 F9000 X132.949 Y146.525
G1 F1125 X100.624 Y114.201 E26.2171
G0 F9000 X100.047 Y115.887
G1 F1125 X132.285 Y148.124 E29.85635
G0 F9000 X131.458 Y149.56
G1 F1125 X99.494 Y117.596 E33.46472
G0 F9000 X99.051 Y119.416
G1 F1125 X130.503 Y150.868 E37.01529
G0 F9000 X129.417 Y152.044
G1 F1125 X98.835 Y121.463 E40.4676
G0 F9000 X98.958 Y123.849
G1 F1125 X128.204 Y153.094 E43.76908
G0 F9000 X126.884 Y154.037
G1 F1125 X99.685 Y126.837 E46.83959
G0 F9000 X100.892 Y130.308
G1 F1125 X125.47 Y154.886 E49.61417
G0 F9000 X123.897 Y155.576
G1 F1125 X101.558 Y133.236 E52.13605
G0 F9000 X102.512 Y136.453
G1 F1125 X122.151 Y156.092 E54.35307
G0 F9000 X120.2 Y156.404
G1 F1125 X103.243 Y139.447 E56.26732
G0 F9000 X103.251 Y141.718
G1 F1125 X117.99 Y156.457 E57.93119
G0 F9000 X115.453 Y156.182
G1 F1125 X103.596 Y144.326 E59.26965
G0 F9000 X104.733 Y147.725
G1 F1125 X112.05 Y155.042 E60.09566
G1 F2700 E55.09566
G0 F9000 X111.703 Y156.501
G0 X113.621 Y157.234
G0 X114.925 Y157.576
G0 X117.01 Y157.883
G0 X119.749 Y157.912
G0 X121.814 Y157.67
G0 X123.149 Y157.362
G0 X125.092 Y156.684
G0 X126.306 Y156.105
G0 X128.209 Y154.915
G0 X129.366 Y154.051
G0 X130.916 Y152.62
G0 X131.789 Y151.62
G0 X132.988 Y149.892
G0 X133.63 Y148.709
G0 X134.458 Y146.657
G0 X135.095 Y144.418
G0 X135.321 Y143.065
G0 X135.438 Y141.003
G0 X135.375 Y139.797
G0 X135.088 Y137.889
G0 X133.651 Y138.177
G1 F2700 E60.09566
G1 F1125 X104.291 Y108.816 E63.41012
G0 F9000 X105.534 Y107.797
G1 F1125 X133.015 Y135.278 E66.51242
G0 F9000 X133.043 Y133.043
G1 F1125 X106.843 Y106.843 E69.4701
G0 F9000 X108.167 Y105.904
G1 F1125 X133.601 Y131.338 E72.34131
G0 F9000 X134.324 Y129.798
G1 F1125 X109.583 Y105.058 E75.13423
G0 F9000 X111.149 Y104.361
G1 F1125 X134.903 Y128.115 E77.81579
G0 F9000 X135.459 Y126.408
G1 F1125 X112.891 Y103.84 E80.36346
G0 F9000 X114.837 Y103.523
G1 F1125 X135.923 Y124.609 E82.74383
G0 F9000 X136.165 Y122.588
G1 F1125 X117.033 Y103.456 E84.90361
G0 F9000 X119.314 Y103.475
G1 F1125 X136.079 Y120.24 E86.79619
G0 F9000 X135.422 Y117.32
G1 F1125 X121.881 Y103.779 E88.32482
G0 F9000 X125.425 Y105.061
G1 F1125 X134.248 Y113.883 E89.32078
G1 F2700 E84.32078
G0 F300 X134.248 Y113.883 Z0.54
G0 F9000 X135.603 Y113.319
G0 X134.803 Y111.647
G0 X133.671 Y109.904
G0 X132.823 Y108.867
G0 X131.33 Y107.402
G0 X128.055 Y104.954
G0 X126.469 Y103.95
G0 X124.589 Y103.068
G0 X123.299 Y102.628
G0 X121.272 Y102.176
G0 X119.946 Y102.029
G0 X115.3 Y102.015
G0 X113.252 Y102.258
G0 X111.92 Y102.567
G0 X109.988 Y103.244
G0 X108.755 Y103.832
G0 X107.215 Y104.796
G0 X105.47 Y106.031
G0 X106.332 Y107.213
;TIME_ELAPSED:69.900231
;LAYER:-5
;TYPE:SUPPORT
G1 F2700 E89.32078
G1 F1125 X101.948 Y111.597 E89.93941
G1 F2700 E84.93941
G0 F9000 X100.952 Y110.438
G0 X101.763 Y109.36
G0 X102.909 Y108.136
G0 X104.183 Y106.983
G0 X105.565 Y107.771
G1 F2700 E89.93941
G1 F1125 X104.989 Y108.212 E90.01179
G1 X104.197 Y108.9 E90.11647
G1 X103.504 Y109.585 E90.2137
G1 X102.786 Y110.42 E90.32358
G1 X102.21 Y111.189 E90.41945
G1 X101.638 Y112.081 E90.52518
G1 X101.157 Y112.966 E90.62569
G1 X100.708 Y113.971 E90.73552
G1 X100.549 Y114.411 E90.7822
G1 X110.208 Y104.751 E92.14526
G1 X110.457 Y104.63 E92.17288
G1 X111.407 Y104.258 E92.27468
G1 X112.433 Y103.941 E92.38183
G1 X99.834 Y116.539 E94.15962
G1 X99.52 Y117.506 E94.26106
G1 X99.315 Y118.203 E94.33356
G1 X99.231 Y118.557 E94.36986
G1 X114.215 Y103.573 E96.48426
G1 X115.401 Y103.476 E96.603
G1 X115.736 Y103.466 E96.63644
G1 X98.919 Y120.283 E99.0095
G1 X98.841 Y121.132 E99.09457
G1 X98.83 Y121.787 E99.15994
G1 X117.162 Y103.454 E101.74685
G1 X118.576 Y103.455 E101.88794
G1 X98.864 Y123.167 E104.66952
G1 X99.04 Y124.404 E104.79419
G1 X119.947 Y103.498 E107.74432
G1 X121.218 Y103.641 E107.87194
G1 X99.299 Y125.56 E110.96495
G1 X99.539 Y126.392 E111.05135
G1 X99.623 Y126.65 E111.07842
G1 X122.372 Y103.901 E114.28855
G1 X122.968 Y104.055 E114.34998
G1 X123.465 Y104.223 E114.40232
G1 X99.97 Y127.717 E117.71765
G1 X100.318 Y128.783 E117.82954
G1 X124.484 Y104.617 E121.23963
G1 X124.908 Y104.795 E121.28551
G1 X125.446 Y105.07 E121.3458
G1 X100.698 Y129.818 E124.83801
G1 X100.87 Y130.241 E124.88357
G1 X101.073 Y130.857 E124.94829
G1 X126.347 Y105.583 E128.51472
G1 X126.661 Y105.774 E128.55139
G1 X127.2 Y106.144 E128.61663
G1 X101.306 Y132.038 E132.27055
G1 X101.469 Y132.9 E132.35809
G1 X101.551 Y133.208 E132.38989
G1 X128.02 Y106.738 E136.12502
G1 X128.839 Y107.334 E136.22609
G1 X101.86 Y134.313 E140.03312
G1 X102.19 Y135.397 E140.14618
G1 X129.651 Y107.936 E144.02122
G1 X130.442 Y108.559 E144.12169
G1 X102.519 Y136.482 E148.06193
G1 X102.707 Y137.1 E148.12638
G1 X102.735 Y137.092 E148.12929
G1 X102.855 Y137.561 E148.17759
G1 X131.166 Y109.25 E152.17258
G1 X131.849 Y109.98 E152.27233
G1 X103.134 Y138.696 E156.3244
G1 X103.199 Y138.987 E156.35415
G1 X103.297 Y139.947 E156.45044
G1 X132.482 Y110.762 E160.56875
G1 X133.064 Y111.594 E160.67007
G1 X103.234 Y141.424 E164.8794
G1 X103.312 Y142.76 E165.01294
G1 X133.59 Y112.483 E169.28542
G1 X134.066 Y113.42 E169.39029
G1 X103.523 Y143.963 E173.70023
G1 X103.627 Y144.478 E173.75266
G1 X103.801 Y145.1 E173.8171
G1 X134.469 Y114.432 E178.14469
G1 X134.641 Y114.911 E178.19547
G1 X134.828 Y115.487 E178.2559
G1 X104.132 Y146.183 E182.58744
G1 X104.383 Y146.888 E182.66211
G1 X104.518 Y147.211 E182.69704
G1 X135.175 Y116.554 E187.02307
G1 X135.523 Y117.621 E187.13506
G1 X104.96 Y148.184 E191.44783
G1 X105.226 Y148.712 E191.50682
G1 X105.461 Y149.097 E191.55182
G1 X135.815 Y118.743 E195.8351
G1 X135.998 Y119.621 E195.92459
G1 X136.04 Y119.932 E195.9559
G1 X106.013 Y149.958 E200.19297
G1 X106.341 Y150.428 E200.25016
G1 X106.62 Y150.766 E200.29389
G1 X136.159 Y121.227 E204.46216
G1 X136.183 Y121.646 E204.50404
G1 X136.165 Y122.635 E204.60273
G1 X107.277 Y151.523 E208.67914
G1 X107.719 Y151.988 E208.74316
G1 X107.985 Y152.229 E208.77897
G1 X135.986 Y124.228 E212.73022
G1 X135.896 Y124.766 E212.78464
G1 X135.655 Y125.766 E212.88728
G1 X135.566 Y126.062 E212.91812
G1 X108.742 Y152.887 E216.70335
G1 X109.303 Y153.326 E216.77443
G1 X109.542 Y153.5 E216.80393
G1 X134.894 Y128.148 E220.38137
G1 X134.662 Y128.863 E220.45637
G1 X134.296 Y129.87 E220.56328
G1 X134.061 Y130.396 E220.62077
G1 X110.37 Y154.087 E223.96382
G1 X111.25 Y154.621 E224.06653
G1 X133.089 Y132.782 E227.14825
G1 X132.978 Y133.391 E227.21002
G1 X132.943 Y133.391 E227.21351
G1 X132.967 Y134.319 E227.30614
G1 X112.178 Y155.108 E230.23969
G1 X113.173 Y155.527 E230.34741
G1 X133.052 Y135.647 E233.15263
G1 X133.165 Y136.14 E233.20309
G1 X133.33 Y136.784 E233.26943
G1 X114.228 Y155.886 E235.96493
G1 X115.353 Y156.175 E236.08082
G1 X133.601 Y137.927 E238.65581
G1 X133.79 Y138.863 E238.75109
G1 X133.821 Y139.121 E238.77702
G1 X116.583 Y156.359 E241.20949
G1 X117.136 Y156.423 E241.26504
G1 X117.902 Y156.454 E241.34153
G1 X133.948 Y140.408 E243.60579
G1 X133.971 Y140.83 E243.64796
G1 X133.955 Y141.816 E243.74636
G1 X119.312 Y156.459 E245.81265
G1 X119.649 Y156.45 E245.84628
G1 X120.83 Y156.355 E245.96451
G1 X133.789 Y143.396 E247.79316
G1 X133.689 Y143.994 E247.85366
G1 X133.45 Y144.977 E247.9546
G1 X133.377 Y145.222 E247.98011
G1 X122.607 Y155.992 E249.49987
G1 X123.639 Y155.676 E249.60756
G1 X124.781 Y155.232 E249.72982
G1 X132.603 Y147.41 E250.83359
G1 X132.274 Y148.15 E250.9144
G1 X131.816 Y148.995 E251.0103
G1 X131.176 Y149.992 E251.12851
G1 X130.637 Y150.712 E251.21826
G1 X129.911 Y151.553 E251.32911
G1 X129.186 Y152.273 E251.43107
G1 X128.964 Y152.464 E251.46029
G1 X130.144 Y151.284 E251.6268
G1 F2700 E246.6268
G0 F300 X130.144 Y151.284 Z0.74
G0 F9000 X131.054 Y152.471
G0 X130.098 Y153.421
G0 X128.763 Y154.514
G0 X127.119 Y155.641
G0 X125.301 Y156.593
G0 X124.027 Y157.09
G0 X122.035 Y157.628
G0 X120.684 Y157.837
G0 X118.922 Y157.935
G0 X117.01 Y157.883
G0 X114.925 Y157.576
G0 X113.621 Y157.234
G0 X111.703 Y156.501
G0 X110.498 Y155.883
G0 X109.024 Y154.935
G0 X107.484 Y153.755
G0 X105.983 Y152.287
G0 X107.01 Y151.243
;TIME_ELAPSED:159.737148
;LAYER:-4
;TYPE:SUPPORT-INTERFACE
G1 F2700 E251.6268
G1 F1500 X107.719 Y151.988 E251.66101
G1 X108.532 Y152.722 E251.69744
G1 X108.839 Y152.962 E251.7104
G1 X106.51 Y150.633 E251.81995
G1 X106.341 Y150.428 E251.82878
G1 X105.807 Y149.666 E251.85973
G1 X105.338 Y148.896 E251.88972
G1 X110.772 Y154.33 E252.14532
G1 X111.355 Y154.685 E252.16802
G1 X112.048 Y155.04 E252.19392
G1 X104.73 Y147.722 E252.53813
G1 X104.327 Y146.753 E252.57304
G1 X113.071 Y155.498 E252.98435
G1 X113.929 Y155.789 E253.01449
G1 X104.04 Y145.9 E253.47963
G1 X103.92 Y145.529 E253.4926
G1 X103.799 Y145.094 E253.50762
G1 X114.716 Y156.011 E254.02112
G1 X115.219 Y156.141 E254.0384
G1 X115.454 Y156.184 E254.04635
G1 X103.596 Y144.325 E254.60414
G1 X103.453 Y143.617 E254.62816
G1 X116.144 Y156.308 E255.2251
G1 X116.784 Y156.382 E255.24653
G1 X103.352 Y142.95 E255.87833
G1 X103.301 Y142.566 E255.89122
G1 X103.286 Y142.318 E255.89948
G1 X117.401 Y156.433 E256.56341
G1 X117.99 Y156.457 E256.58301
G1 X103.251 Y141.717 E257.27631
G1 X103.233 Y141.414 E257.28641
G1 X103.236 Y141.137 E257.29562
G1 X118.567 Y156.468 E258.01675
G1 X119.127 Y156.462 E258.03537
G1 X103.245 Y140.58 E258.78241
G1 X103.269 Y140.038 E258.80046
G1 X119.677 Y156.447 E259.57226
G1 X120.201 Y156.404 E259.58975
G1 X103.246 Y139.449 E260.38726
G1 X103.182 Y138.82 E260.40829
G1 X120.718 Y156.356 E261.23313
G1 X121.208 Y156.281 E261.24962
G1 X102.98 Y138.052 E262.10703
G1 X102.786 Y137.293 E262.13309
G1 X121.694 Y156.201 E263.02246
G1 X122.154 Y156.095 E263.03816
G1 X102.509 Y136.451 E263.96218
G1 X102.262 Y135.637 E263.99047
G1 X122.615 Y155.99 E264.94781
G1 X123.049 Y155.859 E264.96289
G1 X102.015 Y134.824 E265.95229
G1 X101.767 Y134.011 E265.98056
G1 X123.49 Y155.734 E267.00234
G1 X123.897 Y155.575 E267.01688
G1 X101.557 Y133.235 E268.06768
G1 X101.469 Y132.9 E268.0792
G1 X101.394 Y132.506 E268.09254
G1 X124.304 Y155.417 E269.17018
G1 X124.712 Y155.259 E269.18473
G1 X101.271 Y131.818 E270.28733
G1 X101.15 Y131.132 E270.3105
G1 X125.088 Y155.069 E271.43644
G1 X125.471 Y154.887 E271.45055
G1 X100.892 Y130.308 E272.60667
G1 X100.517 Y129.367 E272.64036
G1 X125.833 Y154.683 E273.83115
G1 X126.195 Y154.479 E273.84497
G1 X100.229 Y128.513 E275.06633
G1 X99.956 Y127.675 E275.09564
G1 X126.549 Y154.268 E276.34649
