;FLAVOR:Marlin
;TIME:1414
;Filament used: 0.754737m
;Layer height: 0.12
;MINX:91.959
;MINY:90.762
;MINZ:0.144
;MAXX:143.022
;MAXY:144.239
;MAXZ:3.354
;Generated with Cura_SteamEngine 5.2.2
M140 S50
M105
M190 S50
M104 S200
M105
M109 S200
M82 ;absolute extrusion mode
; Ender 3 Custom Start G-code
G92 E0 ; Reset Extruder
G28 ; Home all axes
G1 Z2.0 F3000 ; Move Z Axis up little to prevent scratching of Heat Bed
G1 X0.1 Y20 Z0.3 F5000.0 ; Move to start position
G1 X0.1 Y200.0 Z0.3 F1500.0 E15 ; Draw the first line
G1 X0.4 Y200.0 Z0.3 F5000.0 ; Move to side a little
G1 X0.4 Y20 Z0.3 F1500.0 E30 ; Draw the second line
G92 E0 ; Reset Extruder
G1 Z2.0 F3000 ; Move Z Axis up little to prevent scratching of Heat Bed
G1 X5 Y20 Z0.3 F5000.0 ; Move over to prevent blob squish
M141 S28
G92 E0
G92 E0
G1 F2700 E-5
;LAYER_COUNT:22
;LAYER:-6
M107
G0 F9000 X96.801 Y96.613 Z0.144
;TYPE:SUPPORT-INTERFACE
G1 F2700 E0
G1 F1125 X96.071 Y97.482 E0.05436
G1 X95.433 Y98.374 E0.10688
G1 X94.854 Y99.338 E0.16074
G1 X94.402 Y100.218 E0.20812
G1 X93.984 Y101.203 E0.25937
G1 X93.644 Y102.207 E0.31014
G1 X93.36 Y103.311 E0.36474
G1 X93.197 Y104.193 E0.40769
G1 X93.072 Y105.267 E0.45948
G1 X93.025 Y106.417 E0.51461
G1 X93.025 Y128.641 E1.57901
G1 X93.032 Y129.037 E1.59798
G1 X93.113 Y130.196 E1.65363
G1 X93.267 Y131.236 E1.70398
G1 X93.504 Y132.296 E1.756
G1 X93.844 Y133.406 E1.81161
G1 X94.185 Y134.295 E1.85721
G1 X94.641 Y135.269 E1.90872
G1 X95.118 Y136.118 E1.95536
G1 X95.71 Y137.026 E2.00727
G1 X96.398 Y137.926 E2.06153
G1 X97.119 Y138.732 E2.11332
G1 X97.885 Y139.47 E2.16427
G1 X98.787 Y140.208 E2.22009
G1 X99.576 Y140.771 E2.26651
G1 X100.48 Y141.323 E2.31724
G1 X101.424 Y141.808 E2.36807
G1 X102.342 Y142.201 E2.4159
G1 X103.416 Y142.57 E2.47029
G1 X104.526 Y142.856 E2.52519
G1 X105.491 Y143.035 E2.57219
G1 X106.484 Y143.144 E2.62004
G1 X107.613 Y143.191 E2.67416
G1 X127.315 Y143.193 E3.61778
G1 X127.824 Y143.185 E3.64216
G1 X128.983 Y143.104 E3.6978
G1 X130.029 Y142.949 E3.74845
G1 X131.145 Y142.694 E3.80328
G1 X132.175 Y142.379 E3.85486
G1 X133.016 Y142.056 E3.89801
G1 X133.978 Y141.611 E3.94878
G1 X134.966 Y141.065 E4.00284
G1 X135.864 Y140.472 E4.05438
G1 X136.661 Y139.856 E4.10263
G1 X137.514 Y139.099 E4.15725
G1 X138.255 Y138.329 E4.20843
G1 X138.995 Y137.427 E4.26431
G1 X139.561 Y136.637 E4.31086
G1 X140.069 Y135.801 E4.35771
G1 X140.591 Y134.799 E4.41182
G1 X141.008 Y133.822 E4.4627
G1 X141.358 Y132.796 E4.51462
G1 X141.627 Y131.765 E4.56565
G1 X141.809 Y130.785 E4.61339
G1 X141.929 Y129.731 E4.6642
G1 X141.977 Y128.583 E4.71923
G1 X141.977 Y106.577 E5.7732
G1 X141.968 Y105.96 E5.80275
G1 X141.887 Y104.8 E5.85844
G1 X141.743 Y103.831 E5.90536
G1 X141.497 Y102.705 E5.96056
G1 X141.192 Y101.687 E6.01146
G1 X140.776 Y100.62 E6.06631
G1 X140.39 Y99.799 E6.10976
G1 X139.875 Y98.869 E6.16068
G1 X139.254 Y97.923 E6.21488
G1 X138.584 Y97.052 E6.26751
G1 X137.82 Y96.212 E6.32189
G1 X137.171 Y95.585 E6.36511
G1 X136.302 Y94.855 E6.41947
G1 X135.424 Y94.226 E6.4712
G1 X134.446 Y93.638 E6.52585
G1 X133.566 Y93.186 E6.57323
G1 X132.581 Y92.768 E6.62448
G1 X131.577 Y92.428 E6.67525
G1 X130.473 Y92.144 E6.72985
G1 X129.591 Y91.981 E6.77281
G1 X128.517 Y91.856 E6.82459
G1 X127.385 Y91.809 E6.87886
G1 X107.572 Y91.809 E7.82779
G1 X107.178 Y91.816 E7.84666
G1 X106.021 Y91.897 E7.90221
G1 X105.046 Y92.041 E7.94942
G1 X103.921 Y92.287 E8.00457
G1 X102.913 Y92.59 E8.05498
G1 X101.836 Y93.008 E8.11032
G1 X101.015 Y93.394 E8.15377
G1 X100.085 Y93.909 E8.20468
G1 X99.137 Y94.532 E8.25901
G1 X98.268 Y95.2 E8.31151
G1 X97.428 Y95.964 E8.36589
G1 X96.801 Y96.613 E8.40911
G0 F9000 X96.998 Y96.998
G1 F1125 X138.003 Y138.003 E11.18651
G0 F9000 X136.87 Y139.133
G1 F1125 X96.001 Y98.264 E13.9547
G0 F9000 X95.136 Y99.661
G1 F1125 X135.623 Y140.149 E16.69705
G0 F9000 X134.227 Y141.015
G1 F1125 X94.416 Y101.204 E19.39357
G0 F9000 X93.871 Y102.922
G1 F1125 X132.697 Y141.748 E22.02338
G0 F9000 X131.001 Y142.315
G1 F1125 X93.524 Y104.838 E24.56182
G0 F9000 X93.424 Y107
G1 F1125 X129.104 Y142.68 E26.97854
G0 F9000 X126.952 Y142.791
G1 F1125 X93.424 Y109.263 E29.2495
G0 F9000 X93.424 Y111.526
G1 F1125 X124.689 Y142.791 E31.36717
G0 F9000 X122.427 Y142.791
G1 F1125 X93.424 Y113.789 E33.3316
G0 F9000 X93.424 Y116.051
G1 F1125 X120.163 Y142.791 E35.14276
G0 F9000 X117.9 Y142.791
G1 F1125 X93.424 Y118.314 E36.80063
G0 F9000 X93.424 Y120.577
G1 F1125 X115.638 Y142.791 E38.30525
G0 F9000 X113.374 Y142.79
G1 F1125 X93.424 Y122.84 E39.65653
G0 F9000 X93.424 Y125.102
G1 F1125 X111.111 Y142.79 E40.85456
G0 F9000 X108.849 Y142.79
G1 F1125 X93.424 Y127.365 E41.89934
G0 F9000 X93.478 Y129.681
G1 F1125 X106.541 Y142.745 E42.78418
G0 F9000 X103.784 Y142.25
G1 F1125 X93.963 Y132.429 E43.44938
G1 F2700 E38.44938
G0 F9000 X92.764 Y133.538
G0 X93.262 Y134.837
G0 X93.397 Y135.122
G0 X94.315 Y136.845
G0 X95.983 Y136.712
G1 F2700 E43.44938
G1 F1125 X99.482 Y140.211 E43.68638
G1 F2700 E38.68638
G0 F9000 X98.886 Y141.587
G0 X100.062 Y142.306
G0 X101.936 Y143.185
G0 X103.206 Y143.617
G0 X105.24 Y144.071
G0 X106.567 Y144.218
G0 X128.068 Y144.239
G0 X130.136 Y144.01
G0 X131.442 Y143.718
G0 X133.423 Y143.041
G0 X134.635 Y142.471
G0 X136.395 Y141.397
G0 X137.473 Y140.567
G0 X138.689 Y139.393
G0 X139.847 Y138.068
G0 X138.998 Y136.735
G1 F2700 E43.68638
G1 F1125 X98.129 Y95.866 E46.45457
G0 F9000 X99.378 Y94.852
G1 F1125 X139.86 Y135.334 E49.19655
G0 F9000 X140.584 Y133.795
G1 F1125 X100.773 Y93.985 E51.89304
G0 F9000 X102.306 Y93.255
G1 F1125 X141.131 Y132.08 E54.52278
G0 F9000 X141.477 Y130.163
G1 F1125 X103.997 Y92.683 E57.06142
G0 F9000 X105.896 Y92.319
G1 F1125 X141.576 Y127.999 E59.47814
G0 F9000 X141.576 Y125.737
G1 F1125 X108.048 Y92.208 E61.74913
G0 F9000 X110.31 Y92.208
G1 F1125 X141.576 Y123.474 E63.86688
G0 F9000 X141.576 Y121.211
G1 F1125 X112.573 Y92.208 E65.83134
G0 F9000 X114.836 Y92.208
G1 F1125 X141.576 Y118.948 E67.64253
G0 F9000 X141.576 Y116.686
G1 F1125 X117.099 Y92.208 E69.30047
G0 F9000 X119.361 Y92.208
G1 F1125 X141.576 Y114.423 E70.80516
G0 F9000 X141.576 Y112.16
G1 F1125 X121.624 Y92.208 E72.15657
G0 F9000 X123.887 Y92.208
G1 F1125 X141.576 Y109.897 E73.3547
G0 F9000 X141.576 Y107.635
G1 F1125 X126.149 Y92.208 E74.39962
G0 F9000 X128.457 Y92.254
G1 F1125 X141.521 Y105.317 E75.28446
G0 F9000 X141.039 Y102.572
G1 F1125 X131.214 Y92.748 E75.9499
G1 F2700 E70.9499
G0 F9000 X131.996 Y91.444
G0 X133.914 Y92.177
G0 X134.255 Y92.352
G0 X135.919 Y93.282
G0 X135.51 Y94.781
G1 F2700 E75.9499
G1 F1125 X139.008 Y98.278 E76.1868
G1 F2700 E71.1868
G0 F300 X139.008 Y98.278 Z0.324
G0 F9000 X140.049 Y97.206
G0 X138.716 Y95.606
G0 X137.759 Y94.683
G0 X136.115 Y93.412
G0 X134.956 Y92.703
G0 X133.076 Y91.821
G0 X131.786 Y91.381
G0 X129.759 Y90.929
G0 X128.433 Y90.782
G0 X106.934 Y90.762
G0 X104.866 Y90.991
G0 X103.551 Y91.287
G0 X101.959 Y91.829
G0 X100.538 Y92.442
G0 X101.127 Y93.782
;TIME_ELAPSED:97.269979
;LAYER:-5
;TYPE:SUPPORT
G1 F2700 E76.1868
G1 F1125 X100.153 Y94.333 E76.25379
G1 X99.347 Y94.868 E76.31171
G1 X98.482 Y95.543 E76.3774
G1 X97.7 Y96.254 E76.44067
G1 X97.106 Y96.871 E76.49195
G1 X96.44 Y97.663 E76.5539
G1 X95.778 Y98.577 E76.62146
G1 X95.214 Y99.508 E76.68663
G1 X94.757 Y100.403 E76.74679
G1 X101.603 Y93.558 E77.32638
G1 X101.985 Y93.378 E77.35166
G1 X103.044 Y92.966 E77.41969
G1 X103.844 Y92.73 E77.46962
G1 X93.946 Y102.629 E78.3077
G1 X93.75 Y103.392 E78.35486
G1 X93.559 Y104.43 E78.41804
G1 X105.629 Y92.36 E79.43997
G1 X106.063 Y92.294 E79.46625
G1 X107.188 Y92.215 E79.53377
G1 X93.442 Y105.962 E80.69764
G1 X93.424 Y106.435 E80.72597
G1 X93.424 Y107.393 E80.78333
G1 X108.61 Y92.208 E82.06903
G1 X110.024 Y92.208 E82.15368
G1 X93.424 Y108.808 E83.55915
G1 X93.424 Y110.222 E83.6438
G1 X111.438 Y92.208 E85.16898
G1 X112.852 Y92.208 E85.25364
G1 X93.424 Y111.636 E86.89854
G1 X93.424 Y113.05 E86.98319
G1 X114.267 Y92.208 E88.74785
G1 X115.681 Y92.208 E88.83251
G1 X93.424 Y114.465 E90.71693
G1 X93.424 Y115.879 E90.80158
G1 X117.095 Y92.208 E92.80572
G1 X118.509 Y92.208 E92.89038
G1 X93.424 Y117.293 E95.01423
G1 X93.424 Y118.707 E95.09889
G1 X119.923 Y92.208 E97.34247
G1 X121.338 Y92.208 E97.42718
G1 X93.424 Y120.121 E99.79052
G1 X93.424 Y121.536 E99.87523
G1 X122.752 Y92.208 E102.35833
G1 X124.166 Y92.208 E102.44298
G1 X93.424 Y122.95 E105.0458
G1 X93.424 Y124.364 E105.13045
G1 X125.58 Y92.208 E107.85299
G1 X126.994 Y92.208 E107.93764
G1 X93.424 Y125.778 E110.7799
G1 X93.424 Y127.192 E110.86455
G1 X128.375 Y92.242 E113.82369
G1 X129.643 Y92.388 E113.9001
G1 X93.425 Y128.605 E116.96651
G1 X93.432 Y129.019 E116.9913
G1 X93.496 Y129.949 E117.04711
G1 X130.805 Y92.64 E120.20593
G1 X131.455 Y92.807 E120.24611
G1 X131.9 Y92.959 E120.27426
G1 X93.665 Y131.194 E123.51148
G1 X93.923 Y132.351 E123.58245
G1 X132.924 Y93.35 E126.88453
G1 X133.394 Y93.548 E126.91506
G1 X133.888 Y93.799 E126.94823
G1 X94.276 Y133.411 E130.30204
G1 X94.564 Y134.165 E130.35036
G1 X94.685 Y134.417 E130.3671
G1 X134.791 Y94.311 E133.76273
G1 X135.205 Y94.562 E133.79172
G1 X135.64 Y94.876 E133.82384
G1 X95.153 Y135.363 E137.25173
G1 X95.464 Y135.916 E137.28971
G1 X95.682 Y136.248 E137.31349
G1 X136.438 Y95.492 E140.76416
G1 X136.912 Y95.891 E140.80125
G1 X137.188 Y96.156 E140.82416
G1 X96.259 Y137.085 E144.28947
G1 X96.706 Y137.67 E144.33355
G1 X96.888 Y137.87 E144.34974
G1 X137.883 Y96.875 E147.82064
G1 X138.239 Y97.266 E147.8523
G1 X138.531 Y97.642 E147.8808
G1 X97.567 Y138.606 E151.34908
G1 X98.29 Y139.297 E151.40895
G1 X139.129 Y98.458 E154.86665
G1 X139.448 Y98.938 E154.90115
G1 X139.67 Y99.331 E154.92817
G1 X99.076 Y139.925 E158.36513
G1 X99.902 Y140.513 E158.42583
G1 X140.161 Y100.254 E161.83441
G1 X140.405 Y100.77 E161.86859
G1 X140.587 Y101.242 E161.89887
G1 X100.798 Y141.032 E165.26771
G1 X101.73 Y141.514 E165.33053
G1 X140.952 Y102.292 E168.65132
G1 X141.132 Y102.903 E168.68945
G1 X141.245 Y103.412 E168.72066
G1 X102.74 Y141.918 E171.98079
G1 X103.466 Y142.165 E172.0267
G1 X103.816 Y142.257 E172.04837
G1 X141.453 Y104.619 E175.235
G1 X141.487 Y104.834 E175.24803
G1 X141.563 Y105.923 E175.31339
G1 X104.957 Y142.53 E178.41273
G1 X105.463 Y142.623 E178.44353
G1 X106.193 Y142.708 E178.48753
G1 X141.575 Y107.326 E181.4832
G1 X141.575 Y108.74 E181.56785
G1 X107.529 Y142.786 E184.45041
G1 X108.938 Y142.791 E184.53476
G1 X141.575 Y110.154 E187.29802
G1 X141.575 Y111.568 E187.38268
G1 X110.353 Y142.791 E190.02618
G1 X111.767 Y142.791 E190.11083
G1 X141.575 Y112.982 E192.63461
G1 X141.575 Y114.397 E192.71932
G1 X113.181 Y142.791 E195.12334
G1 X114.595 Y142.791 E195.208
G1 X141.575 Y115.811 E197.4923
G1 X141.575 Y117.225 E197.57695
G1 X116.009 Y142.791 E199.74154
G1 X117.423 Y142.791 E199.82619
G1 X141.575 Y118.639 E201.87106
G1 X141.575 Y120.054 E201.95577
G1 X118.837 Y142.791 E203.88087
G1 X120.251 Y142.791 E203.96553
G1 X141.575 Y121.468 E205.77091
G1 X141.575 Y122.882 E205.85557
G1 X121.665 Y142.792 E207.54128
G1 X123.079 Y142.792 E207.62593
G1 X141.575 Y124.296 E209.19192
G1 X141.575 Y125.71 E209.27657
G1 X124.493 Y142.792 E210.72285
G1 X125.908 Y142.792 E210.80756
G1 X141.575 Y127.125 E212.13403
G1 X141.575 Y128.539 E212.21868
G1 X127.322 Y142.792 E213.42544
G1 X127.806 Y142.784 E213.45442
G1 X128.814 Y142.714 E213.51491
G1 X141.491 Y130.037 E214.58823
G1 X141.413 Y130.724 E214.62962
G1 X141.227 Y131.715 E214.68998
G1 X130.514 Y142.428 E215.59702
G1 X131.055 Y142.303 E215.63026
G1 X132.019 Y142.008 E215.69061
G1 X132.552 Y141.804 E215.72478
G1 X140.598 Y133.758 E216.40601
G1 X140.196 Y134.691 E216.46683
G1 X139.787 Y135.485 E216.5203
G1 X139.225 Y136.417 E216.58546
G1 X138.623 Y137.261 E216.64752
G1 X137.904 Y138.119 E216.71454
G1 X137.248 Y138.799 E216.77111
G1 X136.511 Y139.459 E216.83034
G1 X135.614 Y140.157 E216.89838
G1 X138.904 Y136.866 E217.17698
G1 F2700 E212.17698
G0 F300 X138.904 Y136.866 Z0.444
G0 F9000 X140.373 Y137.331
G0 X141.082 Y136.172
G0 X141.963 Y134.296
G0 X142.407 Y132.998
G0 X142.861 Y130.951
G0 X143.003 Y129.649
G0 X143.022 Y105.718
G0 X142.793 Y103.65
G0 X142.497 Y102.335
G0 X141.826 Y100.369
G0 X141.254 Y99.151
G0 X140.172 Y97.38
G0 X138.92 Y98.141
;TIME_ELAPSED:225.437737
;LAYER:-4
;TYPE:SUPPORT-INTERFACE
G1 F2700 E217.17698
G1 F1500 X138.239 Y97.266 E217.1991
G1 X137.528 Y96.484 E217.22019
G1 X136.912 Y95.891 E217.23726
G1 X136.118 Y95.223 E217.25796
G1 X135.518 Y94.789 E217.27274
G1 X139.017 Y98.288 E217.37149
G1 X139.448 Y98.938 E217.38706
G1 X139.903 Y99.739 E217.40544
G1 X134.044 Y93.88 E217.57079
G1 X133.394 Y93.548 E217.58536
G1 X132.967 Y93.369 E217.5946
G1 X140.428 Y100.83 E217.80516
G1 X140.787 Y101.755 E217.82496
G1 X132.038 Y93.006 E218.07188
G1 X131.455 Y92.807 E218.08417
G1 X131.212 Y92.745 E218.08918
G1 X141.033 Y102.567 E218.36636
G1 X141.132 Y102.903 E218.37335
G1 X141.227 Y103.326 E218.382
G1 X130.451 Y92.55 E218.68613
G1 X129.751 Y92.416 E218.70035
G1 X141.364 Y104.029 E219.02809
G1 X141.466 Y104.697 E219.04158
G1 X129.095 Y92.325 E219.39073
G1 X128.457 Y92.253 E219.40354
G1 X141.521 Y105.317 E219.77224
G1 X141.564 Y105.926 E219.78442
G1 X127.867 Y92.229 E220.17098
G1 X127.281 Y92.208 E220.18268
G1 X141.576 Y106.503 E220.58612
G1 X141.576 Y107.069 E220.59741
G1 X126.715 Y92.208 E221.01682
G1 X126.149 Y92.208 E221.02812
G1 X141.576 Y107.635 E221.4635
G1 X141.576 Y108.2 E221.47477
G1 X125.584 Y92.208 E221.9261
G1 X125.018 Y92.208 E221.9374
G1 X141.576 Y108.766 E222.4047
G1 X141.576 Y109.332 E222.416
G1 X124.452 Y92.208 E222.89927
G1 X123.887 Y92.208 E222.91055
G1 X141.576 Y109.897 E223.40977
G1 X141.576 Y110.463 E223.42106
G1 X123.321 Y92.208 E223.93626
G1 X122.755 Y92.208 E223.94755
G1 X141.576 Y111.029 E224.47872
G1 X141.576 Y111.594 E224.49
G1 X122.19 Y92.208 E225.03711
G1 X121.624 Y92.208 E225.04841
G1 X141.576 Y112.16 E225.6115
G1 X141.576 Y112.726 E225.62279
G1 X121.058 Y92.208 E226.20185
G1 X120.493 Y92.208 E226.21313
G1 X141.576 Y113.291 E226.80814
G1 X141.576 Y113.857 E226.81943
G1 X119.927 Y92.208 E227.43041
G1 X119.361 Y92.208 E227.44171
G1 X141.576 Y114.423 E228.06866
G1 X141.576 Y114.988 E228.07994
G1 X118.796 Y92.208 E228.72284
G1 X118.23 Y92.208 E228.73414
G1 X141.576 Y115.554 E229.39301
G1 X141.576 Y116.12 E229.40431
G1 X117.664 Y92.208 E230.07915
G1 X117.099 Y92.208 E230.09043
G1 X141.576 Y116.686 E230.78124
G1 X141.576 Y117.251 E230.79251
G1 X116.533 Y92.208 E231.49928
G1 X115.967 Y92.208 E231.51058
G1 X141.576 Y117.817 E232.23332
G1 X141.576 Y118.383 E232.24461
G1 X115.401 Y92.208 E232.98333
G1 X114.836 Y92.208 E232.9946
G1 X141.576 Y118.948 E233.74926
G1 X141.576 Y119.514 E233.76056
G1 X114.27 Y92.208 E234.53119
G1 X113.704 Y92.208 E234.54249
G1 X141.576 Y120.08 E235.32909
G1 X141.576 Y120.645 E235.34037
G1 X113.139 Y92.208 E236.14292
G1 X112.573 Y92.208 E236.15422
G1 X141.576 Y121.211 E236.97275
G1 X141.576 Y121.777 E236.98404
G1 X112.007 Y92.208 E237.81854
G1 X111.442 Y92.208 E237.82982
G1 X141.576 Y122.342 E238.68026
G1 X141.576 Y122.908 E238.69156
G1 X110.876 Y92.208 E239.55798
G1 X110.31 Y92.208 E239.56927
G1 X141.576 Y123.474 E240.45167
G1 X141.576 Y124.039 E240.46294
G1 X109.745 Y92.208 E241.36128
G1 X109.179 Y92.208 E241.37258
G1 X141.576 Y124.605 E242.28689
G1 X141.576 Y125.171 E242.29819
G1 X108.613 Y92.208 E243.22847
G1 X108.048 Y92.208 E243.23975
G1 X141.576 Y125.737 E244.186
G1 X141.576 Y126.302 E244.19727
G1 X107.485 Y92.211 E245.15939
G1 X107.193 Y92.215 E245.16522
G1 X106.941 Y92.233 E245.17026
G1 X141.576 Y126.868 E246.14774
G1 X141.576 Y127.434 E246.15903
G1 X106.412 Y92.27 E247.15144
G1 X105.883 Y92.306 E247.16202
G1 X141.576 Y127.999 E248.16935
G1 X141.576 Y128.565 E248.18065
