;FLAVOR:Marlin
;TIME:7897
;Filament used: 7.05701m
;Layer height: 0.2
;MINX:96.556
;MINY:80.376
;MINZ:0.2
;MAXX:138.444
;MAXY:154.624
;MAXZ:52.2
;Generated with Cura_SteamEngine 5.2.2
M140 S50
M105
M190 S50
M104 S200
M105
M109 S200
M82 ;absolute extrusion mode
; Ender 3 Custom Start G-code
G92 E0 ; Reset Extruder
G28 ; Home all axes
G1 Z2.0 F3000 ; Move Z Axis up little to prevent scratching of Heat Bed
G1 X0.1 Y20 Z0.3 F5000.0 ; Move to start position
G1 X0.1 Y200.0 Z0.3 F1500.0 E15 ; Draw the first line
G1 X0.4 Y200.0 Z0.3 F5000.0 ; Move to side a little
G1 X0.4 Y20 Z0.3 F1500.0 E30 ; Draw the second line
G92 E0 ; Reset Extruder
G1 Z2.0 F3000 ; Move Z Axis up little to prevent scratching of Heat Bed
G1 X5 Y20 Z0.3 F5000.0 ; Move over to prevent blob squish
G92 E0
G92 E0
G1 F2700 E-5
;LAYER_COUNT:261
;LAYER:0
M107
G0 F6000 X99.122 Y84.334 Z0.2
;TYPE:SKIRT
G1 F2700 E0
G1 F1200 X99.754 Y83.64 E0.03122
G1 X100.442 Y83.003 E0.0624
G1 X101.182 Y82.427 E0.09359
G1 X101.968 Y81.915 E0.12479
G1 X102.795 Y81.473 E0.15598
G1 X103.657 Y81.103 E0.18718
G1 X104.547 Y80.807 E0.21838
G1 X105.459 Y80.589 E0.24957
G1 X106.386 Y80.448 E0.28075
G1 X107.257 Y80.389 E0.30979
G1 X107.886 Y80.376 E0.33071
G1 X126.895 Y80.377 E0.96296
G1 X127.593 Y80.387 E0.98617
G1 X128.529 Y80.441 E1.01736
G1 X129.457 Y80.573 E1.04853
G1 X130.371 Y80.785 E1.07974
G1 X131.263 Y81.074 E1.11093
G1 X132.128 Y81.437 E1.14213
G1 X132.958 Y81.873 E1.17331
G1 X133.749 Y82.378 E1.20452
G1 X134.493 Y82.949 E1.23572
G1 X135.186 Y83.581 E1.26691
G1 X135.823 Y84.269 E1.2981
G1 X136.398 Y85.01 E1.32929
G1 X136.909 Y85.796 E1.36047
G1 X137.351 Y86.624 E1.39169
G1 X137.72 Y87.486 E1.42288
G1 X138.015 Y88.376 E1.45406
G1 X138.233 Y89.288 E1.48525
G1 X138.373 Y90.216 E1.51647
G1 X138.431 Y91.077 E1.54517
G1 X138.444 Y91.706 E1.56609
G1 X138.443 Y143.024 E3.27294
G1 X138.434 Y143.751 E3.29712
G1 X138.383 Y144.688 E3.32833
G1 X138.251 Y145.616 E3.3595
G1 X138.042 Y146.53 E3.39069
G1 X137.755 Y147.423 E3.42189
G1 X137.393 Y148.289 E3.4531
G1 X136.959 Y149.12 E3.48429
G1 X136.455 Y149.911 E3.51548
G1 X135.886 Y150.656 E3.54666
G1 X135.255 Y151.351 E3.57788
G1 X134.568 Y151.989 E3.60907
G1 X133.829 Y152.566 E3.64025
G1 X133.043 Y153.078 E3.67145
G1 X132.217 Y153.521 E3.70262
G1 X131.355 Y153.893 E3.73385
G1 X130.466 Y154.189 E3.76501
G1 X129.554 Y154.409 E3.79622
G1 X128.627 Y154.55 E3.8274
G1 X127.743 Y154.611 E3.85688
G1 X127.114 Y154.624 E3.8778
G1 X108.121 Y154.623 E4.50951
G1 X107.423 Y154.614 E4.53273
G1 X106.487 Y154.562 E4.56391
G1 X105.558 Y154.43 E4.59512
G1 X104.644 Y154.22 E4.62631
G1 X103.751 Y153.933 E4.65751
G1 X102.886 Y153.57 E4.68871
G1 X102.055 Y153.136 E4.71989
G1 X101.264 Y152.632 E4.75108
G1 X100.519 Y152.062 E4.78228
G1 X99.825 Y151.431 E4.81348
G1 X99.188 Y150.744 E4.84464
G1 X98.611 Y150.004 E4.87585
G1 X98.099 Y149.218 E4.90705
G1 X97.656 Y148.391 E4.93826
G1 X97.285 Y147.53 E4.96944
G1 X96.989 Y146.64 E5.00063
G1 X96.77 Y145.728 E5.03183
G1 X96.629 Y144.801 E5.06302
G1 X96.569 Y143.912 E5.09265
G1 X96.556 Y143.282 E5.11361
G1 X96.557 Y91.901 E6.82255
G1 X96.566 Y91.236 E6.84467
G1 X96.619 Y90.3 E6.87585
G1 X96.751 Y89.371 E6.90706
G1 X96.962 Y88.457 E6.93826
G1 X97.25 Y87.565 E6.96943
G1 X97.613 Y86.7 E7.00064
G1 X98.048 Y85.869 E7.03183
G1 X98.552 Y85.079 E7.063
G1 X99.122 Y84.334 E7.0942
G0 F6000 X99.517 Y84.487
G1 F1200 X100.145 Y83.815 E7.12479
G1 X100.83 Y83.199 E7.15543
G1 X101.566 Y82.646 E7.18605
G1 X102.347 Y82.158 E7.21668
G1 X103.167 Y81.74 E7.24729
G1 X104.021 Y81.395 E7.27793
G1 X104.901 Y81.125 E7.30854
G1 X105.801 Y80.933 E7.33915
G1 X106.715 Y80.819 E7.36979
G1 X107.268 Y80.789 E7.38821
G1 X107.886 Y80.776 E7.40877
G1 X126.737 Y80.776 E8.03575
G1 X127.587 Y80.787 E8.06403
G1 X128.506 Y80.84 E8.09464
G1 X129.417 Y80.973 E8.12526
G1 X130.313 Y81.184 E8.15588
G1 X131.187 Y81.472 E8.18649
G1 X132.034 Y81.835 E8.21714
G1 X132.845 Y82.27 E8.24775
G1 X133.615 Y82.774 E8.27835
G1 X134.339 Y83.343 E8.30898
G1 X135.011 Y83.973 E8.33962
G1 X135.626 Y84.658 E8.37024
G1 X136.179 Y85.394 E8.40086
G1 X136.666 Y86.175 E8.43147
G1 X137.083 Y86.996 E8.4621
G1 X137.428 Y87.85 E8.49273
G1 X137.697 Y88.73 E8.52334
G1 X137.889 Y89.631 E8.55398
G1 X138.002 Y90.544 E8.58457
G1 X138.031 Y91.088 E8.60269
G1 X138.044 Y91.706 E8.62325
G1 X138.043 Y143.019 E10.32993
G1 X138.034 Y143.746 E10.35411
G1 X137.983 Y144.665 E10.38472
G1 X137.852 Y145.577 E10.41537
G1 X137.642 Y146.473 E10.44598
G1 X137.356 Y147.348 E10.4766
G1 X136.995 Y148.195 E10.50722
G1 X136.561 Y149.007 E10.53784
G1 X136.059 Y149.779 E10.56847
G1 X135.491 Y150.504 E10.5991
G1 X134.863 Y151.177 E10.62972
G1 X134.179 Y151.793 E10.66033
G1 X133.444 Y152.347 E10.69095
G1 X132.664 Y152.836 E10.72157
G1 X131.844 Y153.255 E10.75219
G1 X130.991 Y153.601 E10.78281
G1 X130.111 Y153.872 E10.81344
G1 X129.211 Y154.065 E10.84405
G1 X128.297 Y154.18 E10.87469
G1 X127.732 Y154.211 E10.89351
G1 X127.114 Y154.224 E10.91407
G1 X108.126 Y154.223 E11.54561
G1 X107.428 Y154.214 E11.56883
G1 X106.509 Y154.162 E11.59945
G1 X105.598 Y154.031 E11.63006
G1 X104.702 Y153.821 E11.66067
G1 X103.827 Y153.534 E11.69129
G1 X102.98 Y153.172 E11.72193
G1 X102.168 Y152.738 E11.75255
G1 X101.397 Y152.236 E11.78315
G1 X100.672 Y151.668 E11.81379
G1 X99.999 Y151.039 E11.84442
G1 X99.384 Y150.355 E11.87502
G1 X98.83 Y149.62 E11.90563
G1 X98.342 Y148.839 E11.93626
G1 X97.923 Y148.019 E11.96689
G1 X97.577 Y147.166 E11.9975
G1 X97.307 Y146.286 E12.02812
G1 X97.114 Y145.385 E12.05877
G1 X97 Y144.472 E12.08937
G1 X96.969 Y143.901 E12.10839
G1 X96.956 Y143.282 E12.12898
G1 X96.957 Y91.907 E13.83772
G1 X96.966 Y91.242 E13.85984
G1 X97.018 Y90.322 E13.89049
G1 X97.15 Y89.411 E13.92111
G1 X97.361 Y88.515 E13.95172
G1 X97.648 Y87.64 E13.98235
G1 X98.011 Y86.794 E14.01297
G1 X98.445 Y85.982 E14.04359
G1 X98.948 Y85.211 E14.07421
G1 X99.517 Y84.487 E14.10484
G0 F6000 X99.911 Y84.643
G1 F1200 X100.537 Y83.993 E14.13485
G1 X101.218 Y83.4 E14.16489
G1 X101.95 Y82.87 E14.19494
G1 X102.725 Y82.407 E14.22497
G1 X103.538 Y82.014 E14.255
G1 X104.383 Y81.694 E14.28506
G1 X105.252 Y81.451 E14.31507
G1 X106.14 Y81.285 E14.34512
G1 X107.279 Y81.189 E14.38313
G1 X107.886 Y81.176 E14.40333
G1 X126.737 Y81.176 E15.03031
G1 X127.581 Y81.187 E15.05839
G1 X128.483 Y81.24 E15.08844
G1 X129.376 Y81.372 E15.11846
G1 X130.254 Y81.583 E15.1485
G1 X131.11 Y81.871 E15.17854
G1 X131.937 Y82.233 E15.20856
G1 X132.729 Y82.668 E15.23862
G1 X133.48 Y83.17 E15.26866
G1 X134.183 Y83.737 E15.2987
G1 X134.833 Y84.364 E15.32874
G1 X135.425 Y85.046 E15.35878
G1 X135.955 Y85.777 E15.38881
G1 X136.417 Y86.553 E15.41884
G1 X136.81 Y87.366 E15.44888
G1 X137.128 Y88.211 E15.47891
G1 X137.371 Y89.081 E15.50895
G1 X137.536 Y89.969 E15.53899
G1 X137.631 Y91.099 E15.57671
G1 X137.644 Y91.706 E15.5969
G1 X137.643 Y143.014 E17.30341
G1 X137.634 Y143.741 E17.32759
G1 X137.583 Y144.643 E17.35764
G1 X137.452 Y145.537 E17.3877
G1 X137.243 Y146.415 E17.41771
G1 X136.957 Y147.272 E17.44776
G1 X136.596 Y148.1 E17.47781
G1 X136.164 Y148.892 E17.50781
G1 X135.663 Y149.644 E17.53787
G1 X135.097 Y150.348 E17.56791
G1 X134.472 Y150.999 E17.59793
G1 X133.791 Y151.593 E17.62798
G1 X133.06 Y152.124 E17.65803
G1 X132.286 Y152.588 E17.68805
G1 X131.473 Y152.982 E17.7181
G1 X130.629 Y153.302 E17.74812
G1 X129.759 Y153.547 E17.77818
G1 X128.872 Y153.713 E17.80819
G1 X127.721 Y153.811 E17.84661
G1 X127.114 Y153.824 E17.86681
G1 X108.131 Y153.823 E18.49818
G1 X107.433 Y153.814 E18.5214
G1 X106.532 Y153.763 E18.55142
G1 X105.638 Y153.631 E18.58147
G1 X104.76 Y153.422 E18.61149
G1 X103.903 Y153.135 E18.64155
G1 X103.076 Y152.774 E18.67157
G1 X102.283 Y152.341 E18.70162
G1 X101.532 Y151.84 E18.73164
G1 X100.828 Y151.274 E18.76169
G1 X100.177 Y150.648 E18.79173
G1 X99.584 Y149.967 E18.82176
G1 X99.054 Y149.236 E18.85179
G1 X98.59 Y148.461 E18.88183
G1 X98.196 Y147.648 E18.91188
G1 X97.876 Y146.804 E18.9419
G1 X97.632 Y145.934 E18.97196
G1 X97.466 Y145.046 E19.002
G1 X97.369 Y143.891 E19.04055
G1 X97.356 Y143.282 E19.06081
G1 X97.357 Y91.912 E20.76939
G1 X97.366 Y91.247 E20.79151
G1 X97.418 Y90.345 E20.82156
G1 X97.55 Y89.452 E20.85158
G1 X97.76 Y88.574 E20.88161
G1 X98.047 Y87.717 E20.91167
G1 X98.409 Y86.89 E20.94169
G1 X98.842 Y86.098 E20.97172
G1 X99.344 Y85.347 E21.00176
G1 X99.911 Y84.643 E21.03183
G1 F2700 E16.03183
;MESH:block1.stl
G0 F6000 X106.891 Y91.796
G0 X108.156 Y143.024
;TYPE:WALL-INNER
G1 F2700 E21.03183
G1 F1200 X126.844 Y143.024 E21.65339
G1 X126.844 Y101.32 E23.04047
G1 X126.844 Y91.976 E23.35125
G1 X108.156 Y91.976 E23.97282
G1 X108.156 Y143.024 E25.67068
G0 F6000 X107.756 Y143.424
;TYPE:WALL-OUTER
G1 F1200 X127.244 Y143.424 E26.31886
G1 X127.244 Y101.32 E27.71924
G1 X127.244 Y91.576 E28.04333
G1 X107.756 Y91.576 E28.6915
G1 X107.756 Y143.424 E30.41597
G0 F6000 X108.026 Y143.154
G0 X108.256 Y142.664
G0 X108.516 Y142.664
;TYPE:SKIN
G1 F1200 X126.484 Y142.664 E31.01359
G1 X126.484 Y101.32 E32.3887
G1 X126.484 Y92.336 E32.68751
G1 X108.516 Y92.336 E33.28513
G1 X108.516 Y142.664 E34.95904
G0 F6000 X109.087 Y142.462
G1 F1200 X108.715 Y142.09 E34.97654
G0 F6000 X108.715 Y141.525
G1 F1200 X109.653 Y142.462 E35.02064
G0 F6000 X110.218 Y142.462
G1 F1200 X108.715 Y140.959 E35.09133
G0 F6000 X108.715 Y140.393
G1 F1200 X110.784 Y142.462 E35.18865
G0 F6000 X111.35 Y142.462
G1 F1200 X108.715 Y139.828 E35.31257
G0 F6000 X108.715 Y139.262
G1 F1200 X111.915 Y142.462 E35.46309
G0 F6000 X112.481 Y142.462
G1 F1200 X108.715 Y138.696 E35.64023
G0 F6000 X108.715 Y138.131
G1 F1200 X113.047 Y142.462 E35.84397
G0 F6000 X113.612 Y142.462
G1 F1200 X108.715 Y137.565 E36.07431
G0 F6000 X108.715 Y136.999
G1 F1200 X114.178 Y142.462 E36.33127
G0 F6000 X114.744 Y142.462
G1 F1200 X108.715 Y136.434 E36.61484
G0 F6000 X108.715 Y135.868
G1 F1200 X115.31 Y142.462 E36.92502
G0 F6000 X115.875 Y142.462
G1 F1200 X108.715 Y135.302 E37.26181
G0 F6000 X108.715 Y134.737
G1 F1200 X116.441 Y142.462 E37.62519
G0 F6000 X117.007 Y142.462
G1 F1200 X108.715 Y134.171 E38.0152
G0 F6000 X108.715 Y133.605
G1 F1200 X117.572 Y142.462 E38.4318
G0 F6000 X118.138 Y142.462
G1 F1200 X108.715 Y133.04 E38.87501
G0 F6000 X108.715 Y132.474
G1 F1200 X118.704 Y142.462 E39.34484
G0 F6000 X119.269 Y142.462
G1 F1200 X108.715 Y131.908 E39.84126
G0 F6000 X108.715 Y131.342
G1 F1200 X119.835 Y142.462 E40.36431
G0 F6000 X120.401 Y142.462
G1 F1200 X108.715 Y130.777 E40.91396
G0 F6000 X108.715 Y130.211
G1 F1200 X120.966 Y142.462 E41.49021
G0 F6000 X121.532 Y142.462
G1 F1200 X108.715 Y129.645 E42.09309
G0 F6000 X108.715 Y129.08
G1 F1200 X122.098 Y142.462 E42.72256
G0 F6000 X122.663 Y142.462
G1 F1200 X108.715 Y128.514 E43.37863
G0 F6000 X108.715 Y127.948
G1 F1200 X123.229 Y142.462 E44.06132
G0 F6000 X123.795 Y142.462
G1 F1200 X108.715 Y127.383 E44.77062
G0 F6000 X108.715 Y126.817
G1 F1200 X124.36 Y142.462 E45.50651
G0 F6000 X124.926 Y142.462
G1 F1200 X108.715 Y126.251 E46.26903
G0 F6000 X108.715 Y125.686
G1 F1200 X125.492 Y142.462 E47.05814
G0 F6000 X126.058 Y142.462
G1 F1200 X108.715 Y125.12 E47.87388
G0 F6000 X108.715 Y124.554
G1 F1200 X126.284 Y142.123 E48.70027
G0 F6000 X126.284 Y141.557
G1 F1200 X108.715 Y123.989 E49.52664
G0 F6000 X108.715 Y123.423
G1 F1200 X126.284 Y140.992 E50.35303
G0 F6000 X126.284 Y140.426
G1 F1200 X108.715 Y122.857 E51.17942
G0 F6000 X108.715 Y122.291
G1 F1200 X126.284 Y139.86 E52.00581
G0 F6000 X126.284 Y139.295
G1 F1200 X108.715 Y121.726 E52.83221
G0 F6000 X108.715 Y121.16
G1 F1200 X126.284 Y138.729 E53.6586
G0 F6000 X126.284 Y138.163
G1 F1200 X108.715 Y120.594 E54.48499
G0 F6000 X108.715 Y120.029
G1 F1200 X126.284 Y137.598 E55.31138
G0 F6000 X126.284 Y137.032
G1 F1200 X108.715 Y119.463 E56.13777
G0 F6000 X108.715 Y118.897
G1 F1200 X126.284 Y136.466 E56.96417
G0 F6000 X126.284 Y135.9
G1 F1200 X108.715 Y118.332 E57.79053
G0 F6000 X108.715 Y117.766
G1 F1200 X126.284 Y135.335 E58.61693
G0 F6000 X126.284 Y134.769
G1 F1200 X108.714 Y117.2 E59.44334
G0 F6000 X108.714 Y116.634
G1 F1200 X126.284 Y134.203 E60.26976
G0 F6000 X126.284 Y133.638
G1 F1200 X108.714 Y116.068 E61.0962
G0 F6000 X108.714 Y115.503
G1 F1200 X126.284 Y133.072 E61.92261
G0 F6000 X126.284 Y132.506
G1 F1200 X108.714 Y114.937 E62.74903
G0 F6000 X108.714 Y114.371
G1 F1200 X126.284 Y131.941 E63.57547
G0 F6000 X126.284 Y131.375
G1 F1200 X108.714 Y113.806 E64.40188
G0 F6000 X108.714 Y113.24
G1 F1200 X126.284 Y130.809 E65.2283
G0 F6000 X126.284 Y130.244
G1 F1200 X108.714 Y112.674 E66.05474
G0 F6000 X108.714 Y112.108
G1 F1200 X126.284 Y129.678 E66.88117
G0 F6000 X126.284 Y129.112
G1 F1200 X108.714 Y111.543 E67.70759
G0 F6000 X108.714 Y110.977
G1 F1200 X126.284 Y128.547 E68.53403
G0 F6000 X126.284 Y127.981
G1 F1200 X108.714 Y110.411 E69.36047
G0 F6000 X108.714 Y109.846
G1 F1200 X126.284 Y127.415 E70.18688
G0 F6000 X126.284 Y126.85
G1 F1200 X108.714 Y109.28 E71.01332
G0 F6000 X108.714 Y108.714
G1 F1200 X126.284 Y126.284 E71.83976
G0 F6000 X126.284 Y125.718
G1 F1200 X108.714 Y108.149 E72.66618
G0 F6000 X108.714 Y107.583
G1 F1200 X126.284 Y125.152 E73.49259
G0 F6000 X126.284 Y124.587
G1 F1200 X108.714 Y107.017 E74.31903
G0 F6000 X108.714 Y106.452
G1 F1200 X126.284 Y124.021 E75.14545
G0 F6000 X126.284 Y123.455
G1 F1200 X108.714 Y105.886 E75.97186
G0 F6000 X108.714 Y105.32
G1 F1200 X126.284 Y122.89 E76.7983
G0 F6000 X126.284 Y122.324
G1 F1200 X108.714 Y104.755 E77.62472
G0 F6000 X108.714 Y104.189
G1 F1200 X126.284 Y121.758 E78.45113
G0 F6000 X126.284 Y121.193
G1 F1200 X108.714 Y103.623 E79.27757
G0 F6000 X108.714 Y103.057
G1 F1200 X126.284 Y120.627 E80.10401
G0 F6000 X126.284 Y120.061
G1 F1200 X108.714 Y102.492 E80.93042
G0 F6000 X108.714 Y101.926
G1 F1200 X126.284 Y119.496 E81.75686
G0 F6000 X126.284 Y118.93
G1 F1200 X108.714 Y101.36 E82.5833
G0 F6000 X108.714 Y100.795
G1 F1200 X126.284 Y118.364 E83.40972
G0 F6000 X126.284 Y117.799
G1 F1200 X108.714 Y100.229 E84.23616
G0 F6000 X108.714 Y99.663
G1 F1200 X126.284 Y117.233 E85.0626
G0 F6000 X126.284 Y116.667
G1 F1200 X108.714 Y99.098 E85.88901
G0 F6000 X108.714 Y98.532
G1 F1200 X126.284 Y116.101 E86.71543
G0 F6000 X126.284 Y115.536
G1 F1200 X108.714 Y97.966 E87.54187
G0 F6000 X108.714 Y97.401
G1 F1200 X126.284 Y114.97 E88.36828
G0 F6000 X126.284 Y114.404
G1 F1200 X108.714 Y96.835 E89.1947
G0 F6000 X108.714 Y96.269
G1 F1200 X126.284 Y113.839 E90.02114
G0 F6000 X126.284 Y113.273
G1 F1200 X108.714 Y95.704 E90.84755
G0 F6000 X108.714 Y95.138
G1 F1200 X126.284 Y112.707 E91.67397
G0 F6000 X126.284 Y112.142
G1 F1200 X108.714 Y94.572 E92.5004
G0 F6000 X108.714 Y94.007
G1 F1200 X126.284 Y111.576 E93.32682
G0 F6000 X126.284 Y111.01
G1 F1200 X108.714 Y93.441 E94.15324
G0 F6000 X108.714 Y92.875
G1 F1200 X126.284 Y110.445 E94.97967
G0 F6000 X126.284 Y109.879
G1 F1200 X108.941 Y92.536 E95.79544
G0 F6000 X109.506 Y92.536
G1 F1200 X126.284 Y109.313 E96.5846
G0 F6000 X126.284 Y108.748
G1 F1200 X110.072 Y92.536 E97.34716
G0 F6000 X110.638 Y92.536
G1 F1200 X126.284 Y108.182 E98.0831
G0 F6000 X126.284 Y107.616
G1 F1200 X111.203 Y92.536 E98.79244
G0 F6000 X111.769 Y92.536
G1 F1200 X126.284 Y107.051 E99.47518
G0 F6000 X126.284 Y106.485
G1 F1200 X112.335 Y92.536 E100.1313
G0 F6000 X112.9 Y92.536
G1 F1200 X126.284 Y105.919 E100.76082
G0 F6000 X126.284 Y105.353
G1 F1200 X113.466 Y92.536 E101.36372
G0 F6000 X114.032 Y92.536
G1 F1200 X126.284 Y104.788 E101.94001
G0 F6000 X126.284 Y104.222
G1 F1200 X114.597 Y92.536 E102.48971
G0 F6000 X115.163 Y92.536
G1 F1200 X126.284 Y103.656 E103.01278
G0 F6000 X126.284 Y103.091
G1 F1200 X115.729 Y92.536 E103.50926
G0 F6000 X116.295 Y92.536
G1 F1200 X126.284 Y102.525 E103.97911
G0 F6000 X126.284 Y101.959
