;FLAVOR:Marlin
;TIME:3046
;Filament used: 2.25938m
;Layer height: 0.16
;MINX:83.194
;MINY:75.074
;MINZ:0.24
;MAXX:152.868
;MAXY:159.916
;MAXZ:6.35
;Generated with Cura_SteamEngine 5.2.2
M140 S50
M105
M190 S50
M104 S200
M105
M109 S200
M82 ;absolute extrusion mode
; Ender 3 Custom Start G-code
G92 E0 ; Reset Extruder
G28 ; Home all axes
;G29 ; Auto Bed Level
G1 Z2.0 F3000 ; Move Z Axis up little to prevent scratching of Heat Bed
G1 X0.1 Y20 Z0.3 F5000.0 ; Move to start position
G1 X0.1 Y200.0 Z0.3 F1500.0 E15 ; Draw the first line
G1 X0.4 Y200.0 Z0.3 F5000.0 ; Move to side a little
G1 X0.4 Y20 Z0.3 F1500.0 E30 ; Draw the second line
G92 E0 ; Reset Extruder
G1 Z2.0 F3000 ; Move Z Axis up little to prevent scratching of Heat Bed
G1 X5 Y20 Z0.3 F5000.0 ; Move over to prevent blob squish
M141 S28
G92 E0
G92 E0
G1 F2700 E-5
;LAYER_COUNT:28
;LAYER:-6
M107
G0 F9000 X86.24 Y81.813 Z0.24
;TYPE:SUPPORT-INTERFACE
G1 F2700 E0
G1 F1125 X85.602 Y82.705 E0.08754
G1 X85.023 Y83.669 E0.17731
G1 X84.571 Y84.549 E0.25628
G1 X84.153 Y85.534 E0.34169
G1 X83.813 Y86.538 E0.4263
G1 X83.529 Y87.642 E0.5173
G1 X83.366 Y88.524 E0.5889
G1 X83.241 Y89.598 E0.67521
G1 X83.194 Y90.748 E0.76708
G1 X83.194 Y117.541 E2.90581
G1 X83.201 Y117.938 E2.93751
G1 X83.28 Y119.083 E3.02913
G1 X83.426 Y120.068 E3.10861
G1 X83.671 Y121.188 E3.20013
G1 X84.009 Y122.292 E3.29229
G1 X84.393 Y123.279 E3.37683
G1 X84.779 Y124.1 E3.44925
G1 X85.332 Y125.098 E3.54033
G1 X85.923 Y125.99 E3.62574
G1 X86.582 Y126.845 E3.71191
G1 X87.347 Y127.687 E3.80272
G1 X87.998 Y128.314 E3.87487
G1 X88.87 Y129.047 E3.9658
G1 X89.752 Y129.676 E4.05228
G1 X90.724 Y130.261 E4.14283
G1 X91.591 Y130.708 E4.2207
G1 X92.499 Y131.094 E4.29946
G1 X93.584 Y131.469 E4.39109
G1 X94.696 Y131.755 E4.48275
G1 X95.661 Y131.934 E4.56109
G1 X96.653 Y132.043 E4.64075
G1 X97.787 Y132.09 E4.73135
G1 X99.094 Y132.092 E4.83568
G1 X100.019 Y132.176 E4.90982
G1 X100.691 Y132.341 E4.96506
G1 X101.291 Y132.576 E5.0165
G1 X101.932 Y132.919 E5.07453
G1 X102.472 Y133.306 E5.12756
G1 X102.957 Y133.754 E5.18026
G1 X103.404 Y134.284 E5.23561
G1 X103.79 Y134.888 E5.29283
G1 X104.074 Y135.49 E5.34596
G1 X104.287 Y136.136 E5.40026
G1 X104.414 Y136.799 E5.45414
G1 X104.458 Y137.464 E5.50734
G1 X104.459 Y144.153 E6.04129
G1 X104.546 Y145.84 E6.17613
G1 X104.69 Y146.828 E6.25583
G1 X104.935 Y147.942 E6.34688
G1 X105.273 Y149.049 E6.43927
G1 X105.585 Y149.865 E6.50901
G1 X106.067 Y150.913 E6.60109
G1 X106.587 Y151.842 E6.68607
G1 X107.18 Y152.74 E6.77197
G1 X107.835 Y153.588 E6.8575
G1 X108.548 Y154.384 E6.94281
G1 X109.313 Y155.121 E7.0276
G1 X110.141 Y155.809 E7.11353
G1 X111.007 Y156.428 E7.19851
G1 X111.91 Y156.98 E7.28299
G1 X112.931 Y157.499 E7.37441
G1 X113.772 Y157.857 E7.44738
G1 X114.844 Y158.227 E7.5379
G1 X115.964 Y158.514 E7.63019
G1 X116.924 Y158.692 E7.70813
G1 X117.993 Y158.81 E7.79398
G1 X119.119 Y158.85 E7.88392
G1 X137.137 Y158.86 E9.3222
G1 X137.784 Y158.847 E9.37385
G1 X138.796 Y158.773 E9.45485
G1 X139.78 Y158.629 E9.53423
G1 X140.822 Y158.401 E9.61938
G1 X141.909 Y158.082 E9.70981
G1 X142.906 Y157.7 E9.79503
G1 X143.876 Y157.247 E9.88049
G1 X144.8 Y156.728 E9.96509
G1 X145.64 Y156.174 E10.04541
G1 X146.463 Y155.545 E10.12809
G1 X147.331 Y154.775 E10.22072
G1 X148.077 Y154.004 E10.30635
G1 X148.797 Y153.128 E10.39687
G1 X149.378 Y152.32 E10.47631
G1 X149.929 Y151.418 E10.56068
G1 X150.415 Y150.473 E10.64551
G1 X150.805 Y149.56 E10.72476
G1 X151.175 Y148.499 E10.81445
G1 X151.452 Y147.442 E10.90168
G1 X151.646 Y146.4 E10.98628
G1 X151.764 Y145.326 E11.07253
G1 X151.804 Y144.2 E11.16247
G1 X151.806 Y139.755 E11.51729
G1 X151.792 Y138.913 E11.58451
G1 X151.719 Y137.9 E11.66558
G1 X151.575 Y136.932 E11.7437
G1 X151.33 Y135.801 E11.83608
G1 X151.056 Y134.889 E11.91209
G1 X150.847 Y134.322 E11.96033
G1 X150.667 Y133.765 E12.00705
G1 X150.536 Y133.076 E12.06304
G1 X150.496 Y132.382 E12.11853
G1 X150.538 Y131.738 E12.17004
G1 X150.678 Y131.021 E12.22836
G1 X150.793 Y130.698 E12.25573
G1 X150.783 Y130.68 E12.25737
G1 X151.139 Y129.632 E12.34572
G1 X151.424 Y128.521 E12.43728
G1 X151.602 Y127.552 E12.51592
G1 X151.719 Y126.485 E12.60161
G1 X151.759 Y125.417 E12.68692
G1 X151.755 Y120.536 E13.07654
G1 X151.679 Y119.091 E13.19205
G1 X151.514 Y117.955 E13.28368
G1 X151.284 Y116.918 E13.36847
G1 X151.004 Y115.965 E13.44776
G1 X150.601 Y114.907 E13.53813
G1 X150.145 Y113.931 E13.62412
G1 X149.678 Y113.087 E13.70112
G1 X149.138 Y112.255 E13.78029
G1 X148.438 Y111.325 E13.87321
G1 X147.689 Y110.487 E13.96293
G1 X146.909 Y109.731 E14.04964
G1 X146.1 Y109.056 E14.13374
G1 X145.296 Y108.474 E14.21297
G1 X144.456 Y107.954 E14.29183
G1 X143.454 Y107.422 E14.38239
G1 X142.466 Y106.993 E14.46837
G1 X141.439 Y106.64 E14.55506
G1 X140.806 Y106.395 E14.60924
G1 X140.188 Y106.062 E14.66528
G1 X139.644 Y105.673 E14.71866
G1 X139.157 Y105.223 E14.77159
G1 X138.712 Y104.695 E14.82671
G1 X138.326 Y104.091 E14.88393
G1 X138.04 Y103.483 E14.93756
G1 X137.824 Y102.824 E14.99292
G1 X137.698 Y102.143 E15.0482
G1 X137.658 Y101.514 E15.09851
G1 X137.657 Y90.687 E15.96277
G1 X137.65 Y90.291 E15.99439
G1 X137.569 Y89.131 E16.08721
G1 X137.425 Y88.162 E16.16541
G1 X137.179 Y87.036 E16.25741
G1 X136.874 Y86.018 E16.34224
G1 X136.458 Y84.951 E16.43366
G1 X136.072 Y84.13 E16.50608
G1 X135.557 Y83.2 E16.59093
G1 X134.936 Y82.254 E16.68127
G1 X134.266 Y81.383 E16.76898
G1 X133.502 Y80.543 E16.85962
G1 X132.853 Y79.916 E16.93165
G1 X131.984 Y79.186 E17.02225
G1 X131.106 Y78.557 E17.10846
G1 X130.128 Y77.969 E17.19956
G1 X129.248 Y77.517 E17.27853
G1 X128.263 Y77.099 E17.36394
G1 X127.259 Y76.759 E17.44855
G1 X126.155 Y76.475 E17.53955
G1 X125.273 Y76.312 E17.61115
G1 X124.199 Y76.187 E17.69746
G1 X123.067 Y76.14 E17.7879
G1 X97.741 Y76.14 E19.80953
G1 X97.347 Y76.147 E19.84098
G1 X96.19 Y76.228 E19.93357
G1 X95.215 Y76.372 E20.01224
G1 X94.09 Y76.618 E20.10416
G1 X93.082 Y76.921 E20.18818
G1 X92.005 Y77.339 E20.2804
G1 X91.184 Y77.725 E20.35282
G1 X90.254 Y78.24 E20.43768
G1 X89.306 Y78.863 E20.52823
G1 X88.437 Y79.531 E20.61572
G1 X87.597 Y80.295 E20.70636
G1 X86.97 Y80.944 E20.77839
G1 X86.24 Y81.813 E20.86899
G0 F9000 X86.568 Y82.042
G1 F1125 X151.189 Y146.663 E28.16397
G0 F9000 X150.753 Y148.491
G1 F1125 X85.655 Y83.392 E35.51285
G0 F9000 X84.868 Y84.868
G1 F1125 X150.127 Y150.127 E42.87985
G0 F9000 X149.344 Y151.607
G1 F1125 X84.245 Y86.508 E50.22879
G0 F9000 X83.808 Y88.333
G1 F1125 X148.425 Y152.95 E57.52331
G0 F9000 X147.37 Y154.158
G1 F1125 X83.608 Y90.396 E64.72132
G0 F9000 X83.594 Y92.645
G1 F1125 X146.194 Y155.245 E71.78815
G0 F9000 X144.88 Y156.194
G1 F1125 X83.594 Y94.907 E78.70669
G0 F9000 X83.594 Y97.17
G1 F1125 X143.434 Y157.01 E85.46195
G0 F9000 X141.839 Y157.679
G1 F1125 X83.594 Y99.433 E92.03721
G0 F9000 X83.594 Y101.696
G1 F1125 X140.055 Y158.157 E98.41101
G0 F9000 X138.059 Y158.424
G1 F1125 X83.594 Y103.958 E104.55955
G0 F9000 X83.594 Y106.221
G1 F1125 X135.83 Y158.457 E110.4564
G0 F9000 X133.566 Y158.456
G1 F1125 X83.594 Y108.484 E116.09767
G0 F9000 X83.594 Y110.747
G1 F1125 X131.302 Y158.455 E121.48336
G0 F9000 X129.038 Y158.454
G1 F1125 X83.594 Y113.009 E126.61353
G0 F9000 X83.594 Y115.272
G1 F1125 X100.106 Y131.784 E128.47755
G0 F9000 X97.746 Y131.687
G1 F1125 X83.594 Y117.535 E130.07515
G0 F9000 X83.827 Y120.031
G1 F1125 X95.245 Y131.449 E131.36411
G0 F9000 X91.964 Y130.431
G1 F1125 X84.855 Y123.322 E132.16664
G1 F2700 E127.16664
G0 F9000 X83.827 Y124.577
G0 X84.474 Y125.731
G0 X85.694 Y127.435
G0 X86.59 Y128.436
G0 X88.145 Y129.829
G0 X89.25 Y130.617
G0 X91.044 Y131.623
G0 X91.402 Y131.774
G0 X103.254 Y136.405
G0 X104.75 Y136.428
G1 F2700 E132.16664
G1 F1125 X126.774 Y158.452 E134.65289
G0 F9000 X124.51 Y158.452
G1 F1125 X104.857 Y138.798 E136.87155
G0 F9000 X104.858 Y141.062
G1 F1125 X122.246 Y158.45 E138.83446
G0 F9000 X119.982 Y158.449
G1 F1125 X104.858 Y143.325 E140.54179
G0 F9000 X104.938 Y145.667
G1 F1125 X117.637 Y158.367 E141.97542
G0 F9000 X114.793 Y157.785
G1 F1125 X105.529 Y148.521 E143.02122
G1 F2700 E138.02122
G0 F9000 X104.27 Y149.406
G0 X105.071 Y151.294
G0 X105.745 Y152.497
G0 X106.424 Y153.447
G0 X107.088 Y154.35
G0 X108.714 Y153.968
G1 F2700 E143.02122
G1 F1125 X109.227 Y154.482 E143.07919
G1 F2700 E138.07919
G0 F9000 X108.523 Y155.839
G0 X109.571 Y156.711
G0 X111.305 Y157.859
G0 X112.49 Y158.468
G0 X114.437 Y159.215
G0 X115.745 Y159.556
G0 X117.804 Y159.86
G0 X119.104 Y159.914
G0 X137.843 Y159.91
G0 X139.963 Y159.679
G0 X141.261 Y159.388
G0 X143.222 Y158.72
G0 X144.475 Y158.133
G0 X146.248 Y157.048
G0 X147.313 Y156.222
G0 X148.793 Y154.796
G0 X149.648 Y153.77
G0 X150.806 Y152.024
G0 X151.427 Y150.817
G0 X152.163 Y148.898
G0 X152.513 Y147.564
G0 X152.756 Y145.905
G0 X152.856 Y144.654
G0 X151.388 Y144.6
G1 F2700 E143.07919
G1 F1125 X87.626 Y80.838 E150.27719
G0 F9000 X88.804 Y79.753
G1 F1125 X151.404 Y142.353 E157.34402
G0 F9000 X151.404 Y140.091
G1 F1125 X90.12 Y78.807 E164.26229
G0 F9000 X91.564 Y77.988
G1 F1125 X151.285 Y137.709 E171.00411
G0 F9000 X150.571 Y134.732
G1 F1125 X93.159 Y77.32 E177.48527
G0 F9000 X94.943 Y76.841
G1 F1125 X150.119 Y132.017 E183.71402
G0 F9000 X150.533 Y130.169
G1 F1125 X96.941 Y76.576 E189.764
G0 F9000 X99.167 Y76.54
G1 F1125 X151.037 Y128.409 E195.61948
G0 F9000 X151.32 Y126.43
G1 F1125 X101.43 Y76.54 E201.25149
G0 F9000 X103.692 Y76.54
G1 F1125 X151.357 Y124.204 E206.63227
G0 F9000 X151.355 Y121.939
G1 F1125 X105.955 Y76.54 E211.75736
G0 F9000 X108.218 Y76.54
G1 F1125 X151.306 Y119.628 E216.62151
G0 F9000 X150.869 Y116.927
G1 F1125 X140.74 Y106.799 E217.7649
G0 F9000 X137.752 Y103.811
G1 F1125 X110.481 Y76.54 E220.84349
G0 F9000 X112.743 Y76.54
G1 F1125 X137.257 Y101.054 E223.61084
G0 F9000 X137.257 Y98.791
G1 F1125 X115.006 Y76.54 E226.12272
G0 F9000 X117.269 Y76.54
G1 F1125 X137.257 Y96.528 E228.37914
G0 F9000 X137.257 Y94.265
G1 F1125 X119.532 Y76.54 E230.38009
G0 F9000 X121.794 Y76.54
G1 F1125 X137.257 Y92.003 E232.12569
G0 F9000 X137.206 Y89.689
G1 F1125 X124.101 Y76.583 E233.60515
G0 F9000 X126.847 Y77.066
G1 F1125 X136.736 Y86.956 E234.72156
G1 F2700 E229.72156
G0 F9000 X137.914 Y85.781
G0 X137.433 Y84.522
G0 X137.293 Y84.228
G0 X136.377 Y82.499
G0 X134.763 Y82.72
G1 F2700 E234.72156
G1 F1125 X131.059 Y79.016 E235.1397
G1 F2700 E230.1397
G0 F9000 X132.539 Y78.273
G0 X133.572 Y79.131
G0 X135.026 Y80.636
G0 X135.854 Y81.711
G0 X136.936 Y83.482
G0 X137.45 Y84.578
G0 X145.681 Y107.459
G0 X144.909 Y108.705
G1 F2700 E235.1397
G1 F1125 X149.032 Y112.828 E235.60514
G1 F2700 E230.60514
G0 F300 X149.032 Y112.828 Z0.48
G0 F9000 X150.515 Y112.42
G0 X151.178 Y113.614
G0 X151.979 Y115.535
G0 X152.358 Y116.821
G0 X152.723 Y118.87
G0 X152.822 Y120.646
G0 X152.865 Y144.367
G0 X152.711 Y146.454
G0 X152.462 Y147.791
G0 X151.867 Y149.763
G0 X151.332 Y151.018
G0 X150.325 Y152.812
G0 X148.83 Y152.397
;TIME_ELAPSED:173.495112
;LAYER:-5
;TYPE:SUPPORT
G1 F2700 E235.60514
G1 F1125 X145.329 Y155.897 E236.00031
G1 X145.421 Y155.837 E236.00908
G1 X146.278 Y155.182 E236.09518
G1 X147.069 Y154.473 E236.17997
G1 X147.819 Y153.686 E236.26675
G1 X148.481 Y152.884 E236.34976
G1 X149.041 Y152.102 E236.42654
G1 X149.541 Y151.284 E236.50307
G1 X150.05 Y150.311 E236.59072
G1 X150.45 Y149.362 E236.67293
G1 X142.319 Y157.493 E237.59083
G1 X141.718 Y157.72 E237.64211
G1 X140.719 Y158.015 E237.72526
G1 X140.289 Y158.109 E237.7604
G1 X151.064 Y147.334 E238.97677
G1 X151.248 Y146.349 E239.05676
G1 X151.323 Y145.661 E239.112
G1 X138.599 Y158.385 E240.5484
G1 X137.77 Y158.446 E240.61475
G1 X137.11 Y158.459 E240.66744
G1 X151.402 Y144.167 E242.28085
G1 X151.403 Y142.752 E242.3938
G1 X135.697 Y158.459 E244.16689
G1 X134.283 Y158.458 E244.27976
G1 X151.404 Y141.337 E246.21252
G1 X151.405 Y139.922 E246.32548
G1 X132.87 Y158.457 E248.41787
G1 X131.456 Y158.456 E248.53074
G1 X151.361 Y138.551 E250.77779
G1 X151.32 Y137.957 E250.82532
G1 X151.22 Y137.279 E250.88002
G1 X130.043 Y158.456 E253.27066
G1 X128.63 Y158.454 E253.38346
G1 X150.997 Y136.087 E255.90844
G1 X150.669 Y135.001 E255.99899
G1 X127.216 Y158.454 E258.64657
G1 X125.803 Y158.453 E258.75936
G1 X150.297 Y133.959 E261.52446
G1 X150.138 Y133.138 E261.59121
G1 X150.113 Y132.729 E261.62392
G1 X124.389 Y158.452 E264.52781
G1 X122.976 Y158.452 E264.6406
G1 X150.161 Y131.26 E267.70987
G1 X150.764 Y129.488 E267.85929
G1 X150.846 Y129.167 E267.88574
G1 X121.562 Y158.451 E271.19157
G1 X120.15 Y158.449 E271.30428
G1 X151.219 Y127.381 E274.81156
G1 X151.322 Y126.375 E274.89228
G1 X151.341 Y125.844 E274.9347
G1 X118.75 Y158.435 E278.61385
G1 X118.009 Y158.409 E278.67304
G1 X117.428 Y158.343 E278.71971
G1 X151.357 Y124.414 E282.54991
G1 X151.356 Y123 E282.66278
G1 X116.195 Y158.161 E286.63206
G1 X115.069 Y157.873 E286.72484
G1 X151.356 Y121.586 E290.82123
G1 X151.356 Y120.672 E290.89419
G1 X151.332 Y120.196 E290.93223
G1 X114.008 Y157.52 E295.14569
G1 X113.014 Y157.1 E295.23182
G1 X151.242 Y118.872 E299.54733
G1 X151.12 Y118.033 E299.61501
G1 X151.038 Y117.662 E299.64534
G1 X112.084 Y156.615 E304.04274
G1 X111.206 Y156.079 E304.12486
G1 X150.753 Y116.533 E308.58921
G1 X150.624 Y116.096 E308.62558
G1 X150.391 Y115.481 E308.67808
G1 X110.381 Y155.49 E313.1947
G1 X109.611 Y154.846 E313.27482
G1 X149.966 Y114.491 E317.83045
G1 X149.786 Y114.107 E317.8643
G1 X149.483 Y113.559 E317.91428
G1 X108.887 Y154.156 E322.49717
G1 X108.217 Y153.412 E322.57709
G1 X148.954 Y112.675 E327.17583
G1 X148.346 Y111.868 E327.25649
G1 X107.584 Y152.63 E331.85805
G1 X107.026 Y151.774 E331.93962
G1 X147.7 Y111.1 E336.53125
G1 X147.402 Y110.766 E336.56698
G1 X147.006 Y110.38 E336.61113
G1 X106.497 Y150.889 E341.18413
G1 X106.048 Y149.924 E341.26909
G1 X146.262 Y109.71 E345.8088
G1 X145.957 Y109.453 E345.84063
G1 X145.465 Y109.093 E345.8893
G1 X105.642 Y148.916 E350.38486
G1 X105.32 Y147.823 E350.47582
G1 X144.618 Y108.526 E354.91206
G1 X144.133 Y108.229 E354.95746
G1 X143.716 Y108.013 E354.99494
G1 X105.07 Y146.659 E359.35764
G1 X104.943 Y145.787 E359.42798
G1 X104.922 Y145.393 E359.45948
G1 X142.757 Y107.558 E363.73062
G1 X142.25 Y107.341 E363.77464
G1 X141.736 Y107.164 E363.81803
G1 X104.858 Y144.043 E367.9812
G1 X104.858 Y142.629 E368.09407
G1 X140.695 Y106.791 E372.13972
G1 X139.983 Y106.408 E372.20425
G1 X139.798 Y106.274 E372.22249
G1 X104.858 Y141.214 E376.16681
G1 X104.858 Y139.8 E376.27969
G1 X139.019 Y105.639 E380.13608
G1 X138.848 Y105.481 E380.15466
G1 X138.357 Y104.887 E380.21618
G1 X104.858 Y138.386 E383.99783
G1 X104.858 Y137.464 E384.07143
G1 X104.829 Y137.001 E384.10846
G1 X137.837 Y103.993 E387.83469
G1 X137.668 Y103.637 E387.86615
G1 X137.448 Y102.967 E387.92244
G1 X104.602 Y135.813 E391.63038
G1 X104.446 Y135.34 E391.67014
G1 X104.194 Y134.807 E391.7172
G1 X137.257 Y101.744 E395.44964
G1 X137.257 Y100.33 E395.56251
G1 X103.642 Y133.945 E399.35726
G1 X103.267 Y133.497 E399.4039
G1 X102.96 Y133.213 E399.43728
G1 X137.257 Y98.916 E403.30902
G1 X137.257 Y97.502 E403.42189
G1 X102.168 Y132.59 E407.38299
G1 X101.488 Y132.221 E407.44474
G1 X101.224 Y132.12 E407.46731
G1 X137.257 Y96.088 E411.53497
G1 X137.257 Y94.673 E411.64792
G1 X100.147 Y131.783 E415.83722
G1 X99.093 Y131.69 E415.92168
G1 X98.826 Y131.69 E415.94299
G1 X137.257 Y93.259 E420.28141
G1 X137.257 Y91.845 E420.39429
G1 X97.428 Y131.674 E424.89053
G1 X96.687 Y131.644 E424.94973
G1 X96.11 Y131.577 E424.99609
G1 X137.258 Y90.429 E429.64124
G1 X137.16 Y89.113 E429.74658
G1 X94.882 Y131.391 E434.51928
G1 X93.757 Y131.102 E434.612
G1 X136.962 Y87.897 E439.48935
G1 X136.815 Y87.234 E439.54356
G1 X136.677 Y86.768 E439.58236
G1 X92.704 Y130.741 E444.54641
