;FLAVOR:Marlin
;TIME:1673
;Filament used: 0.454483m
;Layer height: 0.12
;MINX:98.701
;MINY:98.701
;MINZ:0.144
;MAXX:135.235
;MAXY:136.299
;MAXZ:64.194
;Generated with Cura_SteamEngine 5.2.2
M140 S50
M105
M190 S50
M104 S200
M105
M109 S200
M82 ;absolute extrusion mode
; Ender 3 Custom Start G-code
G92 E0 ; Reset Extruder
G28 ; Home all axes
G29 ; Auto Bed Level
G1 Z2.0 F3000 ; Move Z Axis up little to prevent scratching of Heat Bed
G1 X0.1 Y20 Z0.3 F5000.0 ; Move to start position
G1 X0.1 Y200.0 Z0.3 F1500.0 E15 ; Draw the first line
G1 X0.4 Y200.0 Z0.3 F5000.0 ; Move to side a little
G1 X0.4 Y20 Z0.3 F1500.0 E30 ; Draw the second line
G92 E0 ; Reset Extruder
G1 Z2.0 F3000 ; Move Z Axis up little to prevent scratching of Heat Bed
G1 X5 Y20 Z0.3 F5000.0 ; Move over to prevent blob squish
M141 S28
G92 E0
G92 E0
G1 F2700 E-5
;LAYER_COUNT:529
;LAYER:-6
M107
G0 F9000 X104.203 Y105.746 Z0.144
;TYPE:SUPPORT-INTERFACE
G1 F2700 E0
G1 F1125 X103.295 Y106.856 E0.06868
G1 X103.128 Y107.086 E0.0823
G1 X102.369 Y108.221 E0.14769
G1 X102.222 Y108.464 E0.16129
G1 X101.554 Y109.707 E0.22888
G1 X101.426 Y109.968 E0.2428
G1 X100.855 Y111.336 E0.3138
G1 X100.726 Y111.7 E0.3323
G1 X100.298 Y113.124 E0.40351
G1 X100.231 Y113.401 E0.41716
G1 X99.951 Y114.835 E0.48714
G1 X99.912 Y115.128 E0.5013
G1 X99.776 Y116.533 E0.5689
G1 X99.765 Y116.793 E0.58137
G1 X99.765 Y118.208 E0.64914
G1 X99.776 Y118.466 E0.66151
G1 X99.912 Y119.871 E0.72911
G1 X99.951 Y120.164 E0.74327
G1 X100.254 Y121.697 E0.81811
G1 X100.332 Y121.998 E0.833
G1 X100.722 Y123.288 E0.89755
G1 X100.81 Y123.545 E0.91056
G1 X101.426 Y125.03 E0.98756
G1 X101.555 Y125.294 E1.00163
G1 X102.265 Y126.619 E1.07363
G1 X103.127 Y127.911 E1.14802
G1 X103.364 Y128.231 E1.16709
G1 X104.189 Y129.238 E1.22944
G1 X104.401 Y129.478 E1.24478
G1 X105.52 Y130.597 E1.32057
G1 X105.761 Y130.809 E1.33594
G1 X106.856 Y131.705 E1.40371
G1 X107.086 Y131.872 E1.41732
G1 X108.22 Y132.629 E1.48262
G1 X108.464 Y132.778 E1.49632
G1 X109.707 Y133.446 E1.5639
G1 X109.968 Y133.574 E1.57782
G1 X111.336 Y134.145 E1.64882
G1 X111.7 Y134.274 E1.66732
G1 X113.124 Y134.702 E1.73853
G1 X113.401 Y134.768 E1.75217
G1 X114.835 Y135.049 E1.82216
G1 X115.128 Y135.088 E1.83632
G1 X116.533 Y135.224 E1.90392
G1 X116.793 Y135.235 E1.91639
G1 X118.206 Y135.235 E1.98406
G1 X118.466 Y135.224 E1.99653
G1 X119.871 Y135.088 E2.06413
G1 X120.164 Y135.049 E2.07829
G1 X121.685 Y134.75 E2.15253
G1 X121.999 Y134.669 E2.16806
G1 X123.302 Y134.275 E2.23326
G1 X123.544 Y134.19 E2.24554
G1 X124.931 Y133.618 E2.3174
G1 X125.181 Y133.502 E2.3306
G1 X126.435 Y132.835 E2.39863
G1 X126.687 Y132.689 E2.41258
G1 X127.914 Y131.873 E2.48315
G1 X128.232 Y131.638 E2.50209
G1 X129.239 Y130.811 E2.5645
G1 X129.477 Y130.6 E2.57973
G1 X130.599 Y129.478 E2.65573
G1 X130.81 Y129.239 E2.671
G1 X131.639 Y128.228 E2.73362
G1 X131.798 Y128.019 E2.7462
G1 X132.63 Y126.78 E2.81768
G1 X132.837 Y126.431 E2.83711
G1 X133.446 Y125.293 E2.89893
G1 X133.574 Y125.032 E2.91285
G1 X134.139 Y123.678 E2.98312
G1 X134.274 Y123.299 E3.00239
G1 X134.668 Y121.998 E3.06749
G1 X134.746 Y121.698 E3.08234
G1 X135.049 Y120.163 E3.15728
G1 X135.088 Y119.871 E3.17139
G1 X135.224 Y118.465 E3.23904
G1 X135.235 Y118.207 E3.25141
G1 X135.233 Y116.897 E3.31415
G1 X135.232 Y116.67 E3.32502
G1 X135.209 Y116.336 E3.34106
G1 X135.088 Y115.13 E3.39911
G1 X135.049 Y114.836 E3.41331
G1 X134.729 Y113.214 E3.49249
G1 X134.276 Y111.7 E3.56818
G1 X134.191 Y111.456 E3.58056
G1 X133.573 Y109.969 E3.65768
G1 X133.447 Y109.708 E3.67156
G1 X132.74 Y108.392 E3.74311
G1 X131.873 Y107.088 E3.81811
G1 X131.638 Y106.768 E3.83713
G1 X130.799 Y105.746 E3.90046
G1 X130.538 Y105.455 E3.91918
G1 X129.481 Y104.401 E3.99067
G1 X129.239 Y104.191 E4.00602
G1 X128.228 Y103.362 E4.06864
G1 X128.018 Y103.202 E4.08128
G1 X126.778 Y102.369 E4.15283
G1 X126.535 Y102.222 E4.16643
G1 X125.295 Y101.555 E4.23387
G1 X124.929 Y101.381 E4.25327
G1 X123.676 Y100.86 E4.31827
G1 X123.367 Y100.746 E4.33404
G1 X122.001 Y100.332 E4.4024
G1 X121.598 Y100.231 E4.4223
G1 X120.166 Y99.951 E4.49219
G1 X119.872 Y99.912 E4.50639
G1 X118.467 Y99.776 E4.574
G1 X118.207 Y99.765 E4.58646
G1 X116.794 Y99.765 E4.65414
G1 X116.534 Y99.776 E4.6666
G1 X115.129 Y99.912 E4.73421
G1 X114.836 Y99.951 E4.74836
G1 X113.303 Y100.254 E4.82321
G1 X113.002 Y100.332 E4.8381
G1 X111.712 Y100.722 E4.90264
G1 X111.455 Y100.81 E4.91566
G1 X109.97 Y101.426 E4.99266
G1 X109.705 Y101.555 E5.00677
G1 X108.381 Y102.265 E5.07873
G1 X107.089 Y103.127 E5.15311
G1 X106.769 Y103.364 E5.17219
G1 X105.76 Y104.192 E5.2347
G1 X105.522 Y104.401 E5.24987
G1 X104.402 Y105.521 E5.32573
G1 X104.203 Y105.746 E5.34012
G0 F9000 X104.162 Y106.425
G1 F1125 X128.574 Y130.837 E6.99362
G0 F9000 X129.755 Y129.755
G1 F1125 X105.244 Y105.244 E8.65383
G0 F9000 X106.425 Y104.163
G1 F1125 X130.837 Y128.574 E10.3073
G0 F9000 X131.809 Y127.284
G1 F1125 X107.715 Y103.19 E11.93926
G0 F9000 X109.113 Y102.325
G1 F1125 X132.674 Y125.886 E13.53512
G0 F9000 X133.417 Y124.366
G1 F1125 X110.634 Y101.583 E15.07829
G0 F9000 X112.281 Y100.967
G1 F1125 X134.032 Y122.718 E16.55155
G0 F9000 X134.492 Y120.915
G1 F1125 X114.083 Y100.507 E17.93388
G0 F9000 X116.063 Y100.223
G1 F1125 X134.775 Y118.936 E19.20134
G0 F9000 X134.831 Y116.729
G1 F1125 X118.267 Y100.165 E20.32327
G0 F9000 X120.86 Y100.495
G1 F1125 X134.503 Y114.138 E21.24736
G0 F9000 X133.525 Y110.897
G1 F1125 X124.095 Y101.467 E21.88608
G1 F2700 E16.88608
G0 F9000 X124.069 Y99.87
G0 X121.818 Y99.189
G0 X119.991 Y98.854
G0 X118.222 Y98.701
G0 X116.26 Y98.729
G0 X114.501 Y98.929
G0 X112.708 Y99.307
G0 X110.931 Y99.87
G0 X109.219 Y100.607
G0 X107.644 Y101.475
G0 X106.107 Y102.528
G0 X104.715 Y103.698
G0 X103.642 Y104.799
G0 X102.252 Y106.481
G0 X103.188 Y107.713
G1 F2700 E21.88608
G1 F1125 X127.284 Y131.809 E23.51818
G0 F9000 X125.884 Y132.673
G1 F1125 X102.325 Y109.113 E25.11394
G0 F9000 X101.581 Y110.632
G1 F1125 X124.365 Y133.416 E26.65717
G0 F9000 X122.719 Y134.032
G1 F1125 X100.967 Y112.281 E28.13047
G0 F9000 X100.505 Y114.081
G1 F1125 X120.915 Y134.492 E29.51294
G0 F9000 X118.936 Y134.775
G1 F1125 X100.222 Y116.061 E30.7805
G0 F9000 X100.165 Y118.267
G1 F1125 X116.732 Y134.833 E31.9026
G0 F9000 X114.139 Y134.504
G1 F1125 X100.496 Y120.86 E32.82672
G0 F9000 X101.473 Y124.1
G1 F1125 X110.901 Y133.529 E33.46534
G1 F2700 E28.46534
G0 F300 X110.901 Y133.529 Z0.324
G0 F9000 X110.931 Y135.13
G0 X113.182 Y135.811
G0 X115.009 Y136.146
G0 X116.778 Y136.299
G0 X118.74 Y136.271
G0 X120.499 Y136.071
G0 X122.292 Y135.693
G0 X124.069 Y135.13
G0 X125.781 Y134.393
G0 X127.356 Y133.525
G0 X128.893 Y132.472
G0 X130.285 Y131.302
G0 X131.624 Y129.925
G0 X132.533 Y128.787
G0 X133.525 Y127.356
G0 X132.381 Y126.419
;TIME_ELAPSED:46.072414
;LAYER:-5
;TYPE:SUPPORT
G1 F2700 E33.46534
G1 F1125 X126.422 Y132.378 E33.96987
G1 X127.822 Y131.451 E34.07039
G1 X128.991 Y130.495 E34.1608
G1 X129.205 Y130.308 E34.17782
G1 X130.31 Y129.203 E34.27137
G1 X130.503 Y128.983 E34.28889
G1 X131.318 Y127.989 E34.36585
G1 X131.473 Y127.784 E34.38123
G1 X132.297 Y126.555 E34.46982
G1 X132.431 Y126.338 E34.48509
G1 X133.089 Y125.111 E34.56844
G1 X133.212 Y124.858 E34.58528
G1 X133.703 Y123.682 E34.66158
G1 X123.671 Y133.715 E35.511
G1 X123.178 Y133.894 E35.5424
G1 X121.607 Y134.365 E35.64059
G1 X134.354 Y121.618 E36.71983
G1 X134.628 Y120.248 E36.80347
G1 X134.682 Y119.875 E36.82604
G1 X119.872 Y134.685 E38.07995
G1 X118.309 Y134.834 E38.17395
G1 X134.828 Y118.315 E39.57255
G1 X134.833 Y116.896 E39.6575
G1 X116.895 Y134.834 E41.17625
G1 X116.558 Y134.824 E41.19644
G1 X115.584 Y134.731 E41.25501
G1 X134.73 Y115.585 E42.87604
G1 X134.689 Y115.16 E42.9016
G1 X134.654 Y114.903 E42.91713
G1 X134.546 Y114.354 E42.95063
G1 X114.351 Y134.549 E44.66046
G1 X113.486 Y134.378 E44.71325
G1 X113.183 Y134.303 E44.73194
G1 X134.302 Y113.184 E46.52001
G1 X133.976 Y112.096 E46.58801
G1 X112.095 Y133.977 E48.4406
G1 X111.821 Y133.894 E48.45774
G1 X111.456 Y133.761 E48.48099
G1 X111.061 Y133.597 E48.5066
G1 X133.596 Y111.062 E50.41456
G1 X133.182 Y110.062 E50.47935
G1 X110.061 Y133.183 E52.43693
G1 X109.141 Y132.689 E52.49945
G1 X132.688 Y109.141 E54.49313
G1 X132.399 Y108.599 E54.5299
G1 X132.166 Y108.25 E54.55503
G1 X108.248 Y132.167 E56.58004
G1 X107.402 Y131.599 E56.64104
G1 X131.601 Y107.401 E58.68984
G1 X131.453 Y107.179 E58.70582
G1 X130.983 Y106.604 E58.75028
G1 X106.603 Y130.984 E60.81445
G1 X105.826 Y130.346 E60.87464
G1 X130.34 Y105.832 E62.95015
G1 X129.636 Y105.122 E63.01001
G1 X105.122 Y129.636 E65.08552
G1 X104.688 Y129.202 E65.12227
G1 X104.436 Y128.908 E65.14545
G1 X128.909 Y104.436 E67.21745
G1 X128.132 Y103.798 E67.27764
G1 X103.8 Y128.13 E69.33775
G1 X103.545 Y127.818 E69.36187
G1 X103.207 Y127.309 E69.39845
G1 X127.309 Y103.207 E71.43908
G1 X126.459 Y102.642 E71.50019
G1 X102.642 Y126.459 E73.51669
G1 X102.511 Y126.231 E73.53243
G1 X102.143 Y125.544 E73.57909
G1 X125.546 Y102.142 E75.5605
G1 X125.111 Y101.909 E75.59004
G1 X124.861 Y101.788 E75.60667
G1 X124.596 Y101.677 E75.62387
G1 X101.677 Y124.597 E77.56438
G1 X101.262 Y123.597 E77.6292
G1 X123.599 Y101.26 E79.5204
G1 X123.177 Y101.104 E79.54733
G1 X122.534 Y100.911 E79.58752
G1 X100.911 Y122.534 E81.41827
G1 X100.711 Y121.874 E81.45955
G1 X100.597 Y121.434 E81.48677
G1 X121.427 Y100.603 E83.25041
G1 X120.247 Y100.37 E83.32242
G1 X100.365 Y120.251 E85.00572
G1 X100.308 Y119.83 E85.03115
G1 X100.226 Y118.976 E85.08251
G1 X118.977 Y100.226 E86.67005
G1 X118.441 Y100.175 E86.70229
G1 X118.189 Y100.165 E86.71738
G1 X117.624 Y100.164 E86.75121
G1 X100.166 Y117.622 E88.22932
G1 X100.168 Y116.677 E88.28589
G1 X100.209 Y116.164 E88.3167
G1 X116.162 Y100.211 E89.66739
G1 X115.16 Y100.31 E89.72767
G1 X114.911 Y100.344 E89.74271
G1 X114.544 Y100.415 E89.76509
G1 X100.411 Y114.549 E90.96173
G1 X100.64 Y113.392 E91.03234
G1 X100.71 Y113.124 E91.04892
G1 X100.836 Y112.709 E91.07489
G1 X112.707 Y100.839 E92.07992
G1 X111.821 Y101.104 E92.13528
G1 X111.472 Y101.232 E92.15754
G1 X110.495 Y101.636 E92.22083
G1 X101.64 Y110.491 E92.97056
G1 X101.786 Y110.14 E92.99332
G1 X101.909 Y109.887 E93.01016
G1 X102.567 Y108.661 E93.09346
G1 X102.701 Y108.443 E93.10878
G1 X103.525 Y107.215 E93.19731
G1 X103.68 Y107.01 E93.2127
G1 X104.499 Y106.012 E93.28999
G1 X104.698 Y105.787 E93.30797
G1 X105.796 Y104.689 E93.40094
G1 X106.008 Y104.503 E93.41782
G0 F9000 X107.141 Y103.576
G1 F1125 X103.596 Y107.121 E93.71797
G1 F2700 E88.71797
G0 F300 X103.596 Y107.121 Z0.444
G0 F9000 X102.252 Y106.481
G0 X101.23 Y108.053
G0 X100.405 Y109.647
G0 X99.71 Y111.374
G0 X99.189 Y113.182
G0 X98.854 Y115.009
G0 X98.701 Y116.778
G0 X98.729 Y118.74
G0 X98.929 Y120.499
G0 X99.307 Y122.292
G0 X99.87 Y124.069
G0 X100.607 Y125.781
G0 X101.309 Y127.056
G0 X102.448 Y128.79
G0 X103.772 Y128.097
;TIME_ELAPSED:101.764690
;LAYER:-4
;TYPE:SUPPORT-INTERFACE
G1 F2700 E93.71797
G1 F1500 X106.915 Y131.24 E93.80667
G1 F2700 E88.80667
G0 F9000 X105.986 Y132.372
G0 X104.958 Y131.506
G0 X103.497 Y130.068
G0 X104.496 Y128.981
G1 F2700 E93.80667
G1 F1500 X104.688 Y129.202 E93.81251
G1 X105.794 Y130.308 E93.84372
G1 X106.01 Y130.497 E93.84945
G1 X107.01 Y131.318 E93.87527
G1 X107.216 Y131.474 E93.88043
G1 X108.444 Y132.297 E93.90993
G1 X108.683 Y132.442 E93.91551
G1 X102.563 Y126.321 E94.08824
G1 X101.901 Y125.094 E94.11606
G1 X109.904 Y133.097 E94.34193
G1 X110.137 Y133.21 E94.34709
G1 X110.902 Y133.53 E94.36364
G1 X101.468 Y124.095 E94.6299
G1 X101.232 Y123.525 E94.64222
G1 X101.1 Y123.161 E94.64994
G1 X111.837 Y133.899 E94.95298
G1 X112.645 Y134.141 E94.96981
G1 X100.854 Y122.35 E95.30258
G1 X100.711 Y121.874 E95.3125
G1 X100.633 Y121.563 E95.31889
G1 X113.436 Y134.366 E95.68022
G1 X114.143 Y134.507 E95.69461
G1 X100.495 Y120.86 E96.07977
G1 X100.356 Y120.155 E96.09411
G1 X114.842 Y134.641 E96.50294
G1 X115.177 Y134.691 E96.5097
G1 X115.488 Y134.721 E96.51593
G1 X100.277 Y119.51 E96.94522
G1 X100.216 Y118.884 E96.95777
G1 X116.113 Y134.78 E97.4064
G1 X116.74 Y134.842 E97.41898
G1 X100.165 Y118.267 E97.88676
G1 X100.165 Y117.702 E97.89804
G1 X117.297 Y134.833 E98.38152
G1 X117.863 Y134.833 E98.39282
G1 X100.166 Y117.137 E98.89225
G1 X100.174 Y116.579 E98.90339
G1 X118.422 Y134.826 E99.41837
G1 X118.937 Y134.776 E99.4287
G1 X100.219 Y116.058 E99.95696
G1 X100.27 Y115.544 E99.96727
G1 X119.452 Y134.726 E100.50863
G1 X119.964 Y134.672 E100.5189
G1 X100.328 Y115.036 E101.07307
G1 X100.4 Y114.543 E101.08301
G1 X120.442 Y134.585 E101.64864
G1 X120.916 Y134.493 E101.65828
G1 X100.503 Y114.08 E102.23438
G1 X100.597 Y113.608 E102.24398
G1 X121.396 Y134.407 E102.83097
G1 X121.847 Y134.293 E102.84026
G1 X100.703 Y113.148 E103.437
G1 X100.834 Y112.713 E103.44607
G1 X122.283 Y134.162 E104.0514
G1 X122.718 Y134.032 E104.06046
G1 X100.965 Y112.279 E104.67438
G1 X101.097 Y111.845 E104.68343
G1 X123.153 Y133.901 E105.3059
G1 X123.568 Y133.75 E105.31471
G1 X101.247 Y111.43 E105.94465
G1 X101.413 Y111.03 E105.95329
G1 X123.967 Y133.584 E106.58981
G1 X124.367 Y133.418 E106.59845
G1 X101.58 Y110.631 E107.24155
G1 X101.747 Y110.232 E107.25018
G1 X124.767 Y133.252 E107.89986
G1 X125.148 Y133.068 E107.9083
G1 X101.929 Y109.849 E108.56359
G1 X102.127 Y109.481 E108.57193
G1 X125.517 Y132.871 E109.23205
G1 X125.885 Y132.673 E109.24039
G1 X102.324 Y109.112 E109.90533
G1 X102.522 Y108.745 E109.91365
G1 X126.253 Y132.475 E110.58338
G1 X126.611 Y132.268 E110.59163
G1 X102.735 Y108.392 E111.26546
G1 X102.962 Y108.053 E111.2736
G1 X126.944 Y132.035 E111.95043
G1 X127.284 Y131.809 E111.95858
G1 X103.189 Y107.714 E112.63859
G1 X103.416 Y107.376 E112.64671
G1 X127.623 Y131.583 E113.32989
G1 X127.951 Y131.345 E113.33797
G1 X103.652 Y107.046 E114.02374
G1 X103.905 Y106.734 E114.03176
G1 X128.262 Y131.091 E114.71917
G1 X128.573 Y130.836 E114.72719
G1 X104.161 Y106.423 E115.41617
G1 X104.415 Y106.112 E115.42418
G1 X128.885 Y130.582 E116.11478
G1 X129.189 Y130.321 E116.12277
G1 X104.677 Y105.809 E116.81455
G1 X104.96 Y105.525 E116.82256
G1 X129.474 Y130.039 E117.51439
G1 X129.756 Y129.756 E117.52237
G1 X105.242 Y105.242 E118.2142
G1 X105.525 Y104.96 E118.22218
G1 X130.039 Y129.474 E118.91401
G1 X130.321 Y129.19 E118.922
G1 X105.81 Y104.678 E119.61377
G1 X106.114 Y104.417 E119.62177
G1 X130.583 Y128.886 E120.31233
G1 X130.838 Y128.575 E120.32036
G1 X106.425 Y104.162 E121.00935
G1 X106.736 Y103.907 E121.01737
G1 X131.093 Y128.264 E121.70478
G1 X131.346 Y127.952 E121.7128
G1 X107.047 Y103.653 E122.39857
G1 X107.375 Y103.415 E122.40665
G1 X131.582 Y127.622 E123.08983
G1 X131.809 Y127.284 E123.09795
G1 X107.714 Y103.189 E123.77797
G1 X108.055 Y102.963 E123.78613
G1 X132.036 Y126.945 E124.46294
G1 X132.263 Y126.606 E124.47108
G1 X108.387 Y102.73 E125.14491
G1 X108.745 Y102.523 E125.15317
G1 X132.477 Y126.254 E125.82292
G1 X132.674 Y125.886 E125.83125
G1 X109.113 Y102.325 E126.49619
G1 X109.482 Y102.128 E126.50454
G1 X132.872 Y125.518 E127.16466
G1 X133.069 Y125.15 E127.17299
G1 X109.85 Y101.93 E127.82829
G1 X110.231 Y101.746 E127.83673
G1 X133.251 Y124.766 E128.48641
G1 X133.418 Y124.367 E128.49504
G1 X110.631 Y101.58 E129.13814
G1 X111.032 Y101.415 E129.14679
G1 X133.585 Y123.968 E129.78329
G1 X133.752 Y123.569 E129.79192
G1 X111.432 Y101.249 E130.42184
G1 X111.845 Y101.097 E130.43062
G1 X133.901 Y123.153 E131.05309
G1 X134.033 Y122.719 E131.06214
G1 X112.281 Y100.967 E131.67603
G1 X112.716 Y100.836 E131.68509
G1 X134.165 Y122.285 E132.29043
G1 X134.295 Y121.85 E132.29949
G1 X113.151 Y100.706 E132.89622
G1 X113.609 Y100.598 E132.90561
G1 X134.401 Y121.391 E133.49242
G1 X134.495 Y120.918 E133.50204
