;FLAVOR:Marlin
;TIME:1147
;Filament used: 0.770803m
;Layer height: 0.2
;MINX:89.267
;MINY:97.517
;MINZ:0.2
;MAXX:145.534
;MAXY:137.497
;MAXZ:15
;Generated with Cura_SteamEngine 5.2.2
M140 S50
M105
M190 S50
M104 S200
M105
M109 S200
M82 ;absolute extrusion mode
; Ender 3 Custom Start G-code
G92 E0 ; Reset Extruder
G28 ; Home all axes
G1 Z2.0 F3000 ; Move Z Axis up little to prevent scratching of Heat Bed
G1 X0.1 Y20 Z0.3 F5000.0 ; Move to start position
G1 X0.1 Y200.0 Z0.3 F1500.0 E15 ; Draw the first line
G1 X0.4 Y200.0 Z0.3 F5000.0 ; Move to side a little
G1 X0.4 Y20 Z0.3 F1500.0 E30 ; Draw the second line
G92 E0 ; Reset Extruder
G1 Z2.0 F3000 ; Move Z Axis up little to prevent scratching of Heat Bed
G1 X5 Y20 Z0.3 F5000.0 ; Move over to prevent blob squish
G92 E0
G92 E0
G1 F2700 E-5
;LAYER_COUNT:75
;LAYER:0
M107
G0 F6000 X95.597 Y102.908 Z0.2
;TYPE:SKIRT
G1 F2700 E0
G1 F1200 X96.309 Y102.274 E0.03171
G1 X96.801 Y101.873 E0.05282
G1 X97.166 Y101.589 E0.0682
G1 X97.645 Y101.231 E0.08809
G1 X98.432 Y100.694 E0.11978
G1 X99.014 Y100.333 E0.14256
G1 X99.858 Y99.86 E0.17474
G1 X100.643 Y99.464 E0.20398
G1 X101.286 Y99.165 E0.22757
G1 X101.563 Y99.047 E0.23758
G1 X102.218 Y98.792 E0.26096
G1 X103.004 Y98.515 E0.28868
G1 X103.699 Y98.296 E0.31291
G1 X103.953 Y98.225 E0.32169
G1 X104.619 Y98.061 E0.3445
G1 X105.58 Y97.856 E0.37718
G1 X106.466 Y97.705 E0.40707
G1 X107.205 Y97.622 E0.43181
G1 X107.854 Y97.57 E0.45346
G1 X108.319 Y97.543 E0.46895
G1 X109.01 Y97.517 E0.49195
G1 X109.85 Y97.517 E0.51989
G1 X110.237 Y97.532 E0.53277
G1 X110.784 Y97.567 E0.551
G1 X111.5 Y97.642 E0.57495
G1 X112.298 Y97.75 E0.60173
G1 X113.234 Y97.919 E0.63337
G1 X114.093 Y98.112 E0.66265
G1 X114.869 Y98.316 E0.68934
G1 X115.681 Y98.58 E0.71774
G1 X116.293 Y98.804 E0.73941
G1 X116.726 Y98.973 E0.75487
G1 X117.377 Y99.243 E0.77831
G1 X118.151 Y99.6 E0.80666
G1 X118.495 Y99.775 E0.8195
G1 X119.139 Y100.128 E0.84392
G1 X119.597 Y100.403 E0.86169
G1 X120.74 Y101.13 E0.90675
G1 X121.545 Y101.668 E0.93895
G1 X123.673 Y103.018 E1.02277
G1 X125.853 Y104.314 E1.10712
G1 X128.018 Y105.52 E1.18955
G1 X130.271 Y106.693 E1.27403
G1 X132.505 Y107.778 E1.35663
G1 X134.825 Y108.822 E1.44125
G1 X136.647 Y109.583 E1.50692
G1 X136.757 Y109.635 E1.51097
G1 X138.704 Y110.433 E1.58096
G1 X139.555 Y110.826 E1.61213
G1 X140.371 Y111.29 E1.64335
G1 X141.143 Y111.821 E1.67452
G1 X141.868 Y112.416 E1.70571
G1 X142.539 Y113.071 E1.7369
G1 X143.153 Y113.781 E1.76812
G1 X143.703 Y114.54 E1.7993
G1 X144.187 Y115.344 E1.83051
G1 X144.6 Y116.185 E1.86167
G1 X144.941 Y117.059 E1.89288
G1 X145.206 Y117.959 E1.92408
G1 X145.393 Y118.878 E1.95527
G1 X145.501 Y119.81 E1.98648
G1 X145.53 Y120.541 E2.01081
G1 X145.534 Y121.172 E2.0318
G1 X145.5 Y122.11 E2.06302
G1 X145.319 Y123.407 E2.10657
G1 X145.262 Y123.691 E2.11621
G1 X145.038 Y124.601 E2.14738
G1 X144.738 Y125.49 E2.17858
G1 X144.363 Y126.35 E2.20979
G1 X144.019 Y126.999 E2.23422
G1 X143.555 Y127.808 E2.26524
G1 X141.259 Y131.638 E2.41376
G1 X140.883 Y132.248 E2.4376
G1 X140.357 Y133.025 E2.4688
G1 X139.767 Y133.754 E2.5
G1 X139.117 Y134.43 E2.53119
G1 X138.412 Y135.048 E2.56237
G1 X137.657 Y135.604 E2.59356
G1 X136.857 Y136.094 E2.62476
G1 X136.018 Y136.514 E2.65596
G1 X135.147 Y136.86 E2.68714
G1 X134.249 Y137.132 E2.71834
G1 X133.332 Y137.326 E2.74952
G1 X132.401 Y137.441 E2.78072
G1 X131.741 Y137.474 E2.8027
G1 X130.748 Y137.494 E2.83573
G1 X109.5 Y137.497 E3.54244
G1 X109.046 Y137.488 E3.55755
G1 X108.026 Y137.446 E3.5915
G1 X107.048 Y137.362 E3.62415
G1 X106.278 Y137.261 E3.64998
G1 X105.365 Y137.101 E3.68081
G1 X104.503 Y136.913 E3.71015
G1 X103.654 Y136.692 E3.73933
G1 X103.265 Y136.574 E3.75285
G1 X102.593 Y136.349 E3.77642
G1 X102.089 Y136.157 E3.79436
G1 X101.33 Y135.846 E3.82164
G1 X100.479 Y135.454 E3.8528
G1 X99.604 Y135.005 E3.88551
G1 X98.789 Y134.541 E3.91671
G1 X98.376 Y134.27 E3.93314
G1 X97.594 Y133.73 E3.96474
G1 X96.846 Y133.165 E3.99592
G1 X96.236 Y132.662 E4.02222
G1 X95.533 Y132.029 E4.05368
G1 X94.967 Y131.474 E4.08005
G1 X94.31 Y130.771 E4.11205
G1 X93.83 Y130.21 E4.13661
G1 X93.247 Y129.466 E4.16805
G1 X92.711 Y128.718 E4.19865
G1 X92.23 Y127.987 E4.22776
G1 X91.801 Y127.257 E4.25592
G1 X91.4 Y126.502 E4.28435
G1 X91.225 Y126.146 E4.29755
G1 X90.898 Y125.425 E4.32388
G1 X90.664 Y124.847 E4.34462
G1 X90.37 Y124.057 E4.37265
G1 X90.115 Y123.287 E4.39963
G1 X89.876 Y122.426 E4.42935
G1 X89.762 Y121.959 E4.44534
G1 X89.567 Y120.963 E4.4791
G1 X89.43 Y120.039 E4.51017
G1 X89.332 Y119.106 E4.54137
G1 X89.285 Y118.347 E4.56666
G1 X89.267 Y117.41 E4.59783
G1 X89.287 Y116.553 E4.62634
G1 X89.339 Y115.715 E4.65427
G1 X89.366 Y115.445 E4.66329
G1 X89.441 Y114.856 E4.68304
G1 X89.562 Y114.075 E4.70933
G1 X89.749 Y113.139 E4.74107
G1 X89.941 Y112.356 E4.76789
G1 X90.205 Y111.45 E4.79928
G1 X90.448 Y110.732 E4.82449
G1 X90.799 Y109.828 E4.85674
G1 X91.162 Y109.003 E4.88672
G1 X91.548 Y108.212 E4.91599
G1 X91.923 Y107.544 E4.94147
G1 X92.455 Y106.679 E4.97525
G1 X92.801 Y106.154 E4.99616
G1 X93.368 Y105.371 E5.02832
G1 X93.84 Y104.776 E5.05358
G1 X94.47 Y104.049 E5.08557
G1 X94.862 Y103.635 E5.10453
G1 X95.188 Y103.305 E5.11996
G1 X95.597 Y102.908 E5.13892
G0 F6000 X95.876 Y103.195
G1 F1200 X96.562 Y102.584 E5.16948
G1 X97.054 Y102.183 E5.19059
G1 X97.405 Y101.909 E5.2054
G1 X97.884 Y101.551 E5.22529
G1 X98.643 Y101.034 E5.25583
G1 X99.225 Y100.673 E5.27861
G1 X100.038 Y100.217 E5.30961
G1 X100.823 Y99.821 E5.33886
G1 X101.443 Y99.533 E5.36159
G1 X101.72 Y99.415 E5.37161
G1 X102.351 Y99.17 E5.39412
G1 X103.137 Y98.893 E5.42184
G1 X103.806 Y98.681 E5.44518
G1 X104.06 Y98.61 E5.45395
G1 X104.703 Y98.452 E5.47598
G1 X105.664 Y98.247 E5.50866
G1 X106.517 Y98.101 E5.53744
G1 X107.237 Y98.021 E5.56154
G1 X107.886 Y97.969 E5.58319
G1 X108.334 Y97.942 E5.59812
G1 X109.025 Y97.916 E5.62112
G1 X109.835 Y97.917 E5.64806
G1 X110.222 Y97.932 E5.66094
G1 X110.748 Y97.966 E5.67847
G1 X111.447 Y98.039 E5.70185
G1 X112.245 Y98.147 E5.72863
G1 X113.147 Y98.309 E5.75911
G1 X114.006 Y98.502 E5.78839
G1 X114.753 Y98.699 E5.81409
G1 X115.543 Y98.956 E5.84172
G1 X116.155 Y99.18 E5.86339
G1 X116.573 Y99.343 E5.87832
G1 X117.224 Y99.613 E5.90176
G1 X117.969 Y99.956 E5.92904
G1 X118.313 Y100.131 E5.94187
G1 X118.941 Y100.476 E5.96571
G1 X119.382 Y100.741 E5.98282
G1 X120.525 Y101.468 E6.02787
G1 X121.312 Y101.995 E6.05937
G1 X123.476 Y103.366 E6.14458
G1 X125.618 Y104.64 E6.22747
G1 X127.832 Y105.874 E6.31177
G1 X130.105 Y107.057 E6.397
G1 X132.346 Y108.144 E6.47984
G1 X134.655 Y109.185 E6.56408
G1 X136.493 Y109.952 E6.63033
G1 X136.62 Y110.012 E6.635
G1 X138.552 Y110.804 E6.70445
G1 X139.388 Y111.19 E6.73507
G1 X140.187 Y111.647 E6.76569
G1 X140.943 Y112.171 E6.79628
G1 X141.651 Y112.76 E6.82691
G1 X142.306 Y113.407 E6.85753
G1 X142.902 Y114.109 E6.88816
G1 X143.434 Y114.86 E6.91877
G1 X143.9 Y115.654 E6.94939
G1 X144.294 Y116.486 E6.98001
G1 X144.616 Y117.349 E7.01065
G1 X144.861 Y118.236 E7.04126
G1 X145.028 Y119.142 E7.0719
G1 X145.116 Y120.058 E7.1025
G1 X145.13 Y120.544 E7.11867
G1 X145.134 Y121.175 E7.13966
G1 X145.1 Y122.095 E7.17028
G1 X144.927 Y123.328 E7.21169
G1 X144.87 Y123.612 E7.22133
G1 X144.65 Y124.506 E7.25195
G1 X144.353 Y125.377 E7.28256
G1 X143.981 Y126.22 E7.3132
G1 X143.672 Y126.8 E7.33506
G1 X143.103 Y127.788 E7.37298
G1 X140.919 Y131.428 E7.51417
G1 X140.543 Y132.038 E7.538
G1 X140.026 Y132.8 E7.56863
G1 X139.445 Y133.514 E7.59925
G1 X138.804 Y134.176 E7.62989
G1 X138.109 Y134.779 E7.6605
G1 X137.364 Y135.319 E7.6911
G1 X136.574 Y135.793 E7.72174
G1 X135.747 Y136.196 E7.75234
G1 X134.887 Y136.527 E7.78299
G1 X134.002 Y136.781 E7.81362
G1 X133.099 Y136.958 E7.84422
G1 X131.732 Y137.074 E7.88985
G1 X130.527 Y137.096 E7.92994
G1 X109.5 Y137.097 E8.6293
G1 X109.063 Y137.088 E8.64383
G1 X108.043 Y137.046 E8.67779
G1 X107.1 Y136.965 E8.70927
G1 X106.33 Y136.864 E8.7351
G1 X105.45 Y136.711 E8.76481
G1 X104.588 Y136.523 E8.79415
G1 X103.77 Y136.31 E8.82226
G1 X103.381 Y136.192 E8.83578
G1 X102.727 Y135.972 E8.85873
G1 X102.241 Y135.787 E8.87603
G1 X101.482 Y135.476 E8.90331
G1 X100.662 Y135.098 E8.93334
G1 X99.787 Y134.649 E8.96605
G1 X98.603 Y133.94 E9.01195
G1 X97.821 Y133.4 E9.04356
G1 X97.1 Y132.856 E9.0736
G1 X96.49 Y132.353 E9.0999
G1 X95.813 Y131.744 E9.13019
G1 X95.247 Y131.189 E9.15655
G1 X94.614 Y130.511 E9.1874
G1 X94.134 Y129.95 E9.21196
G1 X93.572 Y129.233 E9.24226
G1 X93.036 Y128.485 E9.27287
G1 X92.572 Y127.781 E9.30091
G1 X92.152 Y127.066 E9.32849
G1 X91.969 Y126.731 E9.34119
G1 X91.584 Y125.969 E9.36958
G1 X91.264 Y125.264 E9.39533
G1 X91.039 Y124.707 E9.41531
G1 X90.745 Y123.917 E9.44335
G1 X90.499 Y123.175 E9.46935
G1 X90.264 Y122.331 E9.49849
G1 X90.15 Y121.864 E9.51448
G1 X89.963 Y120.905 E9.54697
G1 X89.826 Y119.981 E9.57804
G1 X89.731 Y119.081 E9.60814
G1 X89.684 Y118.322 E9.63344
G1 X89.667 Y117.42 E9.66344
G1 X89.687 Y116.563 E9.69195
G1 X89.737 Y115.755 E9.71888
G1 X89.836 Y114.917 E9.74695
G1 X89.957 Y114.136 E9.77323
G1 X90.137 Y113.235 E9.80379
G1 X90.329 Y112.452 E9.83061
G1 X90.583 Y111.578 E9.86088
G1 X90.826 Y110.86 E9.88609
G1 X91.165 Y109.989 E9.91717
G1 X91.528 Y109.164 E9.94715
G1 X91.9 Y108.402 E9.97536
G1 X92.265 Y107.751 E10.00018
G1 X92.789 Y106.899 E10.03345
G1 X93.135 Y106.374 E10.05436
G1 X93.682 Y105.619 E10.08537
G1 X94.154 Y105.024 E10.11063
G1 X94.761 Y104.324 E10.14145
G1 X95.153 Y103.91 E10.16041
G1 X95.467 Y103.592 E10.17527
G1 X95.876 Y103.195 E10.19423
G0 F6000 X96.155 Y103.482
G1 F1200 X96.815 Y102.894 E10.22363
G1 X97.307 Y102.493 E10.24474
G1 X98.124 Y101.872 E10.27887
G1 X98.853 Y101.374 E10.30824
G1 X99.435 Y101.013 E10.33102
G1 X100.218 Y100.574 E10.36087
G1 X101.003 Y100.178 E10.39012
G1 X101.599 Y99.901 E10.41198
G1 X101.876 Y99.783 E10.42199
G1 X102.484 Y99.547 E10.44368
G1 X103.27 Y99.27 E10.4714
G1 X103.914 Y99.067 E10.49386
G1 X104.168 Y98.996 E10.50263
G1 X104.786 Y98.843 E10.52381
G1 X105.747 Y98.638 E10.55649
G1 X106.568 Y98.498 E10.58419
G1 X107.269 Y98.42 E10.60765
G1 X107.918 Y98.368 E10.6293
G1 X108.349 Y98.342 E10.64367
G1 X109.04 Y98.316 E10.66666
G1 X109.819 Y98.317 E10.69257
G1 X110.206 Y98.332 E10.70546
G1 X110.713 Y98.364 E10.72235
G1 X111.393 Y98.435 E10.74509
G1 X112.191 Y98.543 E10.77188
G1 X113.059 Y98.699 E10.80121
G1 X113.918 Y98.892 E10.83049
G1 X114.638 Y99.082 E10.85526
G1 X115.406 Y99.331 E10.88211
G1 X116.018 Y99.555 E10.90379
G1 X116.42 Y99.712 E10.91814
G1 X117.071 Y99.982 E10.94158
G1 X117.788 Y100.313 E10.96785
G1 X118.132 Y100.488 E10.98068
G1 X118.743 Y100.823 E11.00386
G1 X119.167 Y101.078 E11.02032
G1 X120.31 Y101.805 E11.06537
G1 X121.08 Y102.321 E11.0962
G1 X123.263 Y103.705 E11.18217
G1 X125.414 Y104.984 E11.2654
G1 X127.659 Y106.235 E11.35088
G1 X129.896 Y107.4 E11.43477
G1 X132.201 Y108.518 E11.51998
G1 X134.486 Y109.547 E11.60333
G1 X136.339 Y110.321 E11.67012
G1 X136.467 Y110.381 E11.67482
G1 X138.4 Y111.174 E11.74431
G1 X139.22 Y111.553 E11.77436
G1 X140.002 Y112.003 E11.80437
G1 X140.742 Y112.521 E11.83441
G1 X141.434 Y113.102 E11.86446
G1 X142.071 Y113.742 E11.8945
G1 X142.649 Y114.436 E11.92454
G1 X143.163 Y115.179 E11.95458
G1 X143.61 Y115.964 E11.98463
G1 X143.985 Y116.785 E12.01465
G1 X144.287 Y117.636 E12.04468
G1 X144.511 Y118.511 E12.07473
G1 X144.658 Y119.402 E12.10476
G1 X144.73 Y120.546 E12.14289
G1 X144.734 Y121.177 E12.16387
G1 X144.7 Y122.08 E12.19393
G1 X144.535 Y123.249 E12.23319
G1 X144.478 Y123.533 E12.24283
G1 X144.261 Y124.41 E12.27288
G1 X143.967 Y125.264 E12.30292
G1 X143.6 Y126.089 E12.33295
G1 X143.325 Y126.601 E12.35228
G1 X142.76 Y127.582 E12.38993
G1 X140.578 Y131.218 E12.53097
G1 X140.202 Y131.828 E12.5548
G1 X139.695 Y132.575 E12.58483
G1 X139.123 Y133.274 E12.61487
G1 X138.492 Y133.92 E12.64491
G1 X137.806 Y134.508 E12.67496
G1 X137.071 Y135.033 E12.705
G1 X136.292 Y135.49 E12.73504
G1 X135.476 Y135.877 E12.76508
G1 X134.629 Y136.19 E12.79511
G1 X133.758 Y136.427 E12.82513
G1 X132.869 Y136.586 E12.85517
G1 X131.724 Y136.674 E12.89337
G1 X130.526 Y136.696 E12.93322
G1 X109.499 Y136.697 E13.63258
G1 X109.079 Y136.688 E13.64655
G1 X108.059 Y136.646 E13.68051
G1 X107.152 Y136.568 E13.71079
G1 X106.382 Y136.467 E13.73661
G1 X105.535 Y136.32 E13.76521
G1 X104.673 Y136.132 E13.79455
G1 X103.886 Y135.927 E13.8216
G1 X103.497 Y135.809 E13.83512
G1 X102.86 Y135.595 E13.85747
G1 X102.393 Y135.416 E13.87411
G1 X101.634 Y135.105 E13.90139
G1 X100.844 Y134.742 E13.9303
G1 X99.969 Y134.293 E13.96301
G1 X98.83 Y133.611 E14.00717
G1 X98.048 Y133.071 E14.03878
G1 X97.355 Y132.548 E14.06765
G1 X96.745 Y132.045 E14.09395
G1 X96.093 Y131.458 E14.12313
G1 X95.527 Y130.903 E14.1495
G1 X94.918 Y130.251 E14.17917
G1 X94.438 Y129.69 E14.20373
G1 X93.897 Y129 E14.23289
G1 X93.361 Y128.252 E14.2635
G1 X92.915 Y127.575 E14.29046
G1 X92.718 Y127.248 E14.30316
G1 X92.321 Y126.539 E14.33018
G1 X91.943 Y125.793 E14.358
G1 X91.63 Y125.104 E14.38317
G1 X91.414 Y124.568 E14.40239
G1 X91.12 Y123.778 E14.43043
G1 X90.883 Y123.064 E14.45545
G1 X90.766 Y122.661 E14.46941
G1 X90.539 Y121.769 E14.50002
G1 X90.358 Y120.846 E14.5313
G1 X90.221 Y119.922 E14.56237
G1 X90.131 Y119.056 E14.59133
G1 X90.084 Y118.297 E14.61662
G1 X90.067 Y117.429 E14.6455
G1 X90.087 Y116.572 E14.67401
G1 X90.135 Y115.795 E14.6999
G1 X90.231 Y114.978 E14.72726
G1 X90.352 Y114.197 E14.75355
G1 X90.525 Y113.33 E14.78295
G1 X90.717 Y112.547 E14.80977
G1 X90.962 Y111.706 E14.8389
G1 X91.205 Y110.988 E14.86411
G1 X91.531 Y110.15 E14.89402
G1 X91.894 Y109.325 E14.924
G1 X92.252 Y108.592 E14.95113
G1 X92.608 Y107.958 E14.97531
G1 X93.123 Y107.119 E15.00806
G1 X93.469 Y106.594 E15.02897
G1 X93.995 Y105.868 E15.05879
G1 X94.467 Y105.273 E15.08405
G1 X95.051 Y104.599 E15.11371
G1 X95.443 Y104.185 E15.13267
G1 X96.155 Y103.482 E15.16595
G1 F2700 E10.16595
;MESH:PFEIFE.stl
G0 F6000 X101.199 Y112.154
G0 X109.059 Y125.572
;TYPE:WALL-INNER
G1 F2700 E15.16595
G1 F1371.4 X108.697 Y125.557 E15.1765
G1 X108.315 Y125.521 E15.18766
G1 X107.921 Y125.466 E15.19924
G1 F1375.4 X107.523 Y125.388 E15.21101
G1 X107.175 Y125.305 E15.22139
G1 X106.809 Y125.197 E15.23247
G1 F1371.4 X106.489 Y125.088 E15.2423
G1 X106.096 Y124.935 E15.25458
G1 F1375.4 X105.749 Y124.776 E15.26565
G1 X105.407 Y124.602 E15.27679
G1 F1371.4 X105.088 Y124.42 E15.28748
G1 X104.766 Y124.217 E15.29856
G1 X104.462 Y124.002 E15.30939
G1 X104.144 Y123.757 E15.32108
G1 F1375.4 X103.872 Y123.526 E15.33143
G1 X103.572 Y123.243 E15.3434
G1 X103.312 Y122.973 E15.35428
G1 F1379.3 X103.053 Y122.681 E15.36557
G1 X102.82 Y122.385 E15.37647
G1 F1375.4 X102.601 Y122.086 E15.38723
G1 F1371.4 X102.396 Y121.772 E15.39814
G1 X102.201 Y121.442 E15.4093
G1 F1375.4 X102.016 Y121.092 E15.42078
G1 F1379.3 X101.855 Y120.745 E15.43185
G1 F1375.4 X101.702 Y120.373 E15.44353
G1 X101.582 Y120.034 E15.45396
G1 F1379.3 X101.47 Y119.669 E15.46501
G1 F1383.3 X101.373 Y119.283 E15.47649
G1 F1379.3 X101.301 Y118.925 E15.48706
G1 F1375.4 X101.243 Y118.559 E15.49781
G1 X101.202 Y118.171 E15.50914
G1 F1379.3 X101.18 Y117.818 E15.51937
G1 X101.176 Y117.409 E15.5312
G1 F1375.4 X101.192 Y116.955 E15.54439
G1 F1371.4 X101.223 Y116.611 E15.55444
G1 F1375.4 X101.262 Y116.307 E15.56333
G1 F1379.3 X101.335 Y115.893 E15.5755
G1 F1375.4 X101.413 Y115.547 E15.58579
G1 X101.517 Y115.174 E15.59703
G1 F1371.4 X101.643 Y114.79 E15.60879
G1 F1375.4 X101.779 Y114.435 E15.61982
G1 X101.925 Y114.097 E15.63051
G1 F1371.4 X102.092 Y113.759 E15.64148
G1 X102.279 Y113.424 E15.65264
G1 X102.483 Y113.095 E15.66391
G1 F1375.4 X102.705 Y112.766 E15.67543
G1 F1371.4 X102.934 Y112.469 E15.68634
G1 X103.177 Y112.177 E15.6974
